;FLAVOR:Marlin
;TIME:8006
;Filament used: 7.15093m
;Layer height: 0.3
;Generated with Cura_SteamEngine 3.6.0
M140 S60
M105
M190 S60
M104 S210
M105
M109 S210
M82 ;absolute extrusion mode
; Ender 3 Custom Start G-code
G28 ; Home all axes
G92 E0 ; Reset Extruder
G1 Z2.0 F3000 ; Move Z Axis up little to prevent scratching of Heat Bed
G1 X0.1 Y20 Z0.3 F5000.0 ; Move to start position
G1 X0.1 Y200.0 Z0.3 F1500.0 E15 ; Draw the first line
G1 X0.4 Y200.0 Z0.3 F5000.0 ; Move to side a little
G1 X0.4 Y20 Z0.3 F1500.0 E30 ; Draw the second line
G92 E0 ; Reset Extruder
G1 Z2.0 F3000 ; Move Z Axis up little to prevent scratching of Heat Bed
; End of custom start GCode
G92 E0
;LAYER_COUNT:118
;LAYER:0
M107
M204 S5000
M205 X30 Y30
G0 F3600 X95.958 Y94.548 Z0.2
M204 S500
M205 X20 Y20
;TYPE:SKIRT
G1 F750 X96.432 Y94.117 E0.02131
G1 X98.643 Y92.299 E0.11651
G1 X99.157 Y91.917 E0.13781
G1 X100.934 Y90.732 E0.20885
G1 X101.481 Y90.406 E0.23003
G1 X104.019 Y89.057 E0.32563
G1 X104.541 Y88.809 E0.34485
G1 X106.091 Y88.157 E0.40078
G1 X106.554 Y87.983 E0.41723
G1 X108.569 Y87.313 E0.48786
G1 X109.175 Y87.144 E0.50878
G1 X111.94 Y86.518 E0.60307
G1 X112.571 Y86.408 E0.62438
G1 X114.749 Y86.14 E0.69737
G1 X115.388 Y86.094 E0.71867
G1 X118.213 Y86.031 E0.81266
G1 X118.852 Y86.048 E0.83392
G1 X121.05 Y86.219 E0.90724
G1 X121.691 Y86.302 E0.92874
G1 X124.499 Y86.809 E1.02365
G1 X125.065 Y86.938 E1.04295
G1 X126.702 Y87.39 E1.09944
G1 X127.167 Y87.537 E1.11566
G1 X129.139 Y88.247 E1.18537
G1 X129.743 Y88.5 E1.20715
G1 X132.509 Y89.829 E1.30922
G1 X133.085 Y90.144 E1.33105
G1 X134.88 Y91.246 E1.40111
G1 X135.406 Y91.605 E1.42229
G1 X137.672 Y93.328 E1.51697
G1 X138.115 Y93.698 E1.53617
G1 X139.365 Y94.84 E1.59248
G1 X139.676 Y95.145 E1.60697
G1 X140.843 Y96.367 E1.66317
G1 X141.162 Y96.726 E1.67914
G1 X142.492 Y98.346 E1.74885
G1 X142.785 Y98.732 E1.76497
G1 X143.762 Y100.125 E1.82156
G1 X144.075 Y100.617 E1.84096
G1 X145.512 Y103.124 E1.93707
G1 X145.802 Y103.696 E1.9584
G1 X146.678 Y105.656 E2.0298
G1 X146.862 Y106.113 E2.04619
G1 X147.42 Y107.674 E2.10133
G1 X147.59 Y108.227 E2.12057
G1 X148.315 Y111.033 E2.21696
G1 X148.443 Y111.656 E2.23811
G1 X148.764 Y113.732 E2.30798
G1 X148.83 Y114.371 E2.32935
G1 X148.985 Y117.292 E2.42664
G1 X148.987 Y117.929 E2.44783
G1 X148.89 Y120.007 E2.51702
G1 X148.829 Y120.64 E2.53817
G1 X148.409 Y123.496 E2.63418
G1 X148.298 Y124.069 E2.65359
G1 X147.904 Y125.699 E2.70937
G1 X147.79 Y126.11 E2.72355
G1 X147.289 Y127.708 E2.77925
G1 X147.126 Y128.165 E2.79539
G1 X146.334 Y130.15 E2.86647
G1 X146.067 Y130.733 E2.8878
G1 X144.72 Y133.321 E2.98484
G1 X144.427 Y133.826 E3.00426
G1 X143.537 Y135.211 E3.05901
G1 X143.299 Y135.557 E3.07298
G1 X142.319 Y136.882 E3.1278
G1 X142.051 Y137.219 E3.14212
G1 X140.958 Y138.506 E3.19828
G1 X140.669 Y138.824 E3.21257
G1 X139.487 Y140.04 E3.26897
G1 X139.179 Y140.337 E3.2832
G1 X137.952 Y141.441 E3.3381
G1 X137.588 Y141.744 E3.35385
G1 X135.903 Y143.048 E3.42472
G1 X135.369 Y143.42 E3.44636
G1 X132.91 Y144.951 E3.54271
G1 X132.405 Y145.235 E3.56198
G1 X130.925 Y145.98 E3.61709
G1 X130.521 Y146.166 E3.63188
G1 X128.827 Y146.876 E3.69297
G1 X128.412 Y147.033 E3.70773
G1 X126.814 Y147.576 E3.76386
G1 X126.351 Y147.714 E3.77993
G1 X124.335 Y148.233 E3.84917
G1 X123.866 Y148.335 E3.86513
G1 X122.222 Y148.629 E3.92068
G1 X121.642 Y148.706 E3.94014
G1 X118.75 Y148.954 E4.03668
G1 X118.114 Y148.976 E4.05785
G1 X116.023 Y148.947 E4.1274
G1 X115.383 Y148.906 E4.14873
G1 X112.453 Y148.57 E4.24682
G1 X111.877 Y148.478 E4.26622
G1 X110.273 Y148.144 E4.32072
G1 X109.853 Y148.041 E4.3351
G1 X108.242 Y147.59 E4.39074
G1 X107.839 Y147.463 E4.4048
G1 X106.239 Y146.899 E4.46122
G1 X105.84 Y146.743 E4.47547
G1 X104.339 Y146.098 E4.52981
G1 X103.96 Y145.92 E4.54374
G1 X102.453 Y145.152 E4.59999
G1 X102.028 Y144.915 E4.61618
G1 X100.233 Y143.821 E4.68609
G1 X99.707 Y143.463 E4.70726
G1 X97.407 Y141.726 E4.80312
G1 X96.955 Y141.351 E4.82265
G1 X95.692 Y140.201 E4.87947
G1 X95.386 Y139.903 E4.89367
G1 X94.231 Y138.701 E4.94912
G1 X93.945 Y138.383 E4.96334
G1 X92.865 Y137.097 E5.0192
G1 X92.569 Y136.715 E5.03527
G1 X91.331 Y134.992 E5.10584
G1 X91.059 Y134.582 E5.1222
G1 X90.19 Y133.152 E5.17786
G1 X89.984 Y132.787 E5.1918
G1 X89.208 Y131.299 E5.24761
G1 X88.961 Y130.767 E5.26712
G1 X87.863 Y128.088 E5.36342
G1 X87.611 Y127.345 E5.38951
G1 X86.75 Y124.189 E5.49832
G1 X86.612 Y123.561 E5.5197
G1 X86.324 Y121.84 E5.57774
G1 X86.265 Y121.393 E5.59274
G1 X86.1 Y119.668 E5.65037
G1 X86.074 Y119.239 E5.66467
G1 X86.024 Y117.466 E5.72366
G1 X86.029 Y116.969 E5.74019
G1 X86.131 Y114.912 E5.80869
G1 X86.193 Y114.285 E5.82965
G1 X86.617 Y111.443 E5.92522
G1 X86.729 Y110.872 E5.94457
G1 X87.131 Y109.222 E6.00106
G1 X87.248 Y108.802 E6.01556
G1 X87.763 Y107.178 E6.07222
G1 X87.929 Y106.718 E6.08849
G1 X88.723 Y104.75 E6.15907
G1 X88.986 Y104.18 E6.17995
G1 X90.304 Y101.659 E6.27457
G1 X90.628 Y101.108 E6.29583
G1 X91.808 Y99.313 E6.36727
G1 X92.188 Y98.794 E6.38867
G1 X93.999 Y96.564 E6.48422
G1 X94.428 Y96.087 E6.50555
G1 X95.958 Y94.548 E6.57773
M204 S5000
M205 X30 Y30
G0 F3600 X96.242 Y94.83
M204 S500
M205 X20 Y20
G1 F750 X96.686 Y94.426 E6.5977
G1 X98.897 Y92.608 E6.6929
G1 X99.379 Y92.25 E6.71287
G1 X101.156 Y91.065 E6.78391
G1 X101.669 Y90.759 E6.80378
G1 X104.207 Y89.41 E6.89938
G1 X104.697 Y89.177 E6.91742
G1 X106.247 Y88.525 E6.97335
G1 X106.68 Y88.362 E6.98874
G1 X108.695 Y87.692 E7.05937
G1 X109.263 Y87.534 E7.07898
G1 X112.028 Y86.908 E7.17327
G1 X112.62 Y86.805 E7.19325
G1 X114.798 Y86.537 E7.26624
G1 X115.397 Y86.493 E7.28622
G1 X118.222 Y86.43 E7.3802
G1 X118.821 Y86.447 E7.40013
G1 X121.019 Y86.618 E7.47346
G1 X121.62 Y86.695 E7.49361
G1 X124.428 Y87.202 E7.58852
G1 X124.959 Y87.323 E7.60663
G1 X126.596 Y87.775 E7.66311
G1 X127.032 Y87.914 E7.67833
G1 X129.004 Y88.624 E7.74805
G1 X129.569 Y88.861 E7.76842
G1 X132.335 Y90.19 E7.87049
G1 X132.876 Y90.485 E7.89098
G1 X134.671 Y91.587 E7.96104
G1 X135.164 Y91.924 E7.9809
G1 X137.43 Y93.647 E8.07558
G1 X137.845 Y93.993 E8.09355
G1 X139.095 Y95.135 E8.14987
G1 X139.387 Y95.421 E8.16346
G1 X140.554 Y96.643 E8.21966
G1 X140.852 Y96.98 E8.23462
G1 X142.182 Y98.6 E8.30434
G1 X142.457 Y98.962 E8.31946
G1 X143.434 Y100.355 E8.37605
G1 X143.727 Y100.816 E8.39422
G1 X145.164 Y103.323 E8.49033
G1 X145.437 Y103.859 E8.51033
G1 X146.313 Y105.819 E8.58174
G1 X146.485 Y106.247 E8.59708
G1 X147.043 Y107.808 E8.65222
G1 X147.202 Y108.327 E8.67027
G1 X147.927 Y111.133 E8.76666
G1 X148.048 Y111.717 E8.7865
G1 X148.369 Y113.793 E8.85637
G1 X148.431 Y114.392 E8.8764
G1 X148.586 Y117.313 E8.97369
G1 X148.587 Y117.911 E8.99358
G1 X148.49 Y119.989 E9.06277
G1 X148.433 Y120.582 E9.08258
G1 X148.013 Y123.438 E9.17859
G1 X147.909 Y123.975 E9.19679
G1 X147.515 Y125.605 E9.25256
G1 X147.408 Y125.99 E9.26585
G1 X146.907 Y127.588 E9.32155
G1 X146.755 Y128.017 E9.33669
G1 X145.963 Y130.002 E9.40777
G1 X145.712 Y130.548 E9.42776
G1 X144.365 Y133.136 E9.5248
G1 X144.091 Y133.61 E9.54301
G1 X143.201 Y134.995 E9.59776
G1 X142.977 Y135.319 E9.61086
G1 X141.997 Y136.644 E9.66568
G1 X141.746 Y136.96 E9.6791
G1 X140.653 Y138.247 E9.73526
G1 X140.382 Y138.545 E9.74866
G1 X139.2 Y139.761 E9.80506
G1 X138.911 Y140.039 E9.8184
G1 X137.684 Y141.143 E9.8733
G1 X137.343 Y141.428 E9.88808
G1 X135.658 Y142.732 E9.95894
G1 X135.157 Y143.08 E9.97923
G1 X132.698 Y144.611 E10.07557
G1 X132.225 Y144.877 E10.09362
G1 X130.745 Y145.622 E10.14873
G1 X130.366 Y145.797 E10.16262
G1 X128.672 Y146.507 E10.22371
G1 X128.283 Y146.654 E10.23754
G1 X126.685 Y147.197 E10.29367
G1 X126.251 Y147.327 E10.30874
G1 X124.235 Y147.846 E10.37798
G1 X123.795 Y147.941 E10.39295
G1 X122.151 Y148.235 E10.4485
G1 X121.608 Y148.307 E10.46672
G1 X118.716 Y148.555 E10.56326
G1 X118.12 Y148.576 E10.5831
G1 X116.029 Y148.547 E10.65265
G1 X115.428 Y148.509 E10.67268
G1 X112.498 Y148.173 E10.77077
G1 X111.959 Y148.086 E10.78893
G1 X110.355 Y147.752 E10.84342
G1 X109.96 Y147.656 E10.85694
G1 X108.349 Y147.205 E10.91259
G1 X107.972 Y147.086 E10.92573
G1 X106.372 Y146.522 E10.98216
G1 X105.998 Y146.376 E10.99551
G1 X104.497 Y145.731 E11.04985
G1 X104.142 Y145.564 E11.0629
G1 X102.635 Y144.796 E11.11916
G1 X102.236 Y144.573 E11.13436
G1 X100.441 Y143.479 E11.20428
G1 X99.948 Y143.144 E11.2241
G1 X97.648 Y141.407 E11.31996
G1 X97.224 Y141.055 E11.33829
G1 X95.961 Y139.905 E11.3951
G1 X95.675 Y139.626 E11.40839
G1 X94.52 Y138.424 E11.46384
G1 X94.251 Y138.126 E11.47719
G1 X93.171 Y136.84 E11.53304
G1 X92.893 Y136.482 E11.54812
G1 X91.655 Y134.759 E11.61869
G1 X91.401 Y134.374 E11.63403
G1 X90.532 Y132.944 E11.68968
G1 X90.339 Y132.602 E11.70274
G1 X89.563 Y131.114 E11.75856
G1 X89.331 Y130.615 E11.77686
G1 X88.233 Y127.936 E11.87316
G1 X87.997 Y127.24 E11.8976
G1 X87.136 Y124.084 E12.00641
G1 X87.006 Y123.495 E12.02647
G1 X86.718 Y121.774 E12.08451
G1 X86.663 Y121.355 E12.09856
G1 X86.498 Y119.63 E12.1562
G1 X86.473 Y119.228 E12.1696
G1 X86.423 Y117.455 E12.22859
G1 X86.428 Y116.989 E12.24409
G1 X86.53 Y114.932 E12.31259
G1 X86.589 Y114.344 E12.33224
G1 X87.013 Y111.502 E12.42782
G1 X87.118 Y110.967 E12.44595
G1 X87.52 Y109.317 E12.50243
G1 X87.63 Y108.923 E12.51604
G1 X88.145 Y107.299 E12.57271
G1 X88.3 Y106.868 E12.58794
G1 X89.094 Y104.9 E12.65852
G1 X89.341 Y104.365 E12.67812
G1 X90.659 Y101.844 E12.77274
G1 X90.962 Y101.328 E12.79264
G1 X92.142 Y99.533 E12.86409
G1 X92.498 Y99.047 E12.88412
G1 X94.309 Y96.817 E12.97967
G1 X94.712 Y96.369 E12.99971
G1 X96.242 Y94.83 E13.07189
M204 S5000
M205 X30 Y30
G0 F3600 X96.526 Y95.112
M204 S500
M205 X20 Y20
G1 F750 X96.94 Y94.734 E13.09054
G1 X99.151 Y92.916 E13.18574
G1 X99.601 Y92.583 E13.20436
G1 X101.378 Y91.398 E13.2754
G1 X101.857 Y91.112 E13.29396
G1 X104.395 Y89.763 E13.38956
G1 X104.852 Y89.546 E13.40638
G1 X106.402 Y88.894 E13.46231
G1 X106.806 Y88.742 E13.47667
G1 X108.821 Y88.072 E13.54729
G1 X109.351 Y87.924 E13.5656
G1 X112.116 Y87.298 E13.65989
G1 X112.669 Y87.202 E13.67856
G1 X114.847 Y86.934 E13.75154
G1 X115.406 Y86.893 E13.77018
G1 X118.231 Y86.83 E13.86417
G1 X118.79 Y86.846 E13.88277
G1 X120.988 Y87.017 E13.95609
G1 X121.549 Y87.089 E13.97491
G1 X124.357 Y87.596 E14.06981
G1 X124.852 Y87.709 E14.0867
G1 X126.489 Y88.161 E14.14318
G1 X126.896 Y88.29 E14.15738
G1 X128.868 Y89 E14.22709
G1 X129.396 Y89.221 E14.24613
G1 X132.162 Y90.55 E14.3482
G1 X132.667 Y90.826 E14.36734
G1 X134.462 Y91.928 E14.43739
G1 X134.922 Y92.242 E14.45592
G1 X137.188 Y93.965 E14.5506
G1 X137.575 Y94.289 E14.56739
G1 X138.825 Y95.431 E14.6237
G1 X139.098 Y95.697 E14.63638
G1 X140.265 Y96.919 E14.69258
G1 X140.543 Y97.234 E14.70655
G1 X141.873 Y98.854 E14.77626
G1 X142.13 Y99.191 E14.79036
G1 X143.107 Y100.584 E14.84695
G1 X143.38 Y101.015 E14.86392
G1 X144.817 Y103.522 E14.96003
G1 X145.072 Y104.022 E14.9787
G1 X145.948 Y105.982 E15.0501
G1 X146.108 Y106.382 E15.06443
G1 X146.666 Y107.943 E15.11957
G1 X146.815 Y108.427 E15.13641
G1 X147.54 Y111.233 E15.2328
G1 X147.652 Y111.778 E15.25131
G1 X147.973 Y113.854 E15.32118
G1 X148.031 Y114.413 E15.33987
G1 X148.186 Y117.334 E15.43716
G1 X148.188 Y117.892 E15.45572
G1 X148.091 Y119.97 E15.52491
G1 X148.037 Y120.524 E15.54342
G1 X147.617 Y123.38 E15.63944
G1 X147.52 Y123.881 E15.65641
G1 X147.126 Y125.511 E15.71218
G1 X147.027 Y125.87 E15.72457
G1 X146.526 Y127.468 E15.78027
G1 X146.383 Y127.868 E15.7944
G1 X145.591 Y129.853 E15.86548
G1 X145.357 Y130.363 E15.88414
G1 X144.01 Y132.951 E15.98118
G1 X143.754 Y133.393 E15.99817
G1 X142.864 Y134.778 E16.05293
G1 X142.655 Y135.081 E16.06517
G1 X141.675 Y136.406 E16.11998
G1 X141.441 Y136.701 E16.13251
G1 X140.348 Y137.988 E16.18867
G1 X140.096 Y138.266 E16.20115
G1 X138.914 Y139.482 E16.25755
G1 X138.644 Y139.742 E16.27002
G1 X137.417 Y140.846 E16.32492
G1 X137.098 Y141.112 E16.33873
G1 X135.413 Y142.416 E16.4096
G1 X134.946 Y142.741 E16.42852
G1 X132.487 Y144.272 E16.52486
G1 X132.045 Y144.52 E16.54172
G1 X130.565 Y145.265 E16.59683
G1 X130.212 Y145.428 E16.60976
G1 X128.518 Y146.138 E16.67085
G1 X128.155 Y146.275 E16.68376
G1 X126.557 Y146.818 E16.73989
G1 X126.151 Y146.939 E16.75398
G1 X124.135 Y147.458 E16.82322
G1 X123.725 Y147.548 E16.83718
G1 X122.081 Y147.842 E16.89273
G1 X121.573 Y147.909 E16.90977
G1 X118.681 Y148.157 E17.00631
G1 X118.125 Y148.176 E17.02482
G1 X116.034 Y148.147 E17.09437
G1 X115.474 Y148.112 E17.11303
G1 X112.544 Y147.776 E17.21112
G1 X112.04 Y147.694 E17.22811
G1 X110.436 Y147.36 E17.2826
G1 X110.068 Y147.271 E17.29519
G1 X108.457 Y146.82 E17.35084
G1 X108.105 Y146.708 E17.36312
G1 X106.505 Y146.144 E17.41955
G1 X106.156 Y146.008 E17.432
G1 X104.655 Y145.363 E17.48634
G1 X104.323 Y145.207 E17.49854
G1 X102.816 Y144.439 E17.5548
G1 X102.445 Y144.232 E17.56893
G1 X100.65 Y143.138 E17.63885
G1 X100.189 Y142.825 E17.65738
G1 X97.889 Y141.088 E17.75324
G1 X97.494 Y140.76 E17.77032
G1 X96.231 Y139.61 E17.82713
G1 X95.963 Y139.349 E17.83957
G1 X94.808 Y138.147 E17.89502
G1 X94.558 Y137.868 E17.90748
G1 X93.478 Y136.582 E17.96333
G1 X93.218 Y136.249 E17.97738
G1 X91.98 Y134.526 E18.04795
G1 X91.742 Y134.166 E18.0623
G1 X90.873 Y132.736 E18.11796
G1 X90.694 Y132.417 E18.13013
G1 X89.918 Y130.929 E18.18594
G1 X89.701 Y130.464 E18.20301
G1 X88.603 Y127.785 E18.29931
G1 X88.382 Y127.135 E18.32214
G1 X87.521 Y123.979 E18.43095
G1 X87.401 Y123.429 E18.44967
G1 X87.113 Y121.708 E18.50771
G1 X87.061 Y121.317 E18.52083
G1 X86.896 Y119.592 E18.57846
G1 X86.873 Y119.217 E18.59096
G1 X86.823 Y117.444 E18.64995
G1 X86.828 Y117.009 E18.66442
G1 X86.93 Y114.952 E18.73292
G1 X86.984 Y114.403 E18.75127
G1 X87.408 Y111.561 E18.84684
G1 X87.506 Y111.061 E18.86379
G1 X87.908 Y109.411 E18.92027
G1 X88.011 Y109.044 E18.93295
G1 X88.526 Y107.42 E18.98961
G1 X88.671 Y107.018 E19.00383
G1 X89.465 Y105.05 E19.07441
G1 X89.695 Y104.55 E19.09272
G1 X91.013 Y102.029 E19.18733
G1 X91.297 Y101.548 E19.20591
G1 X92.477 Y99.753 E19.27736
G1 X92.809 Y99.299 E19.29607
G1 X94.62 Y97.069 E19.39161
G1 X94.996 Y96.651 E19.41031
G1 X96.526 Y95.112 E19.48249
M204 S5000
M205 X30 Y30
G0 F3600 X96.809 Y95.394
M204 S500
M205 X20 Y20
G1 F750 X97.194 Y95.043 E19.49982
G1 X99.405 Y93.225 E19.59502
G1 X99.823 Y92.916 E19.61231
G1 X101.6 Y91.731 E19.68335
G1 X102.044 Y91.465 E19.70057
G1 X104.582 Y90.116 E19.79617
G1 X105.007 Y89.915 E19.8118
G1 X106.557 Y89.263 E19.86773
G1 X106.932 Y89.122 E19.88106
G1 X108.947 Y88.452 E19.95168
G1 X109.44 Y88.314 E19.96871
G1 X112.205 Y87.688 E20.063
G1 X112.718 Y87.599 E20.08032
G1 X114.896 Y87.331 E20.15331
G1 X115.415 Y87.293 E20.17061
G1 X118.24 Y87.23 E20.2646
G1 X118.759 Y87.245 E20.28187
G1 X120.957 Y87.416 E20.35519
G1 X121.478 Y87.483 E20.37266
G1 X124.286 Y87.99 E20.46757
G1 X124.746 Y88.095 E20.48326
G1 X126.383 Y88.547 E20.53975
G1 X126.761 Y88.666 E20.55293
G1 X128.733 Y89.376 E20.62264
G1 X129.223 Y89.582 E20.64032
G1 X131.989 Y90.911 E20.74238
G1 X132.458 Y91.166 E20.76014
G1 X134.253 Y92.268 E20.83019
G1 X134.679 Y92.561 E20.84739
G1 X136.945 Y94.284 E20.94207
G1 X137.305 Y94.584 E20.95766
G1 X138.555 Y95.726 E21.01397
G1 X138.809 Y95.974 E21.02578
G1 X139.976 Y97.196 E21.08198
G1 X140.234 Y97.487 E21.09491
G1 X141.564 Y99.107 E21.16463
G1 X141.802 Y99.421 E21.17773
G1 X142.779 Y100.814 E21.23432
G1 X143.033 Y101.214 E21.25008
G1 X144.47 Y103.721 E21.34619
G1 X144.706 Y104.185 E21.36351
G1 X145.582 Y106.145 E21.43491
G1 X145.732 Y106.517 E21.44825
G1 X146.29 Y108.078 E21.50339
G1 X146.428 Y108.527 E21.51901
G1 X147.153 Y111.333 E21.6154
G1 X147.257 Y111.839 E21.63259
G1 X147.578 Y113.915 E21.70245
G1 X147.632 Y114.434 E21.71981
