;FLAVOR:Marlin
;TIME:6654
;Filament used: 7.20994m
;Layer height: 0.2
;Generated with Cura_SteamEngine 3.6.0
M140 S60
M105
M190 S60
M104 S200
M105
M109 S200
M82 ;absolute extrusion mode
; Ender 3 Custom Start G-code
G28 ; Home all axes
G92 E0 ; Reset Extruder
G1 Z2.0 F3000 ; Move Z Axis up little to prevent scratching of Heat Bed
G1 X0.1 Y20 Z0.3 F5000.0 ; Move to start position
G1 X0.1 Y200.0 Z0.3 F1500.0 E15 ; Draw the first line
G1 X0.4 Y200.0 Z0.3 F5000.0 ; Move to side a little
G1 X0.4 Y20 Z0.3 F1500.0 E30 ; Draw the second line
G92 E0 ; Reset Extruder
G1 Z2.0 F3000 ; Move Z Axis up little to prevent scratching of Heat Bed
; End of custom start GCode
G92 E0
G1 F2400 E-10
;LAYER_COUNT:281
;LAYER:0
M107
M204 S5000
M205 X30 Y30
G0 F3600 X72.452 Y78.245 Z0.2
M204 S500
M205 X20 Y20
;TYPE:SKIRT
G1 F2400 E0
G1 F1800 X72.979 Y77.762 E0.02378
G1 X73.556 Y77.34 E0.04755
G1 X74.177 Y76.985 E0.07134
G1 X74.834 Y76.702 E0.09514
G1 X75.518 Y76.494 E0.11891
G1 X76.222 Y76.363 E0.14273
G1 X77.035 Y76.311 E0.16983
G1 X85.625 Y76.31 E0.45553
G1 X85.821 Y76.313 E0.46205
G1 X91.944 Y76.5 E0.6658
G1 X138.323 Y76.538 E2.20837
G1 X139.123 Y76.589 E2.23503
G1 X144.157 Y77.227 E2.4038
G1 X149.448 Y77.602 E2.58022
G1 X154.763 Y77.677 E2.75702
G1 X156.252 Y77.626 E2.80657
G1 X156.353 Y77.623 E2.80993
G1 X157.726 Y77.598 E2.85561
G1 X158.441 Y77.625 E2.87941
G1 X159.149 Y77.732 E2.90322
G1 X159.839 Y77.916 E2.92697
G1 X160.187 Y78.042 E2.93928
G1 X160.535 Y78.179 E2.95172
G1 X161.185 Y78.478 E2.97552
G1 X161.798 Y78.847 E2.99932
G1 X162.365 Y79.283 E3.02311
G1 X162.88 Y79.779 E3.04689
G1 X163.337 Y80.329 E3.07067
G1 X163.73 Y80.927 E3.09447
G1 X164.053 Y81.565 E3.11826
G1 X164.303 Y82.235 E3.14204
G1 X164.477 Y82.929 E3.16584
G1 X164.557 Y83.473 E3.18413
G1 X164.929 Y87.058 E3.304
G1 X164.963 Y87.723 E3.32615
G1 X164.961 Y91.303 E3.44522
G1 X164.921 Y92.017 E3.46901
G1 X164.862 Y92.419 E3.48252
G1 X164.442 Y94.783 E3.56238
G1 X164.397 Y95.014 E3.57021
G1 X163.228 Y100.429 E3.75446
G1 X162.8 Y102.932 E3.83892
G1 X162.122 Y108.22 E4.01624
G1 X161.745 Y113.514 E4.19276
G1 X161.67 Y118.798 E4.36853
G1 X161.892 Y124.08 E4.54436
G1 X162.414 Y129.357 E4.72073
G1 X163.234 Y134.592 E4.89697
G1 X164.616 Y141.177 E5.12076
G1 X164.688 Y141.588 E5.13464
G1 X164.908 Y143.13 E5.18645
G1 X164.972 Y144.054 E5.21725
G1 X164.962 Y147.306 E5.32541
G1 X164.908 Y148.118 E5.35248
G1 X164.439 Y151.696 E5.4725
G1 X164.306 Y152.399 E5.4963
G1 X164.096 Y153.082 E5.52007
G1 X163.811 Y153.738 E5.54386
G1 X163.455 Y154.359 E5.56766
G1 X163.031 Y154.935 E5.59145
G1 X162.546 Y155.461 E5.61525
G1 X162.005 Y155.929 E5.63904
G1 X161.416 Y156.334 E5.66281
G1 X160.548 Y156.774 E5.69518
G1 X160.211 Y156.914 E5.70732
G1 X159.536 Y157.151 E5.73111
G1 X158.839 Y157.312 E5.75491
G1 X158.129 Y157.393 E5.77867
G1 X157.595 Y157.402 E5.79644
G1 X154.251 Y157.318 E5.90769
G1 X148.905 Y157.426 E6.08554
G1 X143.608 Y157.831 E6.26223
G1 X138.565 Y158.452 E6.43123
G1 X137.788 Y158.5 E6.45712
G1 X89.214 Y158.54 E8.0727
G1 X86.129 Y158.673 E8.1754
G1 X85.861 Y158.679 E8.18432
G1 X77.047 Y158.69 E8.47748
G1 X76.333 Y158.651 E8.50126
G1 X75.627 Y158.532 E8.52507
G1 X74.94 Y158.336 E8.54883
G1 X74.278 Y158.064 E8.57264
G1 X73.651 Y157.72 E8.59642
G1 X73.066 Y157.308 E8.62022
G1 X72.682 Y156.978 E8.63706
G1 X72.597 Y156.899 E8.64092
G1 X72.172 Y156.465 E8.66112
G1 X72.027 Y156.302 E8.66838
G1 X71.582 Y155.742 E8.69217
G1 X71.203 Y155.135 E8.71597
G1 X70.893 Y154.49 E8.73977
G1 X70.658 Y153.815 E8.76355
G1 X70.499 Y153.118 E8.78732
G1 X70.419 Y152.407 E8.81112
G1 X70.409 Y152.048 E8.82307
G1 X70.41 Y82.943 E11.12151
G1 X70.45 Y82.229 E11.14529
G1 X70.569 Y81.524 E11.16907
G1 X70.767 Y80.836 E11.19289
G1 X71.04 Y80.175 E11.21667
G1 X71.385 Y79.548 E11.24047
G1 X71.797 Y78.964 E11.26425
G1 X72.226 Y78.477 E11.28583
G1 X72.452 Y78.245 E11.2966
M204 S5000
M205 X30 Y30
G0 F3600 X72.738 Y78.524
M204 S500
M205 X20 Y20
G1 F1800 X73.249 Y78.057 E11.31963
G1 X73.811 Y77.652 E11.34267
G1 X74.415 Y77.314 E11.36569
G1 X75.055 Y77.048 E11.38874
G1 X75.72 Y76.857 E11.41175
G1 X76.404 Y76.744 E11.43481
G1 X77.035 Y76.711 E11.45583
G1 X85.625 Y76.71 E11.74153
G1 X85.809 Y76.713 E11.74765
G1 X91.932 Y76.9 E11.9514
G1 X138.323 Y76.938 E13.49437
G1 X139.073 Y76.986 E13.51937
G1 X144.115 Y77.625 E13.68841
G1 X149.432 Y78.001 E13.86569
G1 X154.749 Y78.077 E14.04255
G1 X156.265 Y78.025 E14.09301
G1 X156.361 Y78.023 E14.0962
G1 X157.734 Y77.998 E14.14187
G1 X158.426 Y78.025 E14.16491
G1 X159.11 Y78.132 E14.18793
G1 X160.041 Y78.414 E14.22029
G1 X160.389 Y78.551 E14.23273
G1 X161.018 Y78.842 E14.25578
G1 X161.609 Y79.202 E14.27879
G1 X162.154 Y79.629 E14.30182
G1 X162.647 Y80.116 E14.32487
G1 X163.08 Y80.656 E14.34789
G1 X163.448 Y81.243 E14.37093
G1 X163.746 Y81.868 E14.39396
G1 X163.971 Y82.523 E14.417
G1 X164.159 Y83.515 E14.45058
G1 X164.531 Y87.1 E14.57046
G1 X164.563 Y87.722 E14.59117
G1 X164.561 Y91.302 E14.71025
G1 X164.521 Y91.994 E14.7333
G1 X164.468 Y92.349 E14.74524
G1 X164.048 Y94.713 E14.8251
G1 X164.006 Y94.93 E14.83245
G1 X162.831 Y100.369 E15.01752
G1 X162.405 Y102.864 E15.10171
G1 X161.724 Y108.176 E15.27983
G1 X161.345 Y113.497 E15.45726
G1 X161.27 Y118.792 E15.63339
G1 X161.494 Y124.118 E15.81069
G1 X162.017 Y129.406 E15.98742
G1 X162.843 Y134.681 E16.16501
G1 X164.224 Y141.26 E16.3886
G1 X164.292 Y141.645 E16.4016
G1 X164.512 Y143.187 E16.45341
G1 X164.572 Y144.052 E16.48225
G1 X164.562 Y147.304 E16.59041
G1 X164.511 Y148.066 E16.61581
G1 X164.042 Y151.644 E16.73583
G1 X163.913 Y152.324 E16.75885
G1 X163.706 Y152.985 E16.78189
G1 X163.424 Y153.618 E16.80494
G1 X163.071 Y154.214 E16.82798
G1 X162.652 Y154.765 E16.851
G1 X162.172 Y155.264 E16.87403
G1 X161.638 Y155.705 E16.89706
G1 X161.056 Y156.081 E16.92011
G1 X160.395 Y156.405 E16.94459
G1 X160.058 Y156.545 E16.95673
G1 X159.404 Y156.773 E16.97977
G1 X158.728 Y156.925 E17.00281
G1 X158.04 Y156.997 E17.02582
G1 X157.605 Y157.002 E17.04029
G1 X154.253 Y156.918 E17.15181
G1 X148.883 Y157.026 E17.33046
G1 X143.572 Y157.433 E17.50762
G1 X138.516 Y158.055 E17.67705
G1 X137.788 Y158.1 E17.70131
G1 X89.196 Y158.14 E19.31749
G1 X86.112 Y158.273 E19.42016
G1 X85.86 Y158.279 E19.42854
G1 X77.046 Y158.29 E19.72169
G1 X76.355 Y158.251 E19.74471
G1 X75.673 Y158.132 E19.76774
G1 X75.009 Y157.936 E19.79077
G1 X74.372 Y157.664 E19.8138
G1 X73.77 Y157.321 E19.83685
G1 X72.954 Y156.685 E19.87126
G1 X72.869 Y156.606 E19.87512
G1 X72.471 Y156.199 E19.89405
G1 X72.326 Y156.036 E19.90131
G1 X71.896 Y155.493 E19.92435
G1 X71.532 Y154.904 E19.94737
G1 X71.238 Y154.277 E19.97041
G1 X71.019 Y153.62 E19.99344
G1 X70.876 Y152.942 E20.01649
G1 X70.809 Y152.048 E20.04631
G1 X70.81 Y82.943 E22.34475
G1 X70.85 Y82.252 E22.36777
G1 X70.969 Y81.569 E22.39083
G1 X71.167 Y80.906 E22.41384
G1 X71.439 Y80.269 E22.43688
G1 X71.783 Y79.668 E22.45991
G1 X72.194 Y79.11 E22.48296
G1 X72.512 Y78.756 E22.49879
G1 X72.738 Y78.524 E22.50956
M204 S5000
M205 X30 Y30
G0 F3600 X73.025 Y78.803
M204 S500
M205 X20 Y20
G1 F1800 X73.519 Y78.353 E22.53179
G1 X74.064 Y77.965 E22.55404
G1 X74.651 Y77.644 E22.57629
G1 X75.273 Y77.396 E22.59856
G1 X75.919 Y77.224 E22.6208
G1 X76.581 Y77.129 E22.64304
G1 X77.035 Y77.111 E22.65815
G1 X85.625 Y77.11 E22.94386
G1 X85.797 Y77.113 E22.94958
G1 X91.92 Y77.3 E23.15332
G1 X138.323 Y77.338 E24.6967
G1 X139.023 Y77.382 E24.72002
G1 X144.091 Y78.025 E24.88994
G1 X149.416 Y78.401 E25.06749
G1 X154.758 Y78.477 E25.24518
G1 X156.279 Y78.425 E25.2958
G1 X156.368 Y78.423 E25.29876
G1 X157.741 Y78.398 E25.34443
G1 X158.41 Y78.426 E25.3667
G1 X159.07 Y78.533 E25.38894
G1 X159.894 Y78.786 E25.41761
G1 X160.242 Y78.923 E25.43005
G1 X160.849 Y79.205 E25.45231
G1 X161.418 Y79.557 E25.47457
G1 X161.941 Y79.975 E25.49683
G1 X162.41 Y80.452 E25.51908
G1 X162.819 Y80.981 E25.54132
G1 X163.162 Y81.555 E25.56356
G1 X163.434 Y82.167 E25.58584
G1 X163.631 Y82.806 E25.60808
G1 X163.761 Y83.556 E25.6334
G1 X164.133 Y87.141 E25.75327
G1 X164.163 Y87.722 E25.77262
G1 X164.161 Y91.302 E25.8917
G1 X164.075 Y92.279 E25.92432
G1 X163.655 Y94.643 E26.00417
G1 X163.615 Y94.845 E26.01102
G1 X162.441 Y100.282 E26.19603
G1 X162.012 Y102.795 E26.28082
G1 X161.325 Y108.149 E26.46035
G1 X160.946 Y113.481 E26.63814
G1 X160.869 Y118.802 E26.81514
G1 X161.094 Y124.141 E26.99287
G1 X161.62 Y129.454 E27.17045
G1 X162.449 Y134.746 E27.34861
G1 X163.833 Y141.342 E27.57277
G1 X163.896 Y141.701 E27.58489
G1 X164.116 Y143.243 E27.6367
G1 X164.172 Y144.051 E27.66364
G1 X164.162 Y147.303 E27.7718
G1 X164.115 Y148.014 E27.7955
G1 X163.646 Y151.592 E27.91552
G1 X163.519 Y152.249 E27.93778
G1 X163.315 Y152.886 E27.96002
G1 X163.037 Y153.494 E27.98226
G1 X162.688 Y154.065 E28.00452
G1 X162.273 Y154.59 E28.02678
G1 X161.799 Y155.062 E28.04902
G1 X161.272 Y155.474 E28.07127
G1 X160.699 Y155.82 E28.09354
G1 X160.241 Y156.035 E28.11036
G1 X159.904 Y156.175 E28.1225
G1 X159.272 Y156.395 E28.14476
G1 X158.619 Y156.537 E28.16699
G1 X157.953 Y156.601 E28.18924
G1 X157.615 Y156.602 E28.20048
G1 X154.255 Y156.517 E28.31227
G1 X148.881 Y156.626 E28.49105
G1 X143.514 Y157.037 E28.67008
G1 X138.467 Y157.658 E28.83921
G1 X137.788 Y157.7 E28.86183
G1 X89.201 Y157.74 E30.47785
G1 X86.094 Y157.874 E30.58128
G1 X85.86 Y157.879 E30.58907
G1 X77.046 Y157.89 E30.88222
G1 X76.378 Y157.851 E30.90448
G1 X75.72 Y157.732 E30.92672
G1 X75.08 Y157.536 E30.94898
G1 X74.468 Y157.265 E30.97124
G1 X73.893 Y156.923 E30.99349
G1 X73.227 Y156.392 E31.02182
G1 X73.142 Y156.313 E31.02568
G1 X72.77 Y155.933 E31.04337
G1 X72.625 Y155.77 E31.05062
G1 X72.211 Y155.244 E31.07289
G1 X71.863 Y154.673 E31.09513
G1 X71.585 Y154.065 E31.11736
G1 X71.382 Y153.427 E31.13963
G1 X71.256 Y152.77 E31.16188
G1 X71.209 Y152.048 E31.18595
G1 X71.21 Y82.943 E33.48439
G1 X71.25 Y82.275 E33.50665
G1 X71.369 Y81.617 E33.52889
G1 X71.566 Y80.977 E33.55116
G1 X71.838 Y80.366 E33.5734
G1 X72.181 Y79.792 E33.59564
G1 X72.799 Y79.035 E33.62815
G1 X73.025 Y78.803 E33.63892
M204 S5000
M205 X30 Y30
G0 F3600 X73.311 Y79.083
M204 S500
M205 X20 Y20
G1 F1800 X73.789 Y78.65 E33.66037
G1 X74.316 Y78.279 E33.68181
G1 X74.886 Y77.976 E33.70328
G1 X75.488 Y77.747 E33.7247
G1 X76.114 Y77.593 E33.74614
G1 X77.035 Y77.511 E33.77689
G1 X85.625 Y77.51 E34.0626
G1 X85.785 Y77.512 E34.06792
G1 X91.941 Y77.7 E34.27277
G1 X138.322 Y77.738 E35.8154
G1 X138.972 Y77.779 E35.83707
G1 X144.047 Y78.423 E36.00722
G1 X149.4 Y78.801 E36.1857
G1 X154.766 Y78.877 E36.36419
G1 X156.293 Y78.825 E36.41501
G1 X156.375 Y78.823 E36.41774
G1 X157.748 Y78.798 E36.46341
G1 X158.392 Y78.826 E36.48485
G1 X159.028 Y78.934 E36.50631
G1 X159.748 Y79.158 E36.53139
G1 X160.096 Y79.295 E36.54383
G1 X160.68 Y79.568 E36.56527
G1 X161.226 Y79.911 E36.58671
G1 X161.725 Y80.319 E36.60815
G1 X162.17 Y80.786 E36.62961
G1 X162.553 Y81.304 E36.65103
G1 X162.87 Y81.866 E36.67249
G1 X163.115 Y82.462 E36.69393
G1 X163.284 Y83.084 E36.71536
G1 X163.363 Y83.597 E36.73263
G1 X163.735 Y87.182 E36.85251
G1 X163.763 Y87.722 E36.87049
G1 X163.761 Y91.302 E36.98956
G1 X163.681 Y92.209 E37.01985
G1 X163.261 Y94.573 E37.0997
G1 X163.224 Y94.761 E37.10608
G1 X162.049 Y100.204 E37.29128
G1 X161.614 Y102.747 E37.37709
G1 X160.928 Y108.105 E37.55675
G1 X160.546 Y113.465 E37.73548
G1 X160.469 Y118.813 E37.91337
G1 X160.694 Y124.161 E38.09141
G1 X161.225 Y129.521 E38.27055
G1 X162.053 Y134.812 E38.44867
G1 X163.441 Y141.424 E38.67338
G1 X163.5 Y141.758 E38.68467
G1 X163.72 Y143.3 E38.73647
G1 X163.772 Y144.05 E38.76148
G1 X163.762 Y147.302 E38.86964
G1 X163.718 Y147.962 E38.89164
G1 X163.249 Y151.54 E39.01166
G1 X163.126 Y152.173 E39.03311
G1 X162.925 Y152.785 E39.05453
G1 X162.65 Y153.368 E39.07597
G1 X162.305 Y153.913 E39.09743
G1 X161.896 Y154.411 E39.11886
G1 X161.428 Y154.854 E39.14029
G1 X160.908 Y155.236 E39.16176
G1 X160.088 Y155.666 E39.19255
G1 X159.751 Y155.806 E39.20469
G1 X159.141 Y156.016 E39.22615
G1 X158.511 Y156.149 E39.24756
G1 X157.625 Y156.202 E39.27708
G1 X154.257 Y156.117 E39.38914
G1 X148.859 Y156.226 E39.56871
G1 X143.478 Y156.638 E39.74821
G1 X138.418 Y157.261 E39.91778
G1 X137.787 Y157.3 E39.9388
G1 X89.184 Y157.34 E41.55535
G1 X86.077 Y157.474 E41.65878
G1 X85.859 Y157.479 E41.66603
G1 X77.045 Y157.49 E41.95919
G1 X76.402 Y157.451 E41.98062
G1 X75.768 Y157.332 E42.00207
G1 X75.154 Y157.136 E42.02351
G1 X74.569 Y156.866 E42.04494
G1 X74.022 Y156.525 E42.06638
G1 X73.499 Y156.099 E42.08881
G1 X73.414 Y156.02 E42.09267
G1 X73.069 Y155.667 E42.10909
G1 X72.924 Y155.504 E42.11634
G1 X72.526 Y154.997 E42.13778
G1 X72.194 Y154.444 E42.15924
G1 X71.933 Y153.855 E42.18066
G1 X71.747 Y153.238 E42.2021
G1 X71.639 Y152.602 E42.22355
G1 X71.609 Y152.048 E42.24201
G1 X71.61 Y82.943 E44.54045
G1 X71.65 Y82.299 E44.56191
G1 X71.769 Y81.666 E44.58333
G1 X71.966 Y81.052 E44.60478
G1 X72.237 Y80.467 E44.62622
G1 X72.579 Y79.92 E44.64768
G1 X73.085 Y79.315 E44.67391
G1 X73.311 Y79.083 E44.68468
M204 S5000
M205 X30 Y30
G0 F3600 X77.116 Y82.9
M204 S500
M205 X20 Y20
;TYPE:SUPPORT
G1 F1800 X85.4 Y82.9 E44.96021
G1 X85.4 Y84.5 E45.01343
G1 X78.71 Y84.5 E45.23594
G1 X78.311 Y84.899 E45.2547
G1 X78.311 Y150.101 E47.42333
G1 X78.71 Y150.5 E47.4421
G1 X85.4 Y150.5 E47.66461
G1 X85.4 Y152.1 E47.71783
G1 X77.116 Y152.1 E47.99335
G1 X77 Y151.984 E47.99881
G1 X77 Y83.016 E50.29269
G1 X77.116 Y82.9 E50.29815
M204 S5000
M205 X30 Y30
G0 F3600 X77.343 Y83.06
M204 S500
M205 X20 Y20
G1 F1800 X77.343 Y151.94 E52.58911
M204 S5000
M205 X30 Y30
G0 F3600 X77.159 Y149.352
M204 S500
M205 X20 Y20
G1 F1800 X78.15 Y149.352 E52.62207
M204 S5000
M205 X30 Y30
G0 F3600 X80.01 Y150.66
M204 S500
M205 X20 Y20
G1 F1800 X80.01 Y151.94 E52.66464
M204 S5000
M205 X30 Y30
G0 F3600 X82.677 Y151.94
M204 S500
M205 X20 Y20
G1 F1800 X82.677 Y150.66 E52.70721
M204 S5000
M205 X30 Y30
G0 F3600 X78.15 Y146.685
M204 S500
M205 X20 Y20
G1 F1800 X77.159 Y146.685 E52.74018
M204 S5000
M205 X30 Y30
G0 F3600 X77.159 Y144.018
M204 S500
M205 X20 Y20
G1 F1800 X78.15 Y144.018 E52.77314
M204 S5000
M205 X30 Y30
G0 F3600 X78.15 Y141.351
M204 S500
M205 X20 Y20
G1 F1800 X77.159 Y141.351 E52.8061
M204 S5000
M205 X30 Y30
G0 F3600 X77.159 Y138.684
M204 S500
M205 X20 Y20
G1 F1800 X78.15 Y138.684 E52.83906
M204 S5000
M205 X30 Y30
G0 F3600 X78.15 Y136.017
M204 S500
M205 X20 Y20
G1 F1800 X77.159 Y136.017 E52.87202
M204 S5000
M205 X30 Y30
G0 F3600 X77.159 Y133.35
M204 S500
M205 X20 Y20
G1 F1800 X78.15 Y133.35 E52.90498
M204 S5000
M205 X30 Y30
G0 F3600 X78.15 Y130.683
M204 S500
M205 X20 Y20
G1 F1800 X77.159 Y130.683 E52.93794
M204 S5000
M205 X30 Y30
G0 F3600 X77.159 Y128.016
M204 S500
M205 X20 Y20
G1 F1800 X78.15 Y128.016 E52.9709
M204 S5000
M205 X30 Y30
G0 F3600 X78.15 Y125.349
M204 S500
M205 X20 Y20
G1 F1800 X77.159 Y125.349 E53.00386
M204 S5000
M205 X30 Y30
G0 F3600 X77.159 Y122.682
M204 S500
M205 X20 Y20
G1 F1800 X78.15 Y122.682 E53.03682
M204 S5000
M205 X30 Y30
G0 F3600 X78.15 Y120.015
M204 S500
M205 X20 Y20
G1 F1800 X77.159 Y120.015 E53.06978
M204 S5000
M205 X30 Y30
G0 F3600 X77.16 Y117.348
M204 S500
M205 X20 Y20
G1 F1800 X78.151 Y117.348 E53.10274
M204 S5000
M205 X30 Y30
G0 F3600 X78.151 Y114.681
M204 S500
M205 X20 Y20
G1 F1800 X77.16 Y114.681 E53.13571
M204 S5000
M205 X30 Y30
G0 F3600 X77.16 Y112.014
M204 S500
M205 X20 Y20
G1 F1800 X78.151 Y112.014 E53.16867
M204 S5000
M205 X30 Y30
G0 F3600 X78.151 Y109.347
M204 S500
M205 X20 Y20
G1 F1800 X77.16 Y109.347 E53.20163
M204 S5000
M205 X30 Y30
G0 F3600 X77.16 Y106.68
M204 S500
M205 X20 Y20
G1 F1800 X78.151 Y106.68 E53.23459
M204 S5000
M205 X30 Y30
G0 F3600 X78.151 Y104.013
