;FLAVOR:Marlin
;TIME:5739
;Filament used: 4.88968m
;Layer height: 0.2
;Generated with Cura_SteamEngine 3.6.0
M140 S60
M105
M190 S60
M104 S200
M105
M109 S200
M82 ;absolute extrusion mode
; Ender 3 Custom Start G-code
G28 ; Home all axes
G92 E0 ; Reset Extruder
G1 Z2.0 F3000 ; Move Z Axis up little to prevent scratching of Heat Bed
G1 X0.1 Y20 Z0.3 F5000.0 ; Move to start position
G1 X0.1 Y200.0 Z0.3 F1500.0 E15 ; Draw the first line
G1 X0.4 Y200.0 Z0.3 F5000.0 ; Move to side a little
G1 X0.4 Y20 Z0.3 F1500.0 E30 ; Draw the second line
G92 E0 ; Reset Extruder
G1 Z2.0 F3000 ; Move Z Axis up little to prevent scratching of Heat Bed
; End of custom start GCode
G92 E0
G1 F2400 E-10
;LAYER_COUNT:423
;LAYER:0
M107
M204 S5000
M205 X30 Y30
G0 F3600 X98.065 Y100.473 Z0.2
M204 S500
M205 X20 Y20
;TYPE:SKIRT
G1 F2400 E0
G1 F1800 X98.754 Y99.813 E0.03173
G1 X99.297 Y99.348 E0.05551
G1 X99.889 Y98.947 E0.07929
G1 X100.247 Y98.747 E0.09293
G1 X100.846 Y98.438 E0.11535
G1 X101.499 Y98.146 E0.13914
G1 X102.273 Y97.906 E0.16609
G1 X102.991 Y97.732 E0.19067
G1 X103.694 Y97.603 E0.21444
G1 X104.424 Y97.552 E0.23878
G1 X133.052 Y97.219 E1.19101
G1 X133.766 Y97.251 E1.21478
G1 X134.473 Y97.362 E1.23859
G1 X135.162 Y97.552 E1.26236
G1 X135.827 Y97.817 E1.28617
G1 X136.457 Y98.154 E1.30993
G1 X137.046 Y98.56 E1.33373
G1 X137.586 Y99.029 E1.35751
G1 X138.071 Y99.556 E1.38134
G1 X138.493 Y100.133 E1.40511
G1 X138.849 Y100.753 E1.42889
G1 X139.133 Y101.41 E1.4527
G1 X139.342 Y102.094 E1.47648
G1 X139.473 Y102.797 E1.50027
G1 X139.526 Y103.624 E1.52783
G1 X139.505 Y131.391 E2.45137
G1 X139.464 Y132.105 E2.47515
G1 X139.345 Y132.81 E2.49893
G1 X139.147 Y133.497 E2.52271
G1 X138.873 Y134.158 E2.54651
G1 X138.528 Y134.785 E2.57031
G1 X138.115 Y135.369 E2.5941
G1 X137.639 Y135.903 E2.6179
G1 X137.107 Y136.381 E2.64168
G1 X136.525 Y136.796 E2.66546
G1 X135.899 Y137.144 E2.68928
G1 X135.24 Y137.42 E2.71304
G1 X134.553 Y137.62 E2.73684
G1 X133.848 Y137.743 E2.76065
G1 X133.028 Y137.786 E2.78796
G1 X105.472 Y137.455 E3.70454
G1 X105.142 Y137.442 E3.71552
G1 X103.825 Y137.358 E3.75942
G1 X103.114 Y137.273 E3.78323
G1 X102.32 Y137.079 E3.81042
G1 X101.745 Y136.899 E3.83046
G1 X101.075 Y136.647 E3.85427
G1 X100.574 Y136.399 E3.87286
G1 X100.072 Y136.123 E3.89191
G1 X99.465 Y135.744 E3.91571
G1 X99.047 Y135.423 E3.93324
G1 X98.599 Y135.048 E3.95267
G1 X98.077 Y134.559 E3.97646
G1 X97.715 Y134.145 E3.99476
G1 X97.346 Y133.685 E4.01437
G1 X96.93 Y133.103 E4.03816
G1 X96.677 Y132.666 E4.05496
G1 X96.417 Y132.173 E4.0735
G1 X96.119 Y131.522 E4.09731
G1 X95.953 Y131.042 E4.1142
G1 X95.784 Y130.484 E4.13359
G1 X95.615 Y129.789 E4.15738
G1 X95.541 Y129.264 E4.17502
G1 X95.486 Y128.712 E4.19347
G1 X95.454 Y128.076 E4.21465
G1 X95.456 Y107.608 E4.89542
G1 X95.466 Y107.258 E4.90706
G1 X95.537 Y105.965 E4.95013
G1 X95.616 Y105.254 E4.97393
G1 X95.833 Y104.362 E5.00446
G1 X96.026 Y103.76 E5.02548
G1 X96.282 Y103.092 E5.04928
G1 X96.634 Y102.417 E5.0746
G1 X97.006 Y101.798 E5.09862
G1 X97.409 Y101.207 E5.12241
G1 X98.065 Y100.473 E5.15515
M204 S5000
M205 X30 Y30
G0 F3600 X98.342 Y100.762
M204 S500
M205 X20 Y20
G1 F1800 X99.031 Y100.102 E5.18689
G1 X99.557 Y99.653 E5.20989
G1 X100.43 Y99.103 E5.24421
G1 X101.029 Y98.794 E5.26662
G1 X101.662 Y98.512 E5.28967
G1 X102.367 Y98.295 E5.31421
G1 X103.085 Y98.121 E5.33878
G1 X103.766 Y97.997 E5.3618
G1 X104.428 Y97.952 E5.38387
G1 X133.056 Y97.619 E6.3361
G1 X133.748 Y97.651 E6.35915
G1 X134.432 Y97.763 E6.3822
G1 X135.098 Y97.952 E6.40522
G1 X135.737 Y98.217 E6.42823
G1 X136.343 Y98.554 E6.4513
G1 X136.905 Y98.958 E6.47432
G1 X137.417 Y99.425 E6.49736
G1 X137.871 Y99.947 E6.52037
G1 X138.263 Y100.518 E6.54341
G1 X138.586 Y101.131 E6.56646
G1 X138.836 Y101.777 E6.5895
G1 X139.01 Y102.447 E6.61252
G1 X139.106 Y103.133 E6.63556
G1 X139.126 Y103.624 E6.6519
G1 X139.105 Y131.391 E7.57544
G1 X139.065 Y132.082 E7.59846
G1 X138.945 Y132.764 E7.62149
G1 X138.747 Y133.428 E7.64454
G1 X138.474 Y134.064 E7.66755
G1 X138.13 Y134.665 E7.69059
G1 X137.718 Y135.222 E7.71363
G1 X137.246 Y135.728 E7.73665
G1 X136.718 Y136.176 E7.75968
G1 X136.142 Y136.561 E7.78272
G1 X135.525 Y136.876 E7.80576
G1 X134.876 Y137.119 E7.82881
G1 X134.204 Y137.284 E7.85182
G1 X133.517 Y137.372 E7.87486
G1 X133.033 Y137.386 E7.89097
G1 X105.477 Y137.055 E8.80755
G1 X105.167 Y137.043 E8.81787
G1 X103.85 Y136.959 E8.86176
G1 X103.163 Y136.875 E8.88478
G1 X102.44 Y136.697 E8.90954
G1 X101.865 Y136.517 E8.92958
G1 X101.217 Y136.272 E8.95263
G1 X100.766 Y136.049 E8.96936
G1 X100.264 Y135.773 E8.98841
G1 X99.678 Y135.405 E9.01143
G1 X99.304 Y135.116 E9.02715
G1 X98.856 Y134.741 E9.04658
G1 X98.351 Y134.266 E9.06964
G1 X98.027 Y133.894 E9.08605
G1 X97.658 Y133.434 E9.10566
G1 X97.256 Y132.87 E9.1287
G1 X97.031 Y132.479 E9.1437
G1 X96.771 Y131.986 E9.16224
G1 X96.484 Y131.356 E9.18526
G1 X96.336 Y130.926 E9.20039
G1 X96.167 Y130.368 E9.21978
G1 X96.004 Y129.695 E9.24281
G1 X95.939 Y129.224 E9.25863
G1 X95.884 Y128.672 E9.27708
G1 X95.854 Y128.076 E9.29693
G1 X95.856 Y107.608 E9.97769
G1 X95.865 Y107.28 E9.98861
G1 X95.936 Y105.987 E10.03168
G1 X96.014 Y105.299 E10.05471
G1 X96.213 Y104.484 E10.08261
G1 X96.406 Y103.882 E10.10364
G1 X96.656 Y103.236 E10.12668
G1 X96.977 Y102.623 E10.14969
G1 X97.349 Y102.004 E10.17371
G1 X97.74 Y101.432 E10.19676
G1 X98.342 Y100.762 E10.22671
M204 S5000
M205 X30 Y30
G0 F3600 X98.618 Y101.051
M204 S500
M205 X20 Y20
G1 F1800 X99.307 Y100.391 E10.25845
G1 X99.817 Y99.958 E10.2807
G1 X100.614 Y99.458 E10.31199
G1 X101.213 Y99.149 E10.33441
G1 X101.824 Y98.879 E10.35663
G1 X102.461 Y98.684 E10.37878
G1 X103.179 Y98.51 E10.40336
G1 X103.838 Y98.391 E10.42563
G1 X104.433 Y98.352 E10.44546
G1 X133.061 Y98.019 E11.3977
G1 X133.729 Y98.052 E11.41994
G1 X134.389 Y98.163 E11.4422
G1 X135.03 Y98.353 E11.46444
G1 X135.645 Y98.617 E11.4867
G1 X136.223 Y98.954 E11.50895
G1 X136.758 Y99.356 E11.53121
G1 X137.24 Y99.82 E11.55346
G1 X137.664 Y100.337 E11.5757
G1 X138.023 Y100.902 E11.59797
G1 X138.312 Y101.505 E11.62021
G1 X138.527 Y102.139 E11.64247
G1 X138.665 Y102.794 E11.66474
G1 X138.726 Y103.623 E11.69238
G1 X138.705 Y131.39 E12.61592
G1 X138.665 Y132.058 E12.63817
G1 X138.545 Y132.716 E12.66042
G1 X138.347 Y133.355 E12.68267
G1 X138.075 Y133.967 E12.70495
G1 X137.732 Y134.541 E12.72719
G1 X137.322 Y135.07 E12.74945
G1 X136.853 Y135.547 E12.7717
G1 X136.33 Y135.964 E12.79394
G1 X135.761 Y136.316 E12.8162
G1 X135.154 Y136.598 E12.83846
G1 X134.518 Y136.805 E12.8607
G1 X133.862 Y136.935 E12.88295
G1 X133.038 Y136.986 E12.91041
G1 X105.482 Y136.655 E13.82699
G1 X105.193 Y136.644 E13.83661
G1 X103.876 Y136.56 E13.8805
G1 X103.212 Y136.477 E13.90276
G1 X102.559 Y136.315 E13.92513
G1 X101.984 Y136.135 E13.94517
G1 X101.359 Y135.898 E13.96741
G1 X100.959 Y135.698 E13.98228
G1 X100.457 Y135.422 E14.00133
G1 X99.891 Y135.065 E14.02359
G1 X99.561 Y134.809 E14.03748
G1 X99.113 Y134.434 E14.05691
G1 X98.626 Y133.975 E14.07917
G1 X98.339 Y133.644 E14.09374
G1 X97.97 Y133.184 E14.11336
G1 X97.583 Y132.638 E14.13562
G1 X97.385 Y132.292 E14.14887
G1 X97.125 Y131.799 E14.16741
G1 X96.848 Y131.19 E14.18967
G1 X96.718 Y130.81 E14.20302
G1 X96.549 Y130.252 E14.22241
G1 X96.394 Y129.601 E14.24467
G1 X96.337 Y129.184 E14.25867
G1 X96.282 Y128.632 E14.27712
G1 X96.254 Y128.076 E14.29564
G1 X96.256 Y107.608 E14.97641
G1 X96.264 Y107.302 E14.98659
G1 X96.335 Y106.009 E15.02966
G1 X96.412 Y105.344 E15.05192
G1 X96.594 Y104.606 E15.0772
G1 X96.787 Y104.004 E15.09823
G1 X97.029 Y103.381 E15.12046
G1 X97.32 Y102.829 E15.14121
G1 X97.692 Y102.21 E15.16523
G1 X98.07 Y101.659 E15.18746
G1 X98.618 Y101.051 E15.21468
M204 S5000
M205 X30 Y30
G0 F3600 X98.895 Y101.34
M204 S500
M205 X20 Y20
G1 F1800 X99.584 Y100.68 E15.24642
G1 X100.076 Y100.264 E15.26785
G1 X100.797 Y99.814 E15.29611
G1 X101.396 Y99.505 E15.31853
G1 X101.986 Y99.245 E15.33998
G1 X102.555 Y99.072 E15.35976
G1 X103.273 Y98.898 E15.38433
G1 X103.908 Y98.786 E15.40577
G1 X104.438 Y98.752 E15.42344
G1 X133.066 Y98.419 E16.37567
G1 X133.709 Y98.452 E16.39709
G1 X134.344 Y98.564 E16.41853
G1 X134.96 Y98.753 E16.43997
G1 X135.548 Y99.018 E16.46142
G1 X136.099 Y99.353 E16.48286
G1 X136.604 Y99.753 E16.50429
G1 X137.056 Y100.214 E16.52576
G1 X137.447 Y100.726 E16.54719
G1 X137.772 Y101.283 E16.56864
G1 X138.025 Y101.876 E16.59008
G1 X138.203 Y102.495 E16.61151
G1 X138.303 Y103.132 E16.63295
G1 X138.326 Y103.623 E16.6493
G1 X138.305 Y131.39 E17.57284
G1 X138.265 Y132.033 E17.59426
G1 X138.145 Y132.667 E17.61572
G1 X137.948 Y133.281 E17.63717
G1 X137.676 Y133.865 E17.6586
G1 X137.334 Y134.412 E17.68006
G1 X136.927 Y134.912 E17.7015
G1 X136.462 Y135.358 E17.72293
G1 X135.944 Y135.742 E17.74438
G1 X135.383 Y136.06 E17.76582
G1 X134.788 Y136.306 E17.78724
G1 X134.166 Y136.477 E17.80869
G1 X133.528 Y136.569 E17.83013
G1 X133.043 Y136.586 E17.84627
G1 X105.487 Y136.255 E18.76286
G1 X105.218 Y136.244 E18.77181
G1 X103.901 Y136.16 E18.8157
G1 X103.261 Y136.08 E18.83716
G1 X102.679 Y135.934 E18.85711
G1 X102.104 Y135.754 E18.87715
G1 X101.501 Y135.523 E18.89863
G1 X101.152 Y135.348 E18.91161
G1 X100.65 Y135.072 E18.93067
G1 X100.105 Y134.727 E18.95212
G1 X99.817 Y134.502 E18.96428
G1 X99.369 Y134.127 E18.98371
G1 X98.902 Y133.684 E19.00512
G1 X98.651 Y133.394 E19.01788
G1 X98.282 Y132.934 E19.03749
G1 X97.91 Y132.407 E19.05894
G1 X97.738 Y132.106 E19.07047
G1 X97.478 Y131.613 E19.08901
G1 X97.214 Y131.025 E19.11045
G1 X97.101 Y130.694 E19.12208
G1 X96.932 Y130.136 E19.14147
G1 X96.784 Y129.509 E19.1629
G1 X96.735 Y129.145 E19.17512
G1 X96.68 Y128.593 E19.19357
G1 X96.654 Y128.076 E19.21079
G1 X96.656 Y107.608 E19.89155
G1 X96.664 Y107.324 E19.901
G1 X96.735 Y106.031 E19.94407
G1 X96.81 Y105.391 E19.96551
G1 X96.975 Y104.728 E19.98823
G1 X97.168 Y104.126 E20.00926
G1 X97.403 Y103.526 E20.03069
G1 X97.663 Y103.035 E20.04917
G1 X98.035 Y102.416 E20.07319
G1 X98.401 Y101.886 E20.09461
G1 X98.895 Y101.34 E20.1191
M204 S5000
M205 X30 Y30
G1 F2400 E10.1191
G0 F3600 X101.519 Y105.487
G0 X101.542 Y105.524
G0 X108.978 Y117.272
G0 X109.001 Y117.309
G0 X109.149 Y117.54
M204 S500
M205 X20 Y20
;TYPE:SUPPORT
G1 F2400 E20.1191
G1 F1800 X109.168 Y117.543 E20.11974
G1 X109.174 Y117.554 E20.12016
G1 X109.163 Y117.571 E20.12083
G1 X109.141 Y117.561 E20.12163
G1 X109.149 Y117.54 E20.12238
M204 S5000
M205 X30 Y30
G1 F2400 E10.12238
;MESH:Nose.stl
G0 F3600 X110.545 Y116.944
G0 X110.729 Y117.124
G0 X110.633 Y117.15
M204 S500
M205 X20 Y20
;TYPE:WALL-INNER
G1 F2400 E20.12238
G1 F1800 X110.476 Y116.783 E20.13566
G1 X110.233 Y116.467 E20.14892
G1 X109.913 Y116.227 E20.16222
G1 X109.545 Y116.076 E20.17545
G1 X109.149 Y116.027 E20.18872
G1 X108.752 Y116.08 E20.20204
G1 X108.384 Y116.236 E20.21534
G1 X108.067 Y116.481 E20.22866
G1 X107.828 Y116.801 E20.24195
G1 X107.678 Y117.168 E20.25513
G1 X107.628 Y117.563 E20.26838
G1 X107.681 Y117.96 E20.2817
G1 X107.838 Y118.329 E20.29503
G1 X108.082 Y118.644 E20.30829
G1 X108.401 Y118.883 E20.32154
G1 X108.768 Y119.035 E20.33476
G1 X109.165 Y119.085 E20.34807
G1 X109.563 Y119.031 E20.36142
G1 X109.93 Y118.875 E20.37469
G1 X110.246 Y118.631 E20.38797
G1 X110.486 Y118.312 E20.40124
G1 X110.636 Y117.943 E20.41449
G1 X110.686 Y117.548 E20.42773
G1 X110.633 Y117.15 E20.44109
M204 S5000
M205 X30 Y30
G0 F3600 X110.729 Y117.124
G0 X115.905 Y115.447
G0 X115.954 Y115.533
M204 S500
M205 X20 Y20
G1 F1800 X115.487 Y115.892 E20.46068
G1 X115.128 Y116.359 E20.48027
G1 X114.902 Y116.903 E20.49987
G1 X114.825 Y117.487 E20.51946
G1 X114.901 Y118.07 E20.53901
G1 X115.126 Y118.614 E20.55859
G1 X115.485 Y119.082 E20.57821
G1 X115.951 Y119.44 E20.59775
G1 X116.495 Y119.666 E20.61735
G1 X117.079 Y119.743 E20.63694
G1 X117.662 Y119.667 E20.65649
G1 X118.207 Y119.441 E20.67612
G1 X118.673 Y119.084 E20.69564
G1 X119.033 Y118.617 E20.71525
G1 X119.259 Y118.072 E20.73488
G1 X119.335 Y117.489 E20.75443
G1 X119.26 Y116.906 E20.77398
G1 X119.035 Y116.362 E20.79356
G1 X118.677 Y115.894 E20.81316
G1 X118.209 Y115.535 E20.83278
G1 X117.665 Y115.309 E20.85237
G1 X117.082 Y115.233 E20.87193
G1 X116.499 Y115.309 E20.89148
G1 X115.954 Y115.533 E20.91108
M204 S5000
M205 X30 Y30
G0 F3600 X115.905 Y115.447
G0 X116.489 Y115.271
G0 X117.082 Y115.193
G0 X117.675 Y115.271
G0 X118.229 Y115.501
G0 X118.614 Y115.796
G0 X132.416 Y130.587
G0 X132.515 Y130.587
M204 S500
M205 X20 Y20
G1 F1800 X132.515 Y130.588 E20.91111
G1 X132.515 Y130.789 E20.9178
G1 X132.314 Y130.787 E20.92211
G1 X104.841 Y130.446 E21.83594
G1 X104.345 Y130.39 E21.85254
G1 X103.894 Y130.248 E21.86827
G1 X103.496 Y130.031 E21.88335
G1 X103.132 Y129.729 E21.89908
G1 X102.845 Y129.372 E21.91431
G1 X102.625 Y128.956 E21.92996
G1 X102.491 Y128.512 E21.94539
G1 X102.442 Y128.023 E21.96173
G1 X102.457 Y106.931 E22.66326
G1 X102.505 Y106.442 E22.6796
G1 X102.64 Y105.997 E22.69507
G1 X102.857 Y105.589 E22.71044
G1 X103.154 Y105.223 E22.72611
G1 X103.516 Y104.925 E22.74171
G1 X103.926 Y104.703 E22.75722
G1 X104.368 Y104.565 E22.77262
G1 X104.865 Y104.512 E22.78924
G1 X132.334 Y104.213 E23.70292
G1 X132.535 Y104.211 E23.7096
G1 X132.535 Y104.412 E23.71392
G1 X132.535 Y104.413 E23.71395
G1 X132.515 Y130.587 E24.5845
M204 S5000
M205 X30 Y30
G0 F3600 X132.915 Y130.992
M204 S500
M205 X20 Y20
;TYPE:WALL-OUTER
G1 F1800 X132.915 Y130.993 E24.58454
G1 X132.915 Y131.194 E24.59122
G1 X132.714 Y131.192 E24.59554
G1 X104.821 Y130.846 E25.52333
G1 X104.257 Y130.782 E25.54221
G1 X103.738 Y130.619 E25.56031
G1 X103.268 Y130.362 E25.57812
G1 X102.849 Y130.014 E25.59624
G1 X102.507 Y129.59 E25.61436
G1 X102.254 Y129.111 E25.63237
G1 X102.097 Y128.59 E25.65047
G1 X102.042 Y128.043 E25.66876
G1 X102.057 Y106.912 E26.37158
G1 X102.111 Y106.362 E26.38996
G1 X102.268 Y105.845 E26.40793
G1 X102.521 Y105.369 E26.42586
G1 X102.873 Y104.936 E26.44442
G1 X103.29 Y104.592 E26.4624
G1 X103.768 Y104.333 E26.48048
G1 X104.287 Y104.171 E26.49856
G1 X104.838 Y104.112 E26.51699
G1 X132.734 Y103.809 E27.44487
G1 X132.935 Y103.807 E27.45156
G1 X132.935 Y104.008 E27.45588
G1 X132.935 Y104.009 E27.45591
G1 X132.915 Y130.992 E28.35337
M204 S5000
M205 X30 Y30
G0 F3600 X132.915 Y130.993
G0 X132.915 Y131.192
G0 X132.445 Y130.718
G0 X119.144 Y118.607
G0 X118.684 Y118.415
M204 S500
M205 X20 Y20
G1 F1800 X118.869 Y117.968 E28.36946
G1 X118.932 Y117.489 E28.38553
G1 X118.87 Y117.01 E28.40159
G1 X118.685 Y116.563 E28.41768
G1 X118.391 Y116.179 E28.43377
G1 X118.007 Y115.884 E28.44987
G1 X117.561 Y115.699 E28.46593
G1 X117.082 Y115.636 E28.482
G1 X116.603 Y115.699 E28.49807
G1 X116.155 Y115.883 E28.51418
G1 X115.772 Y116.177 E28.53024
G1 X115.477 Y116.561 E28.54634
G1 X115.292 Y117.008 E28.56243
G1 X115.228 Y117.487 E28.57851
G1 X115.291 Y117.966 E28.59457
G1 X115.476 Y118.413 E28.61066
G1 X115.77 Y118.797 E28.62675
G1 X116.153 Y119.091 E28.64281
G1 X116.6 Y119.276 E28.6589
G1 X117.079 Y119.34 E28.67497
G1 X117.558 Y119.277 E28.69104
G1 X118.005 Y119.092 E28.70713
G1 X118.388 Y118.798 E28.72319
G1 X118.684 Y118.415 E28.73929
M204 S5000
M205 X30 Y30
G0 F3600 X118.76 Y118.23
G0 X119.221 Y118.423
G0 X118.701 Y119.112
G0 X118.226 Y119.475
G0 X117.672 Y119.705
G0 X117.079 Y119.783
G0 X116.545 Y119.712
G0 X110.703 Y117.062
G0 X110.244 Y117.257
M204 S500
M205 X20 Y20
G1 F1800 X110.128 Y116.987 E28.74906
G1 X109.949 Y116.754 E28.75884
G1 X109.714 Y116.578 E28.7686
G1 X109.442 Y116.466 E28.77839
G1 X109.151 Y116.43 E28.78814
G1 X108.859 Y116.469 E28.79794
G1 X108.588 Y116.584 E28.80773
G1 X108.355 Y116.764 E28.81752
G1 X108.179 Y117 E28.82731
G1 X108.068 Y117.271 E28.83705
G1 X108.031 Y117.562 E28.84681
