;FLAVOR:Marlin
;TIME:975
;Filament used: 0.43366m
;Layer height: 0.2
;Generated with Cura_SteamEngine 3.6.0
M140 S60
M105
M190 S60
M104 S200
M105
M109 S200
M82 ;absolute extrusion mode
; Ender 3 Custom Start G-code
G28 ; Home all axes
G92 E0 ; Reset Extruder
G1 Z2.0 F3000 ; Move Z Axis up little to prevent scratching of Heat Bed
G1 X0.1 Y20 Z0.3 F5000.0 ; Move to start position
G1 X0.1 Y200.0 Z0.3 F1500.0 E15 ; Draw the first line
G1 X0.4 Y200.0 Z0.3 F5000.0 ; Move to side a little
G1 X0.4 Y20 Z0.3 F1500.0 E30 ; Draw the second line
G92 E0 ; Reset Extruder
G1 Z2.0 F3000 ; Move Z Axis up little to prevent scratching of Heat Bed
; End of custom start GCode
G92 E0
G1 F2400 E-10
;LAYER_COUNT:126
;LAYER:0
M107
M204 S5000
M205 X30 Y30
G0 F3600 X109.978 Y109.773 Z0.2
M204 S500
M205 X20 Y20
;TYPE:SKIRT
G1 F2400 E0
G1 F1800 X110.415 Y109.37 E0.01977
G1 X110.983 Y108.9 E0.04429
G1 X111.329 Y108.661 E0.05828
G1 X111.885 Y108.301 E0.08031
G1 X112.525 Y107.934 E0.10485
G1 X113.201 Y107.639 E0.12938
G1 X113.904 Y107.419 E0.15388
G1 X114.627 Y107.276 E0.17839
G1 X115.585 Y107.209 E0.21033
G1 X119.436 Y107.211 E0.33842
G1 X120.172 Y107.251 E0.36293
G1 X120.899 Y107.371 E0.38744
G1 X121.609 Y107.569 E0.41196
G1 X122.294 Y107.843 E0.43649
G1 X122.945 Y108.189 E0.46102
G1 X123.285 Y108.408 E0.47447
G1 X123.935 Y108.855 E0.5007
G1 X124.519 Y109.305 E0.52523
G1 X125.154 Y109.928 E0.55481
G1 X125.831 Y110.686 E0.58862
G1 X126.291 Y111.262 E0.61313
G1 X126.705 Y111.917 E0.63891
G1 X127.11 Y112.647 E0.66667
G1 X127.432 Y113.31 E0.69119
G1 X127.642 Y113.88 E0.71139
G1 X127.864 Y114.576 E0.73569
G1 X128.05 Y115.289 E0.7602
G1 X128.139 Y115.841 E0.77879
G1 X128.233 Y116.633 E0.80532
G1 X128.28 Y117.368 E0.82982
G1 X128.257 Y117.989 E0.85049
G1 X128.194 Y118.758 E0.87615
G1 X128.094 Y119.489 E0.90069
G1 X127.972 Y120.012 E0.91855
G1 X127.77 Y120.744 E0.94381
G1 X127.536 Y121.443 E0.96832
G1 X127.288 Y121.994 E0.98842
G1 X126.945 Y122.675 E1.01378
G1 X126.578 Y123.314 E1.03829
G1 X126.258 Y123.767 E1.05674
G1 X125.781 Y124.386 E1.08273
G1 X125.047 Y125.195 E1.11906
G1 X124.629 Y125.587 E1.13812
G1 X124.064 Y126.062 E1.16267
G1 X123.744 Y126.288 E1.1757
G1 X123.206 Y126.646 E1.19719
G1 X122.571 Y127.021 E1.22172
G1 X121.899 Y127.324 E1.24624
G1 X121.198 Y127.553 E1.27077
G1 X120.477 Y127.705 E1.29528
G1 X119.448 Y127.785 E1.3296
G1 X115.573 Y127.79 E1.45849
G1 X114.837 Y127.751 E1.483
G1 X114.109 Y127.632 E1.50754
G1 X113.398 Y127.436 E1.53207
G1 X112.713 Y127.164 E1.55658
G1 X112.061 Y126.819 E1.58111
G1 X111.528 Y126.463 E1.60243
G1 X110.709 Y125.859 E1.63628
G1 X110.14 Y125.39 E1.6608
G1 X109.626 Y124.862 E1.68531
G1 X109.342 Y124.514 E1.70025
G1 X108.607 Y123.552 E1.74052
G1 X108.191 Y122.943 E1.76505
G1 X107.845 Y122.292 E1.78957
G1 X107.677 Y121.9 E1.80375
G1 X107.279 Y120.882 E1.84011
G1 X107.048 Y120.182 E1.86463
G1 X106.894 Y119.461 E1.88915
G1 X106.829 Y118.885 E1.90843
G1 X106.744 Y117.682 E1.94854
G1 X106.732 Y116.945 E1.97305
G1 X106.824 Y116.061 E2.00261
G1 X106.953 Y115.304 E2.02816
G1 X107.116 Y114.585 E2.05268
G1 X107.311 Y114 E2.07319
G1 X107.597 Y113.258 E2.09963
G1 X107.899 Y112.586 E2.12414
G1 X108.353 Y111.83 E2.15347
G1 X108.999 Y110.898 E2.19119
G1 X109.451 Y110.316 E2.2157
G1 X109.978 Y109.773 E2.24086
M204 S5000
M205 X30 Y30
G0 F3600 X110.249 Y110.067
M204 S500
M205 X20 Y20
G1 F1800 X110.686 Y109.664 E2.26063
G1 X111.238 Y109.209 E2.28443
G1 X111.547 Y108.997 E2.29689
G1 X112.103 Y108.637 E2.31892
G1 X112.724 Y108.282 E2.34271
G1 X113.381 Y107.999 E2.36651
G1 X114.065 Y107.791 E2.39028
G1 X114.768 Y107.661 E2.41406
G1 X115.584 Y107.609 E2.44126
G1 X119.435 Y107.611 E2.56934
G1 X120.149 Y107.651 E2.59313
G1 X120.855 Y107.771 E2.61695
G1 X121.542 Y107.969 E2.64073
G1 X122.203 Y108.242 E2.66451
G1 X123.058 Y108.738 E2.69739
G1 X123.708 Y109.185 E2.72363
G1 X124.274 Y109.622 E2.74741
G1 X124.855 Y110.195 E2.77455
G1 X125.532 Y110.953 E2.80835
G1 X125.978 Y111.512 E2.83214
G1 X126.355 Y112.111 E2.85568
G1 X126.76 Y112.841 E2.88344
G1 X127.072 Y113.485 E2.90725
G1 X127.261 Y114.001 E2.92552
G1 X127.483 Y114.697 E2.94982
G1 X127.662 Y115.39 E2.97363
G1 X127.741 Y115.888 E2.9904
G1 X127.835 Y116.68 E3.01692
G1 X127.88 Y117.394 E3.04072
G1 X127.859 Y117.957 E3.05946
G1 X127.796 Y118.726 E3.08512
G1 X127.697 Y119.434 E3.1089
G1 X127.586 Y119.905 E3.12499
G1 X127.384 Y120.637 E3.15025
G1 X127.156 Y121.315 E3.17404
G1 X126.931 Y121.814 E3.19225
G1 X126.588 Y122.495 E3.21761
G1 X126.231 Y123.115 E3.2414
G1 X125.941 Y123.523 E3.25805
G1 X125.464 Y124.142 E3.28404
G1 X124.773 Y124.903 E3.31823
G1 X124.355 Y125.295 E3.33729
G1 X123.523 Y125.955 E3.37261
G1 X122.985 Y126.313 E3.39411
G1 X122.368 Y126.676 E3.41792
G1 X121.715 Y126.967 E3.44169
G1 X121.033 Y127.183 E3.46549
G1 X120.331 Y127.322 E3.48929
G1 X119.447 Y127.385 E3.51877
G1 X115.572 Y127.39 E3.64765
G1 X114.858 Y127.351 E3.67143
G1 X114.153 Y127.232 E3.69521
G1 X113.465 Y127.036 E3.71901
G1 X112.803 Y126.764 E3.74281
G1 X112.176 Y126.42 E3.7666
G1 X111.765 Y126.141 E3.78312
G1 X110.946 Y125.537 E3.81697
G1 X110.395 Y125.081 E3.84075
G1 X109.899 Y124.566 E3.86454
G1 X109.659 Y124.272 E3.87716
G1 X108.924 Y123.31 E3.91742
G1 X108.523 Y122.718 E3.94121
G1 X108.189 Y122.085 E3.96501
G1 X108.049 Y121.754 E3.97696
G1 X107.651 Y120.736 E4.01332
G1 X107.429 Y120.057 E4.03708
G1 X107.283 Y119.356 E4.0609
G1 X107.228 Y118.857 E4.07759
G1 X107.143 Y117.654 E4.1177
G1 X107.132 Y116.939 E4.14149
G1 X107.218 Y116.128 E4.16861
G1 X107.347 Y115.371 E4.19415
G1 X107.506 Y114.674 E4.21793
G1 X107.684 Y114.144 E4.23653
G1 X107.97 Y113.402 E4.26298
G1 X108.264 Y112.75 E4.28676
G1 X108.682 Y112.058 E4.31365
G1 X109.328 Y111.126 E4.35137
G1 X109.768 Y110.562 E4.37516
G1 X110.249 Y110.067 E4.39812
M204 S5000
M205 X30 Y30
G0 F3600 X110.52 Y110.361
M204 S500
M205 X20 Y20
G1 F1800 X110.957 Y109.958 E4.41789
G1 X111.764 Y109.333 E4.45184
G1 X112.32 Y108.973 E4.47387
G1 X112.922 Y108.63 E4.49691
G1 X113.56 Y108.36 E4.51996
G1 X114.224 Y108.164 E4.54298
G1 X114.906 Y108.047 E4.566
G1 X115.584 Y108.009 E4.58858
G1 X119.435 Y108.011 E4.71667
G1 X120.126 Y108.051 E4.73969
G1 X120.809 Y108.171 E4.76275
G1 X121.472 Y108.369 E4.78577
G1 X122.109 Y108.641 E4.80881
G1 X122.832 Y109.067 E4.83672
G1 X123.482 Y109.514 E4.86295
G1 X124.029 Y109.939 E4.88599
G1 X124.557 Y110.461 E4.91069
G1 X125.234 Y111.219 E4.94449
G1 X125.665 Y111.761 E4.96752
G1 X126.006 Y112.305 E4.98888
G1 X126.411 Y113.035 E5.01664
G1 X126.711 Y113.659 E5.03967
G1 X126.88 Y114.123 E5.0561
G1 X127.102 Y114.819 E5.08039
G1 X127.274 Y115.49 E5.10343
G1 X127.344 Y115.935 E5.11842
G1 X127.438 Y116.727 E5.14494
G1 X127.48 Y117.418 E5.16797
G1 X127.46 Y117.924 E5.18481
G1 X127.397 Y118.693 E5.21047
G1 X127.301 Y119.379 E5.23351
G1 X127.201 Y119.799 E5.24787
G1 X126.999 Y120.531 E5.27313
G1 X126.776 Y121.187 E5.29617
G1 X126.574 Y121.634 E5.31249
G1 X126.231 Y122.315 E5.33785
G1 X125.884 Y122.915 E5.3609
G1 X125.625 Y123.278 E5.37573
G1 X125.148 Y123.897 E5.40173
G1 X124.499 Y124.612 E5.43384
G1 X124.081 Y125.004 E5.4529
G1 X123.301 Y125.622 E5.486
G1 X122.763 Y125.98 E5.5075
G1 X122.165 Y126.33 E5.53054
G1 X121.531 Y126.608 E5.55357
G1 X120.869 Y126.812 E5.57661
G1 X120.188 Y126.938 E5.59964
G1 X119.447 Y126.985 E5.62434
G1 X115.572 Y126.99 E5.75322
G1 X114.88 Y126.951 E5.77627
G1 X114.198 Y126.832 E5.7993
G1 X113.534 Y126.636 E5.82232
G1 X112.897 Y126.365 E5.84535
G1 X112.295 Y126.021 E5.86841
G1 X112.003 Y125.819 E5.88022
G1 X111.184 Y125.215 E5.91407
G1 X110.651 Y124.772 E5.93712
G1 X109.977 Y124.029 E5.97048
G1 X109.242 Y123.067 E6.01075
G1 X108.854 Y122.493 E6.03379
G1 X108.422 Y121.609 E6.06652
G1 X108.024 Y120.591 E6.10287
G1 X107.809 Y119.932 E6.12593
G1 X107.672 Y119.253 E6.14897
G1 X107.627 Y118.829 E6.16315
G1 X107.542 Y117.626 E6.20326
G1 X107.533 Y116.933 E6.22631
G1 X107.612 Y116.195 E6.251
G1 X107.741 Y115.438 E6.27654
G1 X107.897 Y114.763 E6.29958
G1 X108.057 Y114.288 E6.31625
G1 X108.343 Y113.546 E6.3427
G1 X108.629 Y112.915 E6.36574
G1 X109.011 Y112.286 E6.39022
G1 X109.657 Y111.354 E6.42794
G1 X110.083 Y110.809 E6.45094
G1 X110.52 Y110.361 E6.47176
M204 S5000
M205 X30 Y30
G0 F3600 X110.792 Y110.655
M204 S500
M205 X20 Y20
G1 F1800 X111.229 Y110.252 E6.49153
G1 X111.981 Y109.668 E6.5232
G1 X112.537 Y109.308 E6.54523
G1 X113.12 Y108.979 E6.56749
G1 X113.737 Y108.721 E6.58974
G1 X114.381 Y108.539 E6.612
G1 X115.042 Y108.435 E6.63425
G1 X115.584 Y108.409 E6.6523
G1 X119.435 Y108.411 E6.78038
G1 X120.103 Y108.451 E6.80264
G1 X120.761 Y108.571 E6.82489
G1 X121.4 Y108.768 E6.84713
G1 X122.011 Y109.04 E6.86937
G1 X122.605 Y109.397 E6.89242
G1 X123.255 Y109.844 E6.91866
G1 X123.783 Y110.255 E6.94091
G1 X124.259 Y110.728 E6.96323
G1 X124.936 Y111.486 E6.99704
G1 X125.351 Y112.01 E7.01927
G1 X125.656 Y112.499 E7.03844
G1 X126.061 Y113.229 E7.0662
G1 X126.35 Y113.833 E7.08847
G1 X126.499 Y114.244 E7.10301
G1 X126.721 Y114.94 E7.12731
G1 X126.886 Y115.589 E7.14958
G1 X126.947 Y115.982 E7.16281
G1 X127.041 Y116.774 E7.18934
G1 X127.08 Y117.442 E7.21159
G1 X127.061 Y117.891 E7.22654
G1 X126.998 Y118.66 E7.2522
G1 X126.904 Y119.323 E7.27448
G1 X126.815 Y119.693 E7.28713
G1 X126.613 Y120.425 E7.31239
G1 X126.397 Y121.058 E7.33464
G1 X126.216 Y121.454 E7.34912
G1 X125.873 Y122.135 E7.37448
G1 X125.537 Y122.714 E7.39674
G1 X125.308 Y123.034 E7.40983
G1 X124.831 Y123.653 E7.43582
G1 X124.226 Y124.32 E7.46577
G1 X123.808 Y124.712 E7.48483
G1 X123.079 Y125.289 E7.51576
G1 X122.541 Y125.647 E7.53725
G1 X121.963 Y125.984 E7.5595
G1 X121.349 Y126.249 E7.58175
G1 X120.708 Y126.439 E7.60398
G1 X120.048 Y126.552 E7.62625
G1 X119.446 Y126.585 E7.64631
G1 X115.571 Y126.59 E7.77519
G1 X114.903 Y126.551 E7.79745
G1 X114.245 Y126.432 E7.81969
G1 X113.605 Y126.236 E7.84195
G1 X112.994 Y125.965 E7.86418
G1 X112.24 Y125.497 E7.8937
G1 X111.421 Y124.893 E7.92754
G1 X110.907 Y124.464 E7.94981
G1 X110.295 Y123.786 E7.98019
G1 X109.56 Y122.824 E8.02045
G1 X109.186 Y122.269 E8.04271
G1 X108.794 Y121.463 E8.07252
G1 X108.396 Y120.445 E8.10888
G1 X108.19 Y119.809 E8.13111
G1 X108.062 Y119.152 E8.15338
G1 X108.026 Y118.801 E8.16511
G1 X107.941 Y117.598 E8.20522
G1 X107.934 Y116.929 E8.22748
G1 X108.007 Y116.262 E8.24979
G1 X108.136 Y115.505 E8.27533
G1 X108.287 Y114.854 E8.29756
G1 X108.431 Y114.432 E8.31239
G1 X108.717 Y113.69 E8.33884
G1 X108.994 Y113.081 E8.36109
G1 X109.34 Y112.514 E8.38319
G1 X109.986 Y111.582 E8.4209
G1 X110.399 Y111.056 E8.44315
G1 X110.792 Y110.655 E8.46182
M204 S5000
M205 X30 Y30
G0 F3600 X111.063 Y110.949
M204 S500
M205 X20 Y20
G1 F1800 X111.5 Y110.546 E8.48159
G1 X112.199 Y110.004 E8.51101
G1 X112.755 Y109.644 E8.53304
G1 X113.317 Y109.328 E8.55449
G1 X113.913 Y109.084 E8.57591
G1 X114.535 Y108.915 E8.59734
G1 X115.174 Y108.825 E8.61881
G1 X115.584 Y108.809 E8.63245
G1 X119.435 Y108.811 E8.76054
G1 X120.078 Y108.851 E8.78197
G1 X120.712 Y108.971 E8.80343
G1 X121.325 Y109.168 E8.82484
G1 X121.91 Y109.439 E8.84629
G1 X122.379 Y109.726 E8.86457
G1 X123.029 Y110.173 E8.89081
G1 X123.536 Y110.571 E8.91225
G1 X123.96 Y110.994 E8.93217
G1 X124.637 Y111.752 E8.96597
G1 X125.036 Y112.259 E8.98743
G1 X125.306 Y112.693 E9.00443
G1 X125.711 Y113.423 E9.0322
G1 X125.988 Y114.005 E9.05364
G1 X126.118 Y114.366 E9.0664
G1 X126.34 Y115.062 E9.0907
G1 X126.498 Y115.687 E9.11214
G1 X126.55 Y116.029 E9.12364
G1 X126.644 Y116.821 E9.15017
G1 X126.68 Y117.465 E9.17162
G1 X126.663 Y117.859 E9.18474
G1 X126.6 Y118.628 E9.2104
G1 X126.507 Y119.266 E9.23185
G1 X126.43 Y119.586 E9.24279
G1 X126.228 Y120.318 E9.26805
G1 X126.018 Y120.928 E9.28951
G1 X125.859 Y121.274 E9.30217
G1 X125.516 Y121.955 E9.32753
G1 X125.191 Y122.512 E9.34898
G1 X124.991 Y122.79 E9.36037
G1 X124.514 Y123.409 E9.38636
G1 X123.952 Y124.028 E9.41417
G1 X123.534 Y124.42 E9.43323
G1 X122.858 Y124.956 E9.46193
G1 X122.32 Y125.314 E9.48342
G1 X121.762 Y125.637 E9.50486
G1 X121.168 Y125.889 E9.52632
G1 X120.548 Y126.065 E9.54776
G1 X119.911 Y126.164 E9.5692
G1 X119.446 Y126.185 E9.58468
G1 X115.571 Y126.19 E9.71357
G1 X114.927 Y126.151 E9.73502
G1 X114.294 Y126.032 E9.75645
G1 X113.679 Y125.836 E9.77792
G1 X113.094 Y125.566 E9.79935
G1 X112.478 Y125.175 E9.82361
G1 X111.659 Y124.571 E9.85746
G1 X111.165 Y124.157 E9.8789
G1 X110.613 Y123.543 E9.90636
G1 X109.878 Y122.581 E9.94662
G1 X109.519 Y122.045 E9.96808
G1 X109.167 Y121.317 E9.99498
G1 X108.769 Y120.299 E10.03133
G1 X108.572 Y119.686 E10.05275
G1 X108.425 Y118.773 E10.0835
G1 X108.34 Y117.57 E10.12362
G1 X108.334 Y116.925 E10.14507
G1 X108.401 Y116.329 E10.16502
G1 X108.53 Y115.572 E10.19056
G1 X108.677 Y114.945 E10.21198
G1 X108.804 Y114.576 E10.22496
G1 X109.09 Y113.834 E10.25141
G1 X109.359 Y113.248 E10.27285
G1 X109.668 Y112.742 E10.29257
G1 X110.314 Y111.81 E10.33029
G1 X110.714 Y111.304 E10.35174
G1 X111.063 Y110.949 E10.3683
M204 S5000
M205 X30 Y30
G1 F2400 E0.3683
;MESH:Front_Wheel_Axle.stl
G0 F3600 X115.059 Y113.529
G0 X115.736 Y114.619
G0 X119.364 Y114.778
G0 X119.42 Y114.696
M204 S500
M205 X20 Y20
;TYPE:WALL-INNER
G1 F2400 E10.3683
G1 F1800 X119.687 Y114.898 E10.37943
G1 X119.921 Y115.115 E10.39005
G1 X120.145 Y115.368 E10.40129
G1 X120.335 Y115.627 E10.41197
G1 X120.507 Y115.918 E10.42321
G1 X120.643 Y116.21 E10.43393
G1 X120.755 Y116.529 E10.44517
G1 X120.831 Y116.838 E10.45576
G1 X120.88 Y117.175 E10.46708
G1 X120.896 Y117.492 E10.47764
G1 X120.88 Y117.834 E10.48903
G1 X120.832 Y118.161 E10.50002
G1 X120.756 Y118.469 E10.51057
G1 X120.643 Y118.789 E10.52186
G1 X120.51 Y119.077 E10.53241
G1 X120.336 Y119.372 E10.5438
G1 X120.146 Y119.631 E10.55448
G1 X119.922 Y119.884 E10.56572
G1 X119.688 Y120.101 E10.57634
G1 X119.421 Y120.303 E10.58747
G1 X119.264 Y120.4 E10.59361
G1 X115.733 Y120.4 E10.71105
G1 X115.567 Y120.297 E10.71755
G1 X115.299 Y120.093 E10.72875
G1 X115.071 Y119.882 E10.73909
G1 X114.854 Y119.637 E10.74997
G1 X114.648 Y119.354 E10.76161
G1 X114.486 Y119.079 E10.77223
G1 X114.352 Y118.789 E10.78285
G1 X114.239 Y118.469 E10.79414
G1 X114.162 Y118.152 E10.80499
G1 X114.114 Y117.822 E10.81608
G1 X114.097 Y117.498 E10.82687
G1 X114.114 Y117.176 E10.8376
G1 X114.165 Y116.829 E10.84926
G1 X114.238 Y116.534 E10.85937
G1 X114.355 Y116.202 E10.87108
G1 X114.488 Y115.919 E10.88148
G1 X114.655 Y115.636 E10.89241
G1 X114.863 Y115.351 E10.90414
G1 X115.069 Y115.121 E10.91441
G1 X115.309 Y114.898 E10.92531
G1 X115.576 Y114.696 E10.93645
G1 X115.731 Y114.6 E10.94251
G1 X119.265 Y114.6 E11.06005
G1 X119.42 Y114.696 E11.06612
M204 S5000
M205 X30 Y30
G0 F3600 X119.364 Y114.778
G0 X119.583 Y117.634
G0 X119.425 Y118.302
G0 X119.06 Y118.886
G0 X118.527 Y119.318
G0 X118.344 Y119.384
G0 X117.503 Y119.653
G0 X117.503 Y119.553
M204 S500
M205 X20 Y20
G1 F1800 X117.873 Y119.515 E11.07849
G1 X118.199 Y119.426 E11.08973
G1 X118.508 Y119.284 E11.10104
G1 X118.787 Y119.092 E11.1123
G1 X119.031 Y118.86 E11.1235
G1 X119.234 Y118.589 E11.13476
G1 X119.389 Y118.287 E11.14605
G1 X119.494 Y117.967 E11.15725
G1 X119.544 Y117.632 E11.16852
G1 X119.537 Y117.291 E11.17986
G1 X119.475 Y116.958 E11.19113
G1 X119.358 Y116.642 E11.20234
G1 X119.192 Y116.347 E11.2136
G1 X118.979 Y116.082 E11.2249
G1 X118.725 Y115.858 E11.23617
G1 X118.439 Y115.679 E11.24739
G1 X118.131 Y115.552 E11.25847
G1 X117.836 Y115.476 E11.2686
G1 X117.497 Y115.448 E11.27992
G1 X117.159 Y115.476 E11.2912
G1 X116.832 Y115.559 E11.30242
G1 X116.521 Y115.695 E11.31371
G1 X116.237 Y115.881 E11.325
G1 X115.988 Y116.11 E11.33625
G1 X115.78 Y116.378 E11.34753
G1 X115.618 Y116.676 E11.35881
G1 X115.509 Y116.995 E11.37003
G1 X115.452 Y117.329 E11.3813
G1 X115.452 Y117.671 E11.39267
G1 X115.509 Y118.005 E11.40394
G1 X115.618 Y118.324 E11.41515
G1 X115.78 Y118.622 E11.42643
G1 X115.988 Y118.89 E11.43772
G1 X116.237 Y119.119 E11.44897
G1 X116.521 Y119.305 E11.46026
G1 X116.832 Y119.441 E11.47155
G1 X117.16 Y119.524 E11.4828
G1 X117.503 Y119.553 E11.49425
M204 S5000
M205 X30 Y30
G0 F3600 X117.499 Y119.151
M204 S500
M205 X20 Y20
;TYPE:WALL-OUTER
G1 F1800 X117.8 Y119.12 E11.50432
G1 X118.062 Y119.049 E11.51335
G1 X118.31 Y118.935 E11.52242
G1 X118.534 Y118.781 E11.53146
