;FLAVOR:Marlin
;TIME:6006
;Filament used: 2.96211m
;Layer height: 0.1
;Generated with Cura_SteamEngine 3.6.0
M140 S60
M105
M190 S60
M104 S200
M105
M109 S200
M82 ;absolute extrusion mode
; Ender 3 Custom Start G-code
G28 ; Home all axes
G92 E0 ; Reset Extruder
G1 Z2.0 F3000 ; Move Z Axis up little to prevent scratching of Heat Bed
G1 X0.1 Y20 Z0.3 F5000.0 ; Move to start position
G1 X0.1 Y200.0 Z0.3 F1500.0 E15 ; Draw the first line
G1 X0.4 Y200.0 Z0.3 F5000.0 ; Move to side a little
G1 X0.4 Y20 Z0.3 F1500.0 E30 ; Draw the second line
G92 E0 ; Reset Extruder
G1 Z2.0 F3000 ; Move Z Axis up little to prevent scratching of Heat Bed
; End of custom start GCode
G92 E0
G1 F2400 E-10
;LAYER_COUNT:217
;LAYER:0
M107
M204 S5000
M205 X30 Y30
G0 F3600 X80.519 Y97.978 Z0.2
M204 S500
M205 X20 Y20
;TYPE:SKIRT
G1 F2400 E0
G1 F1800 X81.103 Y97.564 E0.02381
G1 X81.729 Y97.218 E0.0476
G1 X82.389 Y96.944 E0.07137
G1 X83.076 Y96.745 E0.09516
G1 X83.781 Y96.624 E0.11895
G1 X84.495 Y96.582 E0.14274
G1 X85.209 Y96.62 E0.16652
G1 X85.823 Y96.718 E0.1872
G1 X100.589 Y99.813 E0.68899
G1 X105.836 Y100.624 E0.86558
G1 X111.096 Y101.134 E1.04135
G1 X116.396 Y101.347 E1.21777
G1 X121.682 Y101.26 E1.3936
G1 X126.97 Y100.874 E1.56995
G1 X132.214 Y100.19 E1.74585
G1 X137.078 Y99.285 E1.9104
G1 X149.162 Y96.723 E2.32125
G1 X149.869 Y96.614 E2.34504
G1 X150.584 Y96.585 E2.36884
G1 X151.297 Y96.635 E2.39261
G1 X152.001 Y96.765 E2.41643
G1 X152.685 Y96.972 E2.44019
G1 X153.342 Y97.255 E2.46399
G1 X153.964 Y97.609 E2.48779
G1 X154.542 Y98.03 E2.51157
G1 X155.07 Y98.513 E2.53537
G1 X155.54 Y99.052 E2.55916
G1 X155.947 Y99.64 E2.58295
G1 X156.286 Y100.27 E2.60674
G1 X156.553 Y100.934 E2.63054
G1 X156.744 Y101.623 E2.65432
G1 X156.856 Y102.329 E2.6781
G1 X156.89 Y102.984 E2.69991
G1 X156.89 Y107.06 E2.83548
G1 X156.88 Y107.425 E2.84763
G1 X156.721 Y110.214 E2.94054
G1 X156.645 Y115.535 E3.11754
G1 X156.884 Y121.231 E3.30715
G1 X156.89 Y121.5 E3.3161
G1 X156.89 Y124.996 E3.43238
G1 X156.85 Y125.71 E3.45616
G1 X156.731 Y126.415 E3.47994
G1 X156.533 Y127.103 E3.50376
G1 X156.26 Y127.764 E3.52754
G1 X155.916 Y128.391 E3.55133
G1 X155.503 Y128.975 E3.57512
G1 X154.826 Y129.704 E3.60821
G1 X151.761 Y132.527 E3.7468
G1 X147.994 Y136.349 E3.92529
G1 X146.236 Y138.289 E4.01236
G1 X145.726 Y138.792 E4.03619
G1 X145.164 Y139.234 E4.05997
G1 X144.556 Y139.611 E4.08376
G1 X143.91 Y139.917 E4.10754
G1 X143.234 Y140.15 E4.13132
G1 X142.536 Y140.306 E4.15511
G1 X141.494 Y140.391 E4.18988
G1 X93.504 Y140.39 E5.78603
G1 X92.79 Y140.35 E5.80982
G1 X92.085 Y140.231 E5.8336
G1 X91.397 Y140.033 E5.85741
G1 X90.736 Y139.76 E5.8812
G1 X90.109 Y139.415 E5.905
G1 X89.525 Y139.003 E5.92877
G1 X88.798 Y138.327 E5.96179
G1 X85.924 Y135.209 E6.10283
G1 X82.089 Y131.436 E6.28176
G1 X80.214 Y129.739 E6.36588
G1 X79.711 Y129.23 E6.38968
G1 X79.268 Y128.668 E6.41348
G1 X78.891 Y128.06 E6.43727
G1 X78.584 Y127.414 E6.46106
G1 X78.351 Y126.738 E6.48484
G1 X78.195 Y126.04 E6.50863
G1 X78.109 Y124.992 E6.54361
G1 X78.11 Y121.499 E6.65978
G1 X78.121 Y121.134 E6.67193
G1 X78.284 Y118.301 E6.76631
G1 X78.359 Y112.96 E6.94397
G1 X78.105 Y106.549 E7.15737
G1 X78.1 Y106.276 E7.16645
G1 X78.11 Y102.963 E7.27664
G1 X78.152 Y102.249 E7.30043
G1 X78.274 Y101.544 E7.32423
G1 X78.473 Y100.857 E7.34802
G1 X78.748 Y100.197 E7.3718
G1 X79.095 Y99.571 E7.3956
G1 X79.509 Y98.988 E7.41938
G1 X79.986 Y98.455 E7.44317
G1 X80.519 Y97.978 E7.46697
M204 S5000
M205 X30 Y30
G0 F3600 X80.908 Y98.183
M204 S500
M205 X20 Y20
G1 F1800 X81.485 Y97.8 E7.49
G1 X82.102 Y97.486 E7.51303
G1 X82.752 Y97.245 E7.53608
G1 X83.424 Y97.081 E7.55909
G1 X84.112 Y96.995 E7.58215
G1 X84.804 Y96.989 E7.60517
G1 X85.741 Y97.11 E7.63659
G1 X100.503 Y100.204 E8.13825
G1 X105.79 Y101.021 E8.31618
G1 X111.076 Y101.534 E8.49282
G1 X116.387 Y101.747 E8.6696
G1 X121.7 Y101.66 E8.84634
G1 X126.999 Y101.273 E9.02305
G1 X132.285 Y100.584 E9.20035
G1 X137.187 Y99.672 E9.36619
G1 X149.245 Y97.115 E9.77616
G1 X149.93 Y97.01 E9.79921
G1 X150.622 Y96.985 E9.82224
G1 X151.312 Y97.041 E9.84527
G1 X151.992 Y97.175 E9.86832
G1 X152.651 Y97.387 E9.89134
G1 X153.282 Y97.673 E9.91439
G1 X153.875 Y98.03 E9.93741
G1 X154.423 Y98.453 E9.96043
G1 X154.919 Y98.937 E9.98348
G1 X155.356 Y99.474 E10.00651
G1 X155.728 Y100.058 E10.02954
G1 X156.03 Y100.681 E10.05257
G1 X156.259 Y101.335 E10.07561
G1 X156.411 Y102.011 E10.09866
G1 X156.49 Y102.984 E10.13113
G1 X156.49 Y107.06 E10.2667
G1 X156.48 Y107.402 E10.27808
G1 X156.321 Y110.185 E10.37079
G1 X156.245 Y115.529 E10.54855
G1 X156.485 Y121.248 E10.73893
G1 X156.49 Y121.5 E10.74732
G1 X156.49 Y124.996 E10.86359
G1 X156.45 Y125.687 E10.88661
G1 X156.331 Y126.37 E10.90967
G1 X156.133 Y127.033 E10.93269
G1 X155.861 Y127.67 E10.95572
G1 X155.517 Y128.271 E10.97876
G1 X155.106 Y128.829 E11.00181
G1 X154.555 Y129.41 E11.02844
G1 X151.477 Y132.245 E11.16762
G1 X147.707 Y136.071 E11.34627
G1 X145.939 Y138.021 E11.43382
G1 X145.445 Y138.506 E11.45684
G1 X144.899 Y138.931 E11.47986
G1 X144.307 Y139.291 E11.5029
G1 X143.677 Y139.58 E11.52596
G1 X143.019 Y139.794 E11.54897
G1 X142.34 Y139.931 E11.57201
G1 X141.494 Y139.991 E11.60022
G1 X93.504 Y139.99 E13.19637
G1 X92.812 Y139.95 E13.21942
G1 X92.13 Y139.831 E13.24245
G1 X91.466 Y139.633 E13.2655
G1 X90.83 Y139.361 E13.2885
G1 X90.229 Y139.017 E13.31154
G1 X89.671 Y138.606 E13.33459
G1 X89.092 Y138.056 E13.36115
G1 X86.206 Y134.925 E13.50277
G1 X82.367 Y131.148 E13.6819
G1 X80.482 Y129.442 E13.76646
G1 X79.996 Y128.948 E13.78951
G1 X79.571 Y128.402 E13.81252
G1 X79.211 Y127.81 E13.83556
G1 X78.922 Y127.181 E13.85859
G1 X78.707 Y126.523 E13.88161
G1 X78.57 Y125.844 E13.90465
G1 X78.509 Y124.992 E13.93306
G1 X78.51 Y121.499 E14.04924
G1 X78.52 Y121.157 E14.06062
G1 X78.684 Y118.306 E14.1556
G1 X78.76 Y112.95 E14.33376
G1 X78.505 Y106.533 E14.54736
G1 X78.5 Y106.277 E14.55587
G1 X78.51 Y102.964 E14.66606
G1 X78.552 Y102.273 E14.68909
G1 X78.674 Y101.591 E14.71213
G1 X78.873 Y100.928 E14.73516
G1 X79.147 Y100.292 E14.75819
G1 X79.493 Y99.692 E14.78123
G1 X79.905 Y99.135 E14.80427
G1 X80.379 Y98.63 E14.8273
G1 X80.908 Y98.183 E14.85034
M204 S5000
M205 X30 Y30
G0 F3600 X80.771 Y98.813
M204 S500
M205 X20 Y20
G1 F1800 X81.295 Y98.397 E14.87259
G1 X81.865 Y98.046 E14.89486
G1 X82.473 Y97.766 E14.91712
G1 X83.109 Y97.56 E14.93936
G1 X83.766 Y97.432 E14.96162
G1 X84.433 Y97.383 E14.98386
G1 X85.101 Y97.413 E15.0061
G1 X85.659 Y97.501 E15.02489
G1 X100.453 Y100.602 E15.52764
G1 X105.725 Y101.417 E15.70507
G1 X111.058 Y101.934 E15.88327
G1 X116.377 Y102.147 E16.06033
G1 X121.718 Y102.06 E16.23799
G1 X127.043 Y101.671 E16.41557
G1 X132.338 Y100.981 E16.59318
G1 X137.264 Y100.064 E16.75983
G1 X149.328 Y97.506 E17.17
G1 X149.99 Y97.406 E17.19227
G1 X150.659 Y97.387 E17.21453
G1 X151.325 Y97.447 E17.23677
G1 X151.979 Y97.586 E17.25901
G1 X152.613 Y97.802 E17.28128
G1 X153.215 Y98.092 E17.30351
G1 X153.779 Y98.452 E17.32576
G1 X154.296 Y98.877 E17.34802
G1 X154.759 Y99.36 E17.37028
G1 X155.161 Y99.895 E17.39253
G1 X155.496 Y100.474 E17.41478
G1 X155.76 Y101.089 E17.43704
G1 X155.948 Y101.731 E17.45929
G1 X156.058 Y102.391 E17.48155
G1 X156.09 Y102.984 E17.5013
G1 X156.09 Y107.06 E17.63687
G1 X156.081 Y107.379 E17.64748
G1 X155.921 Y110.18 E17.7408
G1 X155.844 Y115.54 E17.91909
G1 X156.085 Y121.265 E18.10967
G1 X156.09 Y121.5 E18.11749
G1 X156.09 Y124.996 E18.23377
G1 X156.05 Y125.664 E18.25602
G1 X155.931 Y126.322 E18.27826
G1 X155.734 Y126.962 E18.30054
G1 X155.462 Y127.573 E18.32278
G1 X155.119 Y128.147 E18.34502
G1 X154.71 Y128.677 E18.36729
G1 X154.284 Y129.115 E18.38761
G1 X151.204 Y131.952 E18.52689
G1 X147.42 Y135.792 E18.7062
G1 X145.643 Y137.752 E18.79419
G1 X145.165 Y138.22 E18.81644
G1 X144.634 Y138.628 E18.83871
G1 X144.059 Y138.969 E18.86095
G1 X143.447 Y139.239 E18.88319
G1 X142.807 Y139.435 E18.90546
G1 X142.149 Y139.553 E18.92769
G1 X141.494 Y139.591 E18.94951
G1 X93.504 Y139.59 E20.54567
G1 X92.836 Y139.55 E20.56792
G1 X92.178 Y139.431 E20.59016
G1 X91.538 Y139.234 E20.61244
G1 X90.927 Y138.962 E20.63468
G1 X90.353 Y138.619 E20.65692
G1 X89.823 Y138.21 E20.67919
G1 X89.386 Y137.785 E20.69946
G1 X86.488 Y134.641 E20.84168
G1 X82.634 Y130.849 E21.02151
G1 X80.751 Y129.145 E21.10597
G1 X80.282 Y128.668 E21.12822
G1 X79.874 Y128.137 E21.15049
G1 X79.533 Y127.562 E21.17273
G1 X79.262 Y126.95 E21.19499
G1 X79.066 Y126.311 E21.21722
G1 X78.948 Y125.652 E21.23949
G1 X78.909 Y124.992 E21.26148
G1 X78.91 Y121.499 E21.37766
G1 X78.919 Y121.18 E21.38827
G1 X79.084 Y118.312 E21.48382
G1 X79.16 Y112.958 E21.66191
G1 X78.904 Y106.517 E21.87631
G1 X78.9 Y106.278 E21.88426
G1 X78.91 Y102.965 E21.99445
G1 X78.952 Y102.297 E22.01671
G1 X79.073 Y101.639 E22.03896
G1 X79.272 Y101.001 E22.06119
G1 X79.546 Y100.39 E22.08346
G1 X79.89 Y99.817 E22.10569
G1 X80.301 Y99.288 E22.12797
G1 X80.771 Y98.813 E22.1502
M204 S5000
M205 X30 Y30
G0 F3600 X81.162 Y99.003
M204 S500
M205 X20 Y20
G1 F1800 X81.681 Y98.619 E22.17167
G1 X82.242 Y98.303 E22.19309
G1 X82.839 Y98.058 E22.21455
G1 X83.461 Y97.889 E22.23599
G1 X84.099 Y97.798 E22.25742
G1 X84.744 Y97.787 E22.27888
G1 X85.577 Y97.893 E22.30681
G1 X100.369 Y100.993 E22.80948
G1 X105.676 Y101.814 E22.98809
G1 X111.02 Y102.332 E23.16667
G1 X116.385 Y102.547 E23.34525
G1 X121.736 Y102.459 E23.52325
G1 X127.089 Y102.068 E23.70177
G1 X132.406 Y101.375 E23.88011
G1 X137.304 Y100.464 E24.04581
G1 X149.411 Y97.897 E24.45744
G1 X150.049 Y97.803 E24.47889
G1 X150.694 Y97.788 E24.50035
G1 X151.335 Y97.853 E24.52178
G1 X151.963 Y97.997 E24.54321
G1 X152.569 Y98.218 E24.56466
G1 X153.143 Y98.512 E24.58611
G1 X153.676 Y98.874 E24.60754
G1 X154.16 Y99.3 E24.62898
G1 X154.588 Y99.782 E24.65042
G1 X154.952 Y100.314 E24.67186
G1 X155.248 Y100.887 E24.69331
G1 X155.471 Y101.492 E24.71476
G1 X155.618 Y102.119 E24.73618
G1 X155.69 Y102.984 E24.76505
G1 X155.69 Y107.06 E24.90062
G1 X155.682 Y107.356 E24.91047
G1 X155.521 Y110.175 E25.00438
G1 X155.444 Y115.551 E25.1832
G1 X155.685 Y121.282 E25.37399
G1 X155.69 Y121.5 E25.38124
G1 X155.69 Y124.996 E25.49752
G1 X155.65 Y125.639 E25.51894
G1 X155.531 Y126.273 E25.5404
G1 X155.334 Y126.887 E25.56185
G1 X155.063 Y127.472 E25.58329
G1 X154.721 Y128.019 E25.60475
G1 X154.315 Y128.519 E25.62617
G1 X154.013 Y128.821 E25.64037
G1 X150.931 Y131.66 E25.77974
G1 X147.122 Y135.525 E25.96023
G1 X145.347 Y137.483 E26.04813
G1 X144.885 Y137.933 E26.06958
G1 X144.371 Y138.323 E26.09104
G1 X143.813 Y138.645 E26.11247
G1 X143.219 Y138.896 E26.13392
G1 X142.599 Y139.072 E26.15535
G1 X141.962 Y139.17 E26.17679
G1 X141.494 Y139.191 E26.19237
G1 X93.504 Y139.19 E27.78852
G1 X92.86 Y139.15 E27.80998
G1 X92.227 Y139.031 E27.83141
G1 X91.613 Y138.834 E27.85285
G1 X91.028 Y138.563 E27.8743
G1 X90.481 Y138.221 E27.89575
G1 X89.981 Y137.815 E27.91718
G1 X89.68 Y137.514 E27.93133
G1 X86.77 Y134.357 E28.07414
G1 X82.924 Y130.574 E28.25357
G1 X81.019 Y128.849 E28.33904
G1 X80.569 Y128.387 E28.36049
G1 X80.179 Y127.874 E28.38193
G1 X79.856 Y127.316 E28.40337
G1 X79.605 Y126.722 E28.42482
G1 X79.428 Y126.102 E28.44626
G1 X79.33 Y125.465 E28.4677
G1 X79.309 Y124.993 E28.48342
G1 X79.31 Y121.5 E28.59959
G1 X79.319 Y121.203 E28.60948
G1 X79.484 Y118.34 E28.70486
G1 X79.56 Y112.948 E28.88421
G1 X79.304 Y106.501 E29.09881
G1 X79.3 Y106.279 E29.1062
G1 X79.31 Y102.966 E29.21639
G1 X79.352 Y102.323 E29.23782
G1 X79.473 Y101.69 E29.25925
G1 X79.672 Y101.077 E29.28069
G1 X79.945 Y100.492 E29.30216
G1 X80.288 Y99.947 E29.32358
G1 X80.696 Y99.448 E29.34502
G1 X81.162 Y99.003 E29.36645
M204 S5000
M205 X30 Y30
G1 F2400 E19.36645
;MESH:Rainlight_and_Diffuser.stl
G0 F3600 X83.835 Y103.727
G0 X85.112 Y103.727
G0 X121.869 Y112.514
G0 X121.861 Y120.036
G0 X121.912 Y120.477
G0 X122.069 Y120.93
G0 X122.324 Y121.335
G0 X122.665 Y121.676
G0 X123.07 Y121.931
G0 X123.436 Y122.057
G0 X140.5 Y124
M204 S500
M205 X20 Y20
;TYPE:WALL-INNER
G1 F2400 E29.36645
G1 F1800 X140.5 Y133 E29.66579
G1 X94.5 Y133 E31.19576
G1 X94.5 Y124 E31.4951
G1 X85.5 Y124 E31.79444
G1 X85.5 Y122.5 E31.84433
G1 X111.057 Y122.5 E32.69436
G1 X111.559 Y122.442 E32.71117
G1 X112.087 Y122.258 E32.72976
G1 X112.562 Y121.96 E32.74841
G1 X112.96 Y121.562 E32.76713
G1 X113.258 Y121.087 E32.78578
G1 X113.442 Y120.559 E32.80438
G1 X113.5 Y120.057 E32.82119
G1 X113.5 Y112.215 E33.08201
G1 X85.5 Y106.252 E34.03418
G1 X85.5 Y104.453 E34.09402
G1 X85.5 Y104.452 E34.09405
G1 X85.5 Y104.206 E34.10223
G1 X85.741 Y104.257 E34.10725
G1 X116.925 Y110.899 E35.1677
G1 X118.074 Y110.9 E35.20591
G1 X149.259 Y104.257 E36.2664
G1 X149.5 Y104.206 E36.27459
G1 X149.5 Y104.452 E36.2796
G1 X149.5 Y104.453 E36.27963
G1 X149.5 Y106.252 E36.33947
G1 X121.5 Y112.215 E37.29164
G1 X121.5 Y120.057 E37.55246
G1 X121.558 Y120.559 E37.56927
G1 X121.742 Y121.087 E37.58787
G1 X122.04 Y121.562 E37.60652
G1 X122.438 Y121.96 E37.62524
G1 X122.913 Y122.258 E37.64389
G1 X123.441 Y122.442 E37.66249
G1 X123.931 Y122.499 E37.67889
G1 X149.5 Y122.5 E38.52932
G1 X149.5 Y124 E38.57921
G1 X140.5 Y124 E38.87855
M204 S5000
M205 X30 Y30
G0 F3600 X140.9 Y124.4
M204 S500
M205 X20 Y20
G1 F1800 X140.9 Y133.4 E39.17789
G1 X94.1 Y133.4 E40.73447
G1 X94.1 Y124.4 E41.03381
G1 X85.1 Y124.4 E41.33315
G1 X85.1 Y122.1 E41.40965
G1 X111.034 Y122.1 E42.27222
G1 X111.469 Y122.05 E42.28678
G1 X111.913 Y121.895 E42.30242
G1 X112.311 Y121.645 E42.31805
G1 X112.645 Y121.311 E42.33376
G1 X112.895 Y120.913 E42.3494
G1 X113.05 Y120.469 E42.36504
G1 X113.1 Y120.034 E42.3796
G1 X113.1 Y112.539 E42.62889
G1 X85.1 Y106.575 E43.58106
G1 X85.1 Y103.959 E43.66807
G1 X85.1 Y103.958 E43.6681
G1 X85.1 Y103.712 E43.67629
G1 X85.341 Y103.763 E43.6813
G1 X116.967 Y110.499 E44.75678
G1 X118.032 Y110.5 E44.7922
G1 X149.659 Y103.763 E45.86772
G1 X149.9 Y103.712 E45.87591
G1 X149.9 Y103.958 E45.88092
G1 X149.9 Y103.959 E45.88095
G1 X149.9 Y106.575 E45.96796
G1 X121.9 Y112.539 E46.92013
G1 X121.9 Y120.034 E47.16942
G1 X121.95 Y120.469 E47.18398
G1 X122.105 Y120.913 E47.19962
G1 X122.355 Y121.311 E47.21526
G1 X122.689 Y121.645 E47.23097
G1 X123.087 Y121.895 E47.2466
G1 X123.531 Y122.05 E47.26224
G1 X123.954 Y122.099 E47.2764
G1 X149.9 Y122.1 E48.13937
G1 X149.9 Y124.4 E48.21587
G1 X140.9 Y124.4 E48.51521
M204 S5000
M205 X30 Y30
G0 F3600 X141.3 Y124.8
M204 S500
M205 X20 Y20
;TYPE:WALL-OUTER
G1 F1800 X141.3 Y133.8 E48.81455
G1 X93.7 Y133.8 E50.39773
G1 X93.7 Y124.8 E50.69708
G1 X84.7 Y124.8 E50.99642
G1 X84.7 Y121.7 E51.09952
G1 X111.011 Y121.7 E51.97463
G1 X111.379 Y121.658 E51.98695
G1 X111.738 Y121.532 E51.9996
G1 X112.06 Y121.33 E52.01225
G1 X112.33 Y121.06 E52.02495
G1 X112.532 Y120.738 E52.03759
G1 X112.658 Y120.379 E52.05024
G1 X112.7 Y120.011 E52.06256
G1 X112.7 Y112.863 E52.30031
G1 X84.7 Y106.898 E53.25249
G1 X84.7 Y103.465 E53.36667
G1 X84.7 Y103.464 E53.3667
G1 X84.7 Y103.218 E53.37489
G1 X84.941 Y103.269 E53.3799
G1 X117.009 Y110.099 E54.47041
G1 X117.99 Y110.1 E54.50304
G1 X150.059 Y103.269 E55.59359
G1 X150.3 Y103.218 E55.60178
G1 X150.3 Y103.464 E55.60678
G1 X150.3 Y103.465 E55.60682
G1 X150.3 Y106.898 E55.721
G1 X122.3 Y112.863 E56.67318
G1 X122.3 Y120.011 E56.91092
G1 X122.342 Y120.379 E56.92324
G1 X122.468 Y120.738 E56.9359
G1 X122.67 Y121.06 E56.94854
G1 X122.94 Y121.33 E56.96124
G1 X123.262 Y121.532 E56.97388
G1 X123.621 Y121.658 E56.98654
G1 X123.977 Y121.699 E56.99846
G1 X150.3 Y121.7 E57.87396
G1 X150.3 Y124.8 E57.97707
G1 X141.3 Y124.8 E58.27641
M204 S5000
M205 X30 Y30
G0 F3600 X141.3 Y125
G0 X140.8 Y125
G0 X140.11 Y123.61
M204 S500
M205 X20 Y20
;TYPE:SKIN
G1 F1800 X140.11 Y132.61 E58.57575
G1 X94.89 Y132.61 E60.07978
