;FLAVOR:Marlin
;TIME:1430
;Filament used: 0.509049m
;Layer height: 0.1
;Generated with Cura_SteamEngine 3.6.0
M140 S60
M105
M190 S60
M104 S200
M105
M109 S200
M82 ;absolute extrusion mode
; Ender 3 Custom Start G-code
G28 ; Home all axes
G92 E0 ; Reset Extruder
G1 Z2.0 F3000 ; Move Z Axis up little to prevent scratching of Heat Bed
G1 X0.1 Y20 Z0.3 F5000.0 ; Move to start position
G1 X0.1 Y200.0 Z0.3 F1500.0 E15 ; Draw the first line
G1 X0.4 Y200.0 Z0.3 F5000.0 ; Move to side a little
G1 X0.4 Y20 Z0.3 F1500.0 E30 ; Draw the second line
G92 E0 ; Reset Extruder
G1 Z2.0 F3000 ; Move Z Axis up little to prevent scratching of Heat Bed
; End of custom start GCode
G92 E0
G1 F2400 E-5
;LAYER_COUNT:120
;LAYER:0
M107
M204 S5000
M205 X30 Y30
G0 F3600 X107.723 Y106.965 Z0.2
M204 S500
M205 X20 Y20
;TYPE:SKIRT
G1 F2400 E0
G1 F1800 X108.185 Y106.546 E0.02074
G1 X108.722 Y106.105 E0.04386
G1 X109.3 Y105.683 E0.06766
G1 X110.014 Y105.282 E0.0949
G1 X112.632 Y104.025 E0.19149
G1 X113.293 Y103.751 E0.21529
G1 X113.933 Y103.565 E0.23745
G1 X114.569 Y103.415 E0.25919
G1 X115.273 Y103.29 E0.28297
G1 X116.042 Y103.244 E0.30859
G1 X118.919 Y103.246 E0.40428
G1 X119.634 Y103.286 E0.4281
G1 X120.24 Y103.385 E0.44852
G1 X120.916 Y103.528 E0.4715
G1 X121.606 Y103.714 E0.49527
G1 X122.335 Y104.007 E0.5214
G1 X123.688 Y104.649 E0.57121
G1 X123.766 Y104.687 E0.5741
G1 X125.018 Y105.302 E0.62049
G1 X125.641 Y105.652 E0.64426
G1 X126.108 Y105.981 E0.66326
G1 X126.635 Y106.388 E0.68541
G1 X127.176 Y106.856 E0.7092
G1 X127.727 Y107.463 E0.73647
G1 X129.521 Y109.713 E0.83218
G1 X129.935 Y110.296 E0.85596
G1 X130.247 Y110.851 E0.87714
G1 X130.569 Y111.498 E0.90117
G1 X130.851 Y112.156 E0.92498
G1 X131.08 Y112.934 E0.95196
G1 X131.718 Y115.747 E1.04789
G1 X131.837 Y116.453 E1.07171
G1 X131.877 Y117.115 E1.09377
G1 X131.882 Y117.782 E1.11595
G1 X131.847 Y118.496 E1.13973
G1 X131.72 Y119.261 E1.16552
G1 X131.08 Y122.051 E1.26073
G1 X130.881 Y122.738 E1.28451
G1 X130.667 Y123.271 E1.30362
G1 X130.378 Y123.906 E1.32682
G1 X130.046 Y124.54 E1.35063
G1 X129.562 Y125.238 E1.37888
G1 X128.634 Y126.405 E1.42847
G1 X128.615 Y126.429 E1.42949
G1 X127.747 Y127.51 E1.4756
G1 X127.269 Y128.042 E1.49938
G1 X126.823 Y128.446 E1.5194
G1 X126.282 Y128.891 E1.5427
G1 X125.705 Y129.314 E1.56649
G1 X124.988 Y129.716 E1.59383
G1 X122.381 Y130.969 E1.69004
G1 X121.72 Y131.243 E1.71384
G1 X121.033 Y131.441 E1.73762
G1 X120.567 Y131.529 E1.75339
G1 X119.57 Y131.68 E1.78693
G1 X118.615 Y131.752 E1.81878
G1 X116.06 Y131.753 E1.90376
G1 X115.345 Y131.713 E1.92758
G1 X114.699 Y131.607 E1.94935
G1 X114.054 Y131.467 E1.9713
G1 X113.365 Y131.277 E1.99508
G1 X112.666 Y130.994 E2.02016
G1 X111.31 Y130.35 E2.07009
G1 X111.234 Y130.313 E2.0729
G1 X109.982 Y129.698 E2.11929
G1 X109.359 Y129.348 E2.14306
G1 X108.884 Y129.013 E2.16239
G1 X108.351 Y128.6 E2.18482
G1 X107.811 Y128.131 E2.20861
G1 X107.265 Y127.528 E2.23566
G1 X105.474 Y125.279 E2.33129
G1 X105.06 Y124.695 E2.3551
G1 X104.759 Y124.161 E2.37548
G1 X104.443 Y123.531 E2.39893
G1 X104.159 Y122.875 E2.4227
G1 X103.923 Y122.078 E2.45035
G1 X103.282 Y119.253 E2.5467
G1 X103.163 Y118.548 E2.57048
G1 X103.123 Y117.885 E2.59257
G1 X103.118 Y117.22 E2.61469
G1 X103.153 Y116.506 E2.63846
G1 X103.28 Y115.742 E2.66422
G1 X103.92 Y112.95 E2.75949
G1 X104.118 Y112.263 E2.78327
G1 X104.334 Y111.725 E2.80256
G1 X104.623 Y111.091 E2.82573
G1 X104.956 Y110.458 E2.84952
G1 X105.446 Y109.752 E2.8781
G1 X107.246 Y107.498 E2.97404
G1 X107.723 Y106.965 E2.99783
M204 S5000
M205 X30 Y30
G0 F3600 X108.021 Y107.233
M204 S500
M205 X20 Y20
G1 F1800 X108.439 Y106.855 E3.01658
G1 X108.976 Y106.414 E3.03969
G1 X109.536 Y106.006 E3.06273
G1 X110.187 Y105.642 E3.08754
G1 X112.805 Y104.385 E3.18413
G1 X113.446 Y104.122 E3.20718
G1 X114.025 Y103.954 E3.22723
G1 X114.661 Y103.804 E3.24896
G1 X115.343 Y103.684 E3.27199
G1 X116.042 Y103.644 E3.29528
G1 X118.919 Y103.646 E3.39097
G1 X119.611 Y103.686 E3.41402
G1 X120.157 Y103.776 E3.43243
G1 X120.833 Y103.919 E3.45541
G1 X121.501 Y104.101 E3.47844
G1 X122.163 Y104.368 E3.50218
G1 X123.516 Y105.01 E3.55199
G1 X123.589 Y105.046 E3.5547
G1 X124.841 Y105.661 E3.60109
G1 X125.444 Y106.001 E3.62412
G1 X125.863 Y106.297 E3.64118
G1 X126.39 Y106.704 E3.66333
G1 X126.913 Y107.159 E3.68638
G1 X127.414 Y107.712 E3.7112
G1 X129.208 Y109.962 E3.80691
G1 X129.608 Y110.528 E3.82996
G1 X129.889 Y111.03 E3.8491
G1 X130.211 Y111.677 E3.87314
G1 X130.483 Y112.313 E3.89614
G1 X130.69 Y113.023 E3.92074
G1 X131.328 Y115.836 E4.01668
G1 X131.442 Y116.519 E4.03971
G1 X131.477 Y117.118 E4.05967
G1 X131.482 Y117.785 E4.08185
G1 X131.447 Y118.477 E4.1049
G1 X131.33 Y119.172 E4.12834
G1 X130.69 Y121.962 E4.22354
G1 X130.497 Y122.626 E4.24654
G1 X130.303 Y123.105 E4.26373
G1 X130.014 Y123.74 E4.28693
G1 X129.691 Y124.353 E4.30998
G1 X129.249 Y124.989 E4.33574
G1 X128.321 Y126.156 E4.38533
G1 X128.303 Y126.179 E4.3863
G1 X127.435 Y127.26 E4.43241
G1 X126.971 Y127.774 E4.45544
G1 X126.569 Y128.137 E4.47346
G1 X126.028 Y128.582 E4.49676
G1 X125.468 Y128.99 E4.5198
G1 X124.815 Y129.356 E4.5447
G1 X122.208 Y130.609 E4.64091
G1 X121.568 Y130.872 E4.66392
G1 X120.901 Y131.06 E4.68697
G1 X120.507 Y131.133 E4.7003
G1 X119.51 Y131.284 E4.73383
G1 X118.614 Y131.352 E4.76372
G1 X116.059 Y131.353 E4.8487
G1 X115.368 Y131.313 E4.87172
G1 X114.784 Y131.216 E4.89141
G1 X114.139 Y131.076 E4.91336
G1 X113.472 Y130.891 E4.93639
G1 X112.838 Y130.633 E4.95915
G1 X111.482 Y129.989 E5.00908
G1 X111.411 Y129.954 E5.01171
G1 X110.159 Y129.339 E5.05811
G1 X109.556 Y128.999 E5.08113
G1 X109.129 Y128.697 E5.09853
G1 X108.596 Y128.284 E5.12095
G1 X108.074 Y127.829 E5.14399
G1 X107.577 Y127.279 E5.16864
G1 X105.786 Y125.03 E5.26426
G1 X105.387 Y124.464 E5.2873
G1 X105.117 Y123.982 E5.30567
G1 X104.801 Y123.352 E5.32911
G1 X104.527 Y122.716 E5.35215
G1 X104.313 Y121.99 E5.37732
G1 X103.672 Y119.165 E5.47367
G1 X103.558 Y118.482 E5.4967
G1 X103.523 Y117.882 E5.51669
G1 X103.518 Y117.217 E5.53881
G1 X103.553 Y116.525 E5.56185
G1 X103.67 Y115.831 E5.58526
G1 X104.31 Y113.039 E5.68053
G1 X104.503 Y112.374 E5.70356
G1 X104.698 Y111.891 E5.72089
G1 X104.987 Y111.257 E5.74406
G1 X105.311 Y110.645 E5.76709
G1 X105.759 Y110.002 E5.79316
G1 X107.559 Y107.748 E5.8891
G1 X108.021 Y107.233 E5.91211
M204 S5000
M205 X30 Y30
G0 F3600 X108.319 Y107.501
M204 S500
M205 X20 Y20
G1 F1800 X108.693 Y107.164 E5.92886
G1 X109.23 Y106.723 E5.95197
G1 X109.771 Y106.33 E5.97421
G1 X110.36 Y106.003 E5.99661
G1 X112.978 Y104.746 E6.09321
G1 X113.597 Y104.493 E6.11545
G1 X114.117 Y104.344 E6.13344
G1 X114.753 Y104.194 E6.15517
G1 X115.412 Y104.079 E6.17742
G1 X116.042 Y104.044 E6.19841
G1 X118.919 Y104.046 E6.2941
G1 X119.587 Y104.086 E6.31636
G1 X120.074 Y104.167 E6.33278
G1 X120.75 Y104.31 E6.35576
G1 X121.395 Y104.488 E6.37801
G1 X121.992 Y104.73 E6.39944
G1 X123.345 Y105.372 E6.44925
G1 X123.413 Y105.405 E6.45176
G1 X124.665 Y106.02 E6.49816
G1 X125.247 Y106.35 E6.52041
G1 X125.619 Y106.614 E6.53558
G1 X126.146 Y107.021 E6.55773
G1 X126.65 Y107.461 E6.57998
G1 X127.102 Y107.962 E6.60242
G1 X128.896 Y110.212 E6.69813
G1 X129.281 Y110.759 E6.72038
G1 X129.53 Y111.208 E6.73746
G1 X129.852 Y111.855 E6.76149
G1 X130.114 Y112.471 E6.78376
G1 X130.3 Y113.111 E6.80593
G1 X130.938 Y115.924 E6.90186
G1 X131.047 Y116.584 E6.92411
G1 X131.077 Y117.121 E6.942
G1 X131.082 Y117.788 E6.96419
G1 X131.047 Y118.456 E6.98643
G1 X130.94 Y119.082 E7.00756
G1 X130.3 Y121.872 E7.10276
G1 X130.112 Y122.514 E7.12501
G1 X129.939 Y122.94 E7.14031
G1 X129.65 Y123.575 E7.16351
G1 X129.337 Y124.166 E7.18575
G1 X128.936 Y124.74 E7.20904
G1 X128.008 Y125.907 E7.25863
G1 X127.992 Y125.928 E7.25951
G1 X127.124 Y127.009 E7.30562
G1 X126.674 Y127.505 E7.3279
G1 X126.314 Y127.828 E7.34398
G1 X125.773 Y128.273 E7.36728
G1 X125.232 Y128.666 E7.38952
G1 X124.642 Y128.995 E7.41199
G1 X122.035 Y130.248 E7.50819
G1 X121.416 Y130.502 E7.53045
G1 X120.448 Y130.738 E7.56359
G1 X119.451 Y130.889 E7.59713
G1 X118.614 Y130.952 E7.62504
G1 X116.059 Y130.953 E7.71002
G1 X115.391 Y130.913 E7.73228
G1 X114.869 Y130.826 E7.74988
G1 X114.224 Y130.686 E7.77183
G1 X113.58 Y130.505 E7.79408
G1 X113.01 Y130.271 E7.81458
G1 X111.654 Y129.627 E7.86451
G1 X111.587 Y129.595 E7.86698
G1 X110.335 Y128.98 E7.91337
G1 X109.753 Y128.65 E7.93562
G1 X109.374 Y128.381 E7.95108
G1 X108.841 Y127.968 E7.97351
G1 X108.338 Y127.527 E7.99576
G1 X107.89 Y127.03 E8.01801
G1 X106.099 Y124.781 E8.11363
G1 X105.715 Y124.233 E8.13589
G1 X105.474 Y123.803 E8.15229
G1 X105.158 Y123.173 E8.17573
G1 X104.895 Y122.558 E8.19797
G1 X104.703 Y121.901 E8.22074
G1 X104.062 Y119.076 E8.31709
G1 X103.953 Y118.416 E8.33934
G1 X103.923 Y117.879 E8.35723
G1 X103.918 Y117.214 E8.37934
G1 X103.953 Y116.546 E8.40159
G1 X104.06 Y115.921 E8.42268
G1 X104.7 Y113.129 E8.51795
G1 X104.888 Y112.487 E8.5402
G1 X105.062 Y112.057 E8.55563
G1 X105.351 Y111.423 E8.57881
G1 X105.665 Y110.832 E8.60106
G1 X106.071 Y110.251 E8.62464
G1 X107.871 Y107.997 E8.72058
G1 X108.319 Y107.501 E8.74281
M204 S5000
M205 X30 Y30
G0 F3600 X108.616 Y107.769
M204 S500
M205 X20 Y20
G1 F1800 X108.947 Y107.473 E8.75758
G1 X109.484 Y107.032 E8.78069
G1 X110.006 Y106.655 E8.80211
G1 X110.533 Y106.363 E8.82215
G1 X113.151 Y105.106 E8.91874
G1 X113.749 Y104.864 E8.94019
G1 X114.208 Y104.733 E8.95607
G1 X114.844 Y104.583 E8.9778
G1 X115.48 Y104.474 E8.99927
G1 X116.042 Y104.444 E9.01798
G1 X118.919 Y104.446 E9.11367
G1 X119.562 Y104.486 E9.1351
G1 X119.991 Y104.559 E9.14957
G1 X120.667 Y104.702 E9.17256
G1 X121.288 Y104.874 E9.19399
G1 X121.82 Y105.091 E9.2131
G1 X123.173 Y105.733 E9.26291
G1 X123.237 Y105.764 E9.26527
G1 X124.489 Y106.379 E9.31167
G1 X125.049 Y106.698 E9.3331
G1 X125.374 Y106.93 E9.34638
G1 X125.901 Y107.337 E9.36853
G1 X126.386 Y107.762 E9.38998
G1 X126.789 Y108.211 E9.41005
G1 X128.583 Y110.461 E9.50576
G1 X128.953 Y110.989 E9.5272
G1 X129.172 Y111.386 E9.54228
G1 X129.494 Y112.033 E9.56632
G1 X129.745 Y112.627 E9.58777
G1 X129.91 Y113.2 E9.6076
G1 X130.548 Y116.013 E9.70354
G1 X130.652 Y116.649 E9.72497
G1 X130.677 Y117.124 E9.74079
G1 X130.682 Y117.791 E9.76298
G1 X130.647 Y118.435 E9.78443
G1 X130.55 Y118.993 E9.80327
G1 X129.91 Y121.783 E9.89847
G1 X129.728 Y122.401 E9.9199
G1 X129.575 Y122.774 E9.93331
G1 X129.286 Y123.409 E9.95651
G1 X128.983 Y123.978 E9.97795
G1 X128.623 Y124.491 E9.9988
G1 X127.695 Y125.658 E10.04839
G1 X127.68 Y125.678 E10.04922
G1 X126.812 Y126.759 E10.09533
G1 X126.378 Y127.235 E10.11676
G1 X126.06 Y127.519 E10.13094
G1 X125.519 Y127.964 E10.15423
G1 X124.997 Y128.342 E10.17567
G1 X124.469 Y128.635 E10.19575
G1 X121.862 Y129.888 E10.29196
G1 X121.264 Y130.13 E10.31342
G1 X120.388 Y130.342 E10.34339
G1 X119.391 Y130.493 E10.37693
G1 X118.614 Y130.552 E10.40285
G1 X116.059 Y130.553 E10.48783
G1 X115.416 Y130.513 E10.50926
G1 X114.954 Y130.435 E10.52484
G1 X114.309 Y130.295 E10.54679
G1 X113.689 Y130.119 E10.56823
G1 X113.181 Y129.91 E10.5865
G1 X111.825 Y129.266 E10.63643
G1 X111.763 Y129.236 E10.63872
G1 X110.511 Y128.621 E10.68511
G1 X109.951 Y128.302 E10.70655
G1 X109.619 Y128.064 E10.72013
G1 X109.086 Y127.651 E10.74256
G1 X108.602 Y127.226 E10.76398
G1 X108.203 Y126.78 E10.78389
G1 X106.412 Y124.531 E10.87951
G1 X106.043 Y124.003 E10.90094
G1 X105.832 Y123.623 E10.91539
G1 X105.516 Y122.993 E10.93883
G1 X105.263 Y122.4 E10.96028
G1 X105.093 Y121.813 E10.9806
G1 X104.452 Y118.988 E11.07695
G1 X104.348 Y118.351 E11.09842
G1 X104.323 Y117.876 E11.11424
G1 X104.318 Y117.211 E11.13636
G1 X104.353 Y116.567 E11.15781
G1 X104.449 Y116.01 E11.17661
G1 X105.089 Y113.218 E11.27188
G1 X105.272 Y112.6 E11.29332
G1 X105.426 Y112.223 E11.30686
G1 X105.715 Y111.589 E11.33004
G1 X106.019 Y111.02 E11.35149
G1 X106.384 Y110.501 E11.3726
G1 X108.184 Y108.247 E11.46854
G1 X108.616 Y107.769 E11.48997
M204 S5000
M205 X30 Y30
G1 F2400 E6.48997
;MESH:Pinion_Gear.stl
G0 F3600 X114.647 Y110.031
G0 X115.871 Y110.36
G0 X116.371 Y112.444
G0 X118.554 Y112.811
M204 S500
M205 X20 Y20
;TYPE:WALL-INNER
G1 F2400 E11.48997
G1 F1800 X119.432 Y113.16 E11.52139
G1 X119.707 Y113.293 E11.53155
G1 X120.501 Y113.742 E11.56189
G1 X121.118 Y114.424 E11.59248
G1 X121.3 Y114.65 E11.60213
G1 X121.829 Y115.406 E11.63282
G1 X122.089 Y116.278 E11.66308
G1 X122.162 Y116.596 E11.67393
G1 X122.305 Y117.49 E11.70405
G1 X122.167 Y118.389 E11.7343
G1 X122.097 Y118.698 E11.74484
G1 X121.834 Y119.581 E11.77548
G1 X121.311 Y120.335 E11.806
G1 X121.127 Y120.567 E11.81585
G1 X120.501 Y121.256 E11.84681
G1 X119.709 Y121.705 E11.87709
G1 X119.426 Y121.841 E11.88753
G1 X118.559 Y122.188 E11.91859
G1 X117.659 Y122.246 E11.94859
G1 X117.348 Y122.248 E11.95894
G1 X116.446 Y122.189 E11.989
G1 X115.568 Y121.84 E12.02042
G1 X115.293 Y121.707 E12.03058
G1 X114.499 Y121.258 E12.06092
G1 X113.889 Y120.584 E12.09116
G1 X113.69 Y120.335 E12.10176
G1 X113.171 Y119.594 E12.13185
G1 X112.907 Y118.708 E12.1626
G1 X112.838 Y118.404 E12.17297
G1 X112.695 Y117.507 E12.20318
G1 X112.835 Y116.602 E12.23364
G1 X112.909 Y116.278 E12.24469
G1 X113.165 Y115.42 E12.27447
G1 X113.692 Y114.661 E12.3052
G1 X113.879 Y114.426 E12.31519
G1 X114.499 Y113.744 E12.34585
G1 X115.291 Y113.295 E12.37613
G1 X115.574 Y113.159 E12.38657
G1 X116.441 Y112.812 E12.41763
G1 X117.341 Y112.754 E12.44763
G1 X117.652 Y112.752 E12.45797
G1 X118.554 Y112.811 E12.48804
M204 S5000
M205 X30 Y30
G0 F3600 X118.804 Y115.15
M204 S500
M205 X20 Y20
G1 F1800 X116.194 Y115.152 E12.57485
G1 X115.695 Y115.556 E12.5962
G1 X115.446 Y115.821 E12.6083
G1 X115.238 Y116.118 E12.62036
G1 X115.071 Y116.437 E12.63233
G1 X114.948 Y116.776 E12.64433
G1 X114.873 Y117.134 E12.65649
G1 X114.848 Y117.497 E12.66859
G1 X114.872 Y117.858 E12.68063
G1 X114.946 Y118.213 E12.69269
G1 X115.066 Y118.551 E12.70462
G1 X115.231 Y118.875 E12.71671
G1 X115.442 Y119.174 E12.72888
G1 X115.689 Y119.439 E12.74093
G1 X115.971 Y119.669 E12.75303
G1 X116.281 Y119.855 E12.76506
G1 X116.613 Y120 E12.77711
G1 X116.962 Y120.097 E12.78916
G1 X117.318 Y120.146 E12.80111
G1 X117.684 Y120.146 E12.81328
G1 X118.043 Y120.095 E12.82534
G1 X118.39 Y119.999 E12.83732
G1 X118.722 Y119.854 E12.84937
G1 X119.034 Y119.665 E12.8615
G1 X119.316 Y119.434 E12.87362
G1 X119.562 Y119.168 E12.88567
G1 X119.769 Y118.873 E12.89766
G1 X119.935 Y118.549 E12.90977
G1 X120.055 Y118.207 E12.92182
G1 X120.128 Y117.855 E12.93378
G1 X120.153 Y117.49 E12.94595
G1 X120.125 Y117.13 E12.95796
G1 X120.052 Y116.779 E12.96988
G1 X119.929 Y116.434 E12.98206
G1 X119.761 Y116.113 E12.99411
G1 X119.55 Y115.816 E13.00623
G1 X119.301 Y115.555 E13.01823
G1 X118.804 Y115.15 E13.03955
M204 S5000
M205 X30 Y30
G0 F3600 X118.662 Y115.55
M204 S500
M205 X20 Y20
G1 F1800 X116.336 Y115.552 E13.11692
G1 X115.968 Y115.85 E13.13267
G1 X115.757 Y116.074 E13.1429
G1 X115.58 Y116.326 E13.15314
G1 X115.438 Y116.598 E13.16335
G1 X115.334 Y116.886 E13.17353
G1 X115.27 Y117.189 E13.18383
G1 X115.249 Y117.498 E13.19413
G1 X115.269 Y117.804 E13.20433
G1 X115.332 Y118.105 E13.21456
G1 X115.434 Y118.393 E13.22472
G1 X115.574 Y118.668 E13.23499
G1 X115.753 Y118.921 E13.2453
G1 X115.963 Y119.146 E13.25553
G1 X116.202 Y119.341 E13.26579
G1 X116.465 Y119.499 E13.276
G1 X116.747 Y119.622 E13.28623
G1 X117.043 Y119.704 E13.29644
G1 X117.346 Y119.746 E13.30662
G1 X117.656 Y119.746 E13.31693
G1 X117.961 Y119.703 E13.32717
G1 X118.256 Y119.621 E13.33736
G1 X118.538 Y119.498 E13.34759
G1 X118.802 Y119.338 E13.35786
G1 X119.041 Y119.142 E13.36814
G1 X119.25 Y118.916 E13.37838
G1 X119.426 Y118.666 E13.38855
G1 X119.567 Y118.391 E13.39882
G1 X119.669 Y118.1 E13.40908
