;FLAVOR:Marlin
;TIME:668
;Filament used: 0.544888m
;Layer height: 0.2
;Generated with Cura_SteamEngine 3.6.0
M140 S60
M105
M190 S60
M104 S200
M105
M109 S200
M82 ;absolute extrusion mode
; Ender 3 Custom Start G-code
G28 ; Home all axes
G92 E0 ; Reset Extruder
G1 Z2.0 F3000 ; Move Z Axis up little to prevent scratching of Heat Bed
G1 X0.1 Y20 Z0.3 F5000.0 ; Move to start position
G1 X0.1 Y200.0 Z0.3 F1500.0 E15 ; Draw the first line
G1 X0.4 Y200.0 Z0.3 F5000.0 ; Move to side a little
G1 X0.4 Y20 Z0.3 F1500.0 E30 ; Draw the second line
G92 E0 ; Reset Extruder
G1 Z2.0 F3000 ; Move Z Axis up little to prevent scratching of Heat Bed
; End of custom start GCode
G92 E0
G1 F2400 E-5
;LAYER_COUNT:31
;LAYER:0
M107
M204 S5000
M205 X30 Y30
G0 F3600 X92.532 Y111.633 Z0.2
M204 S500
M205 X20 Y20
;TYPE:SKIRT
G1 F2400 E0
G1 F1800 X93.336 Y111.084 E0.03238
G1 X98.31 Y108.216 E0.22335
G1 X98.949 Y107.894 E0.24715
G1 X99.619 Y107.645 E0.27092
G1 X100.314 Y107.472 E0.29474
G1 X100.999 Y107.38 E0.31773
G1 X107.754 Y106.842 E0.54311
G1 X113.015 Y106.094 E0.71985
G1 X116.32 Y105.472 E0.83171
G1 X117.029 Y105.379 E0.85549
G1 X117.744 Y105.366 E0.87928
G1 X118.456 Y105.432 E0.90306
G1 X119.156 Y105.578 E0.92684
G1 X119.836 Y105.801 E0.95064
G1 X120.709 Y106.222 E0.98288
G1 X125.686 Y109.102 E1.17413
G1 X125.841 Y109.194 E1.18013
G1 X128.165 Y110.628 E1.27096
G1 X134.541 Y114.128 E1.51287
G1 X134.664 Y114.197 E1.51756
G1 X139.675 Y117.094 E1.71008
G1 X140.273 Y117.486 E1.73386
G1 X140.824 Y117.943 E1.75767
G1 X141.321 Y118.458 E1.78147
G1 X141.757 Y119.025 E1.80526
G1 X142.126 Y119.637 E1.82903
G1 X142.426 Y120.287 E1.85284
G1 X142.65 Y120.966 E1.87662
G1 X142.798 Y121.665 E1.90039
G1 X142.872 Y122.641 E1.93294
G1 X142.867 Y128.378 E2.12376
G1 X142.826 Y129.092 E2.14754
G1 X142.706 Y129.797 E2.17133
G1 X142.508 Y130.484 E2.19511
G1 X142.235 Y131.145 E2.21889
G1 X141.89 Y131.771 E2.24267
G1 X141.476 Y132.355 E2.26648
G1 X141.001 Y132.889 E2.29025
G1 X140.468 Y133.367 E2.31406
G1 X139.664 Y133.916 E2.34644
G1 X134.688 Y136.785 E2.53748
G1 X134.075 Y137.096 E2.56034
G1 X127.408 Y140.039 E2.80273
G1 X125.129 Y141.186 E2.88759
G1 X118.618 Y144.825 E3.13568
G1 X117.975 Y145.138 E3.15946
G1 X117.302 Y145.378 E3.18323
G1 X116.605 Y145.541 E3.20704
G1 X115.895 Y145.626 E3.23082
G1 X115.18 Y145.63 E3.2546
G1 X114.468 Y145.555 E3.27841
G1 X113.77 Y145.401 E3.30219
G1 X113.093 Y145.17 E3.32598
G1 X112.29 Y144.777 E3.35571
G1 X107.315 Y141.898 E3.54689
G1 X106.717 Y141.506 E3.57067
G1 X106.167 Y141.049 E3.59446
G1 X105.642 Y140.501 E3.6197
G1 X103.501 Y137.98 E3.72971
G1 X99.831 Y134.033 E3.90896
G1 X98.005 Y132.229 E3.99434
G1 X96.077 Y130.431 E4.08202
G1 X92.346 Y127.211 E4.24594
G1 X91.832 Y126.714 E4.26972
G1 X91.376 Y126.163 E4.29351
G1 X90.984 Y125.564 E4.31732
G1 X90.662 Y124.926 E4.34109
G1 X90.413 Y124.255 E4.36489
G1 X90.241 Y123.561 E4.38867
G1 X90.146 Y122.852 E4.41246
G1 X90.128 Y122.36 E4.42884
G1 X90.133 Y116.622 E4.61969
G1 X90.174 Y115.908 E4.64347
G1 X90.294 Y115.203 E4.66726
G1 X90.492 Y114.516 E4.69104
G1 X90.765 Y113.855 E4.71482
G1 X91.11 Y113.229 E4.7386
G1 X91.524 Y112.645 E4.76241
G1 X91.999 Y112.111 E4.78618
G1 X92.532 Y111.633 E4.80999
M204 S5000
M205 X30 Y30
G0 F3600 X92.921 Y111.837
M204 S500
M205 X20 Y20
G1 F1800 X93.536 Y111.43 E4.83452
G1 X98.51 Y108.562 E5.02549
G1 X99.129 Y108.251 E5.04853
G1 X99.779 Y108.014 E5.07154
G1 X100.453 Y107.853 E5.09459
G1 X101.031 Y107.779 E5.11397
G1 X107.795 Y107.24 E5.33965
G1 X113.076 Y106.49 E5.51706
G1 X116.394 Y105.865 E5.62936
G1 X117.081 Y105.776 E5.6524
G1 X117.773 Y105.767 E5.67542
G1 X118.462 Y105.838 E5.69845
G1 X119.138 Y105.988 E5.72149
G1 X119.792 Y106.215 E5.74451
G1 X120.509 Y106.568 E5.77109
G1 X125.486 Y109.448 E5.96234
G1 X125.631 Y109.534 E5.96795
G1 X127.972 Y110.978 E6.05943
G1 X134.349 Y114.479 E6.3014
G1 X134.464 Y114.544 E6.30579
G1 X139.475 Y117.441 E6.4983
G1 X140.054 Y117.821 E6.52134
G1 X140.584 Y118.266 E6.54436
G1 X141.06 Y118.769 E6.56739
G1 X141.475 Y119.323 E6.59041
G1 X141.824 Y119.922 E6.61347
G1 X142.101 Y120.557 E6.63651
G1 X142.303 Y121.219 E6.65953
G1 X142.427 Y121.9 E6.68256
G1 X142.472 Y122.64 E6.70721
G1 X142.467 Y128.377 E6.89803
G1 X142.426 Y129.069 E6.92108
G1 X142.306 Y129.751 E6.94412
G1 X142.109 Y130.414 E6.96712
G1 X141.836 Y131.051 E6.99017
G1 X141.491 Y131.652 E7.01322
G1 X141.08 Y132.209 E7.03624
G1 X140.607 Y132.715 E7.05928
G1 X140.079 Y133.163 E7.08231
G1 X139.464 Y133.57 E7.10684
G1 X134.488 Y136.439 E7.29788
G1 X133.914 Y136.73 E7.31929
G1 X127.222 Y139.684 E7.56258
G1 X124.96 Y140.823 E7.64682
G1 X118.423 Y144.476 E7.89588
G1 X117.8 Y144.778 E7.91891
G1 X117.146 Y145.007 E7.94196
G1 X116.471 Y145.158 E7.96496
G1 X115.782 Y145.231 E7.98801
G1 X115.09 Y145.224 E8.01102
G1 X114.402 Y145.138 E8.03409
G1 X113.73 Y144.972 E8.05711
G1 X113.081 Y144.731 E8.08013
G1 X112.491 Y144.431 E8.10215
G1 X107.516 Y141.552 E8.29333
G1 X106.937 Y141.171 E8.31638
G1 X106.407 Y140.726 E8.3394
G1 X105.947 Y140.243 E8.36158
G1 X103.795 Y137.709 E8.47216
G1 X100.122 Y133.76 E8.65153
G1 X98.259 Y131.918 E8.73867
G1 X96.343 Y130.132 E8.82579
G1 X92.608 Y126.908 E8.98989
G1 X92.11 Y126.426 E9.01294
G1 X91.672 Y125.89 E9.03597
G1 X91.298 Y125.307 E9.059
G1 X90.994 Y124.685 E9.08203
G1 X90.764 Y124.032 E9.10506
G1 X90.61 Y123.356 E9.12812
G1 X90.528 Y122.361 E9.16132
G1 X90.533 Y116.623 E9.35217
G1 X90.574 Y115.931 E9.37523
G1 X90.694 Y115.249 E9.39826
G1 X90.891 Y114.586 E9.42126
G1 X91.164 Y113.949 E9.44431
G1 X91.509 Y113.348 E9.46736
G1 X91.92 Y112.791 E9.49039
G1 X92.393 Y112.285 E9.51342
G1 X92.921 Y111.837 E9.53645
M204 S5000
M205 X30 Y30
G0 F3600 X92.785 Y112.467
M204 S500
M205 X20 Y20
G1 F1800 X93.308 Y112.05 E9.5587
G1 X93.736 Y111.777 E9.57559
G1 X98.71 Y108.909 E9.76655
G1 X99.308 Y108.61 E9.78879
G1 X99.938 Y108.384 E9.81105
G1 X100.59 Y108.236 E9.83329
G1 X101.063 Y108.178 E9.84914
G1 X107.834 Y107.639 E10.07506
G1 X113.141 Y106.885 E10.25334
G1 X116.468 Y106.258 E10.36594
G1 X117.131 Y106.173 E10.38818
G1 X117.8 Y106.169 E10.41043
G1 X118.465 Y106.244 E10.43269
G1 X119.116 Y106.398 E10.45494
G1 X119.744 Y106.629 E10.47719
G1 X120.309 Y106.914 E10.49824
G1 X125.286 Y109.794 E10.68949
G1 X125.421 Y109.875 E10.69473
G1 X127.757 Y111.316 E10.78602
G1 X134.156 Y114.829 E11.02881
G1 X134.264 Y114.89 E11.03294
G1 X139.275 Y117.787 E11.22545
G1 X139.833 Y118.156 E11.2477
G1 X140.343 Y118.589 E11.26995
G1 X140.798 Y119.079 E11.29219
G1 X141.191 Y119.62 E11.31443
G1 X141.517 Y120.205 E11.33671
G1 X141.771 Y120.824 E11.35896
G1 X141.949 Y121.469 E11.38122
G1 X142.049 Y122.13 E11.40345
G1 X142.072 Y122.64 E11.42043
G1 X142.067 Y128.377 E11.61125
G1 X142.026 Y129.045 E11.63351
G1 X141.907 Y129.703 E11.65575
G1 X141.709 Y130.342 E11.678
G1 X141.437 Y130.953 E11.70024
G1 X141.093 Y131.527 E11.7225
G1 X140.684 Y132.057 E11.74476
G1 X140.215 Y132.533 E11.76699
G1 X139.692 Y132.95 E11.78924
G1 X139.264 Y133.223 E11.80612
G1 X134.288 Y136.092 E11.99716
G1 X133.752 Y136.364 E12.01715
G1 X127.059 Y139.318 E12.26048
G1 X124.755 Y140.478 E12.34628
G1 X118.228 Y144.126 E12.59497
G1 X117.626 Y144.417 E12.61721
G1 X116.993 Y144.634 E12.63947
G1 X116.338 Y144.774 E12.66175
G1 X115.672 Y144.835 E12.68399
G1 X115.003 Y144.816 E12.70625
G1 X114.342 Y144.718 E12.72848
G1 X113.696 Y144.541 E12.75075
G1 X113.077 Y144.289 E12.77298
G1 X112.691 Y144.085 E12.7875
G1 X107.716 Y141.206 E12.97868
G1 X107.158 Y140.837 E13.00093
G1 X106.648 Y140.404 E13.02318
G1 X106.252 Y139.984 E13.04238
G1 X104.1 Y137.449 E13.15298
G1 X100.402 Y133.474 E13.33356
G1 X98.548 Y131.641 E13.42027
G1 X96.607 Y129.831 E13.50854
G1 X92.869 Y126.605 E13.67277
G1 X92.39 Y126.139 E13.69499
G1 X91.969 Y125.618 E13.71727
G1 X91.614 Y125.051 E13.73952
G1 X91.329 Y124.446 E13.76177
G1 X91.118 Y123.811 E13.78402
G1 X90.984 Y123.156 E13.80626
G1 X90.928 Y122.361 E13.83277
G1 X90.933 Y116.623 E14.02361
G1 X90.974 Y115.955 E14.04587
G1 X91.093 Y115.297 E14.06811
G1 X91.291 Y114.658 E14.09036
G1 X91.563 Y114.047 E14.11261
G1 X91.907 Y113.473 E14.13486
G1 X92.316 Y112.943 E14.15713
G1 X92.785 Y112.467 E14.17936
M204 S5000
M205 X30 Y30
G0 F3600 X93.177 Y112.656
M204 S500
M205 X20 Y20
G1 F1800 X93.936 Y112.123 E14.2102
G1 X98.91 Y109.255 E14.40117
G1 X99.487 Y108.968 E14.4226
G1 X100.095 Y108.755 E14.44403
G1 X100.725 Y108.619 E14.46547
G1 X101.094 Y108.576 E14.47782
G1 X107.89 Y108.035 E14.70457
G1 X113.205 Y107.279 E14.88313
G1 X116.542 Y106.651 E14.99607
G1 X117.181 Y106.571 E15.01749
G1 X117.826 Y106.571 E15.03894
G1 X118.466 Y106.651 E15.06039
G1 X119.091 Y106.809 E15.08183
G1 X119.691 Y107.043 E15.10325
G1 X120.108 Y107.26 E15.11889
G1 X125.085 Y110.14 E15.31014
G1 X125.211 Y110.215 E15.31502
G1 X127.563 Y111.666 E15.40694
G1 X133.964 Y115.18 E15.64981
G1 X134.064 Y115.236 E15.65362
G1 X139.075 Y118.133 E15.84613
G1 X139.612 Y118.49 E15.86758
G1 X140.1 Y118.91 E15.88899
G1 X140.533 Y119.388 E15.91045
G1 X140.904 Y119.915 E15.93188
G1 X141.207 Y120.485 E15.95335
G1 X141.436 Y121.087 E15.97477
G1 X141.59 Y121.713 E15.99622
G1 X141.672 Y122.64 E16.02717
G1 X141.667 Y128.377 E16.21798
G1 X141.626 Y129.02 E16.23941
G1 X141.507 Y129.653 E16.26083
G1 X141.309 Y130.267 E16.28229
G1 X141.038 Y130.852 E16.30374
G1 X140.696 Y131.398 E16.32516
G1 X140.289 Y131.898 E16.34661
G1 X139.823 Y132.344 E16.36806
G1 X139.064 Y132.877 E16.39891
G1 X134.088 Y135.746 E16.58995
G1 X133.591 Y135.998 E16.60848
G1 X126.889 Y138.956 E16.85214
G1 X124.568 Y140.125 E16.93857
G1 X118.033 Y143.777 E17.18757
G1 X117.452 Y144.056 E17.209
G1 X116.841 Y144.261 E17.23044
G1 X116.209 Y144.389 E17.25189
G1 X115.566 Y144.438 E17.27333
G1 X114.922 Y144.406 E17.29478
G1 X114.287 Y144.295 E17.31622
G1 X113.67 Y144.107 E17.33767
G1 X112.891 Y143.739 E17.36633
G1 X107.916 Y140.86 E17.55751
G1 X107.38 Y140.503 E17.57893
G1 X106.891 Y140.082 E17.60039
G1 X106.557 Y139.725 E17.61665
G1 X104.394 Y137.177 E17.72781
G1 X100.705 Y133.211 E17.90796
G1 X98.801 Y131.33 E17.99698
G1 X96.899 Y129.556 E18.08349
G1 X93.13 Y126.303 E18.24908
G1 X92.669 Y125.852 E18.27053
G1 X92.268 Y125.348 E18.29195
G1 X91.932 Y124.798 E18.31339
G1 X91.666 Y124.21 E18.33486
G1 X91.475 Y123.594 E18.35631
G1 X91.362 Y122.96 E18.37772
G1 X91.328 Y122.361 E18.39768
G1 X91.333 Y116.623 E18.58853
G1 X91.374 Y115.98 E18.60996
G1 X91.493 Y115.347 E18.63138
G1 X91.691 Y114.733 E18.65284
G1 X91.962 Y114.148 E18.67428
G1 X92.304 Y113.602 E18.69571
G1 X92.711 Y113.102 E18.71715
G1 X93.177 Y112.656 E18.73861
M204 S5000
M205 X30 Y30
G1 F2400 E13.73861
;MESH:Wheel_Lock_Nut.stl(1)(1)(1)
G0 F3600 X96.5 Y115.868
G0 X97.14 Y116.978
G0 X100.66 Y115.805
G0 X101.576 Y115.713
G0 X102.399 Y115.831
G0 X105.796 Y117.023
G0 X105.882 Y116.974
M204 S500
M205 X20 Y20
;TYPE:WALL-INNER
G1 F2400 E18.73861
G1 F1800 X105.877 Y122.032 E18.90683
G1 X101.495 Y124.557 E19.07505
G1 X97.118 Y122.026 E19.24321
G1 X97.123 Y116.968 E19.41144
G1 X101.505 Y114.443 E19.57965
G1 X105.882 Y116.974 E19.74782
M204 S5000
M205 X30 Y30
G0 F3600 X105.796 Y117.023
G0 X105.093 Y120.703
G0 X104.694 Y121.538
G0 X104.096 Y122.26
G0 X103.674 Y122.568
G0 X102.81 Y123.121
G0 X102.777 Y123.027
M204 S500
M205 X20 Y20
G1 F1800 X103.067 Y122.907 E19.75826
G1 X103.331 Y122.772 E19.76812
G1 X103.593 Y122.611 E19.77835
G1 X103.843 Y122.427 E19.78867
G1 X104.069 Y122.231 E19.79862
G1 X104.284 Y122.012 E19.80883
G1 X104.483 Y121.773 E19.81917
G1 X104.661 Y121.517 E19.82954
G1 X104.809 Y121.262 E19.83935
G1 X104.944 Y120.985 E19.8496
G1 X105.056 Y120.691 E19.86006
G1 X105.137 Y120.407 E19.86989
G1 X105.202 Y120.107 E19.8801
G1 X105.239 Y119.796 E19.89051
G1 X105.249 Y119.5 E19.90036
G1 X105.238 Y119.191 E19.91065
G1 X105.199 Y118.882 E19.92101
G1 X105.137 Y118.592 E19.93087
G1 X105.052 Y118.297 E19.94108
G1 X104.944 Y118.015 E19.95112
G1 X104.809 Y117.739 E19.96134
G1 X104.655 Y117.471 E19.97162
G1 X104.475 Y117.217 E19.98198
G1 X104.276 Y116.979 E19.9923
G1 X104.068 Y116.768 E20.00215
G1 X103.835 Y116.564 E20.01245
G1 X103.582 Y116.381 E20.02284
G1 X103.33 Y116.228 E20.03264
G1 X103.055 Y116.087 E20.04292
G1 X102.765 Y115.969 E20.05333
G1 X102.481 Y115.883 E20.0632
G1 X102.183 Y115.812 E20.07339
G1 X101.873 Y115.769 E20.0838
G1 X101.576 Y115.752 E20.0937
G1 X101.269 Y115.756 E20.10391
G1 X100.958 Y115.789 E20.11431
G1 X100.668 Y115.844 E20.12413
G1 X100.368 Y115.924 E20.13445
G1 X100.077 Y116.031 E20.14477
G1 X99.794 Y116.16 E20.15511
G1 X99.535 Y116.308 E20.16503
G1 X99.28 Y116.478 E20.17522
G1 X99.038 Y116.672 E20.18554
G1 X98.822 Y116.876 E20.19542
G1 X98.614 Y117.105 E20.20571
G1 X98.426 Y117.353 E20.21606
G1 X98.266 Y117.604 E20.22596
G1 X98.12 Y117.875 E20.2362
G1 X97.997 Y118.161 E20.24656
G1 X97.903 Y118.442 E20.25641
G1 X97.826 Y118.742 E20.26671
G1 X97.776 Y119.051 E20.27712
G1 X97.754 Y119.346 E20.28696
G1 X97.753 Y119.654 E20.29721
G1 X97.778 Y119.964 E20.30755
G1 X97.829 Y120.27 E20.31787
G1 X97.903 Y120.558 E20.32776
G1 X98.002 Y120.851 E20.33805
G1 X98.126 Y121.135 E20.34835
G1 X98.265 Y121.396 E20.35819
G1 X98.432 Y121.658 E20.36852
G1 X98.623 Y121.905 E20.37891
G1 X98.822 Y122.125 E20.38877
G1 X99.047 Y122.335 E20.39901
G1 X99.289 Y122.53 E20.40935
G1 X99.536 Y122.693 E20.41919
G1 X99.804 Y122.846 E20.42945
G1 X100.09 Y122.975 E20.43989
G1 X100.381 Y123.079 E20.45017
G1 X100.668 Y123.156 E20.46005
G1 X100.971 Y123.213 E20.4703
G1 X101.281 Y123.244 E20.48067
G1 X101.577 Y123.248 E20.49051
G1 X101.885 Y123.23 E20.50077
G1 X102.195 Y123.185 E20.51119
G1 X102.482 Y123.117 E20.521
G1 X102.777 Y123.027 E20.53126
M204 S5000
M205 X30 Y30
G0 F3600 X102.642 Y122.65
M204 S500
M205 X20 Y20
;TYPE:WALL-OUTER
G1 F1800 X102.899 Y122.544 E20.54051
G1 X103.135 Y122.423 E20.54933
G1 X103.37 Y122.279 E20.5585
G1 X103.593 Y122.115 E20.5677
G1 X103.794 Y121.94 E20.57657
G1 X103.987 Y121.743 E20.58574
G1 X104.165 Y121.53 E20.59497
G1 X104.323 Y121.302 E20.6042
G1 X104.456 Y121.073 E20.61301
G1 X104.577 Y120.826 E20.62215
G1 X104.676 Y120.565 E20.63144
G1 X104.749 Y120.31 E20.64026
G1 X104.807 Y120.041 E20.64941
G1 X104.84 Y119.765 E20.65866
G1 X104.849 Y119.5 E20.66748
G1 X104.839 Y119.224 E20.67666
G1 X104.804 Y118.949 E20.68588
G1 X104.749 Y118.689 E20.69472
G1 X104.672 Y118.424 E20.7039
G1 X104.577 Y118.174 E20.7128
G1 X104.456 Y117.927 E20.72194
G1 X104.318 Y117.687 E20.73115
G1 X104.158 Y117.461 E20.74036
G1 X103.98 Y117.248 E20.74959
G1 X103.794 Y117.06 E20.75839
G1 X103.585 Y116.877 E20.76763
G1 X103.36 Y116.714 E20.77687
G1 X103.135 Y116.577 E20.78563
G1 X102.888 Y116.451 E20.79485
G1 X102.631 Y116.346 E20.80409
G1 X102.377 Y116.269 E20.81292
G1 X102.109 Y116.206 E20.82207
G1 X101.834 Y116.167 E20.83131
G1 X101.568 Y116.152 E20.84017
G1 X101.293 Y116.156 E20.84932
G1 X101.016 Y116.185 E20.85858
G1 X100.757 Y116.234 E20.86735
G1 X100.489 Y116.306 E20.87658
G1 X100.229 Y116.401 E20.88579
G1 X99.977 Y116.516 E20.895
G1 X99.746 Y116.648 E20.90385
G1 X99.517 Y116.801 E20.91301
G1 X99.301 Y116.974 E20.92221
G1 X99.108 Y117.156 E20.93104
G1 X98.922 Y117.361 E20.94024
G1 X98.754 Y117.582 E20.94948
G1 X98.611 Y117.806 E20.95832
G1 X98.481 Y118.049 E20.96748
G1 X98.371 Y118.304 E20.97672
G1 X98.287 Y118.555 E20.98552
G1 X98.218 Y118.824 E20.99476
G1 X98.174 Y119.098 E21.00399
G1 X98.154 Y119.362 E21.01279
G1 X98.153 Y119.639 E21.02201
G1 X98.175 Y119.915 E21.03122
G1 X98.221 Y120.187 E21.04039
G1 X98.287 Y120.445 E21.04925
G1 X98.375 Y120.707 E21.05844
G1 X98.486 Y120.96 E21.06763
G1 X98.611 Y121.194 E21.07645
G1 X98.76 Y121.428 E21.08568
G1 X98.93 Y121.648 E21.09493
G1 X99.108 Y121.844 E21.10373
