;FLAVOR:Marlin
;TIME:8493
;Filament used: 8.93432m
;Layer height: 0.3
;Generated with Cura_SteamEngine 3.6.0
M140 S50
M105
M190 S50
M104 S215
M105
M109 S215
M82 ;absolute extrusion mode
; Ender 3 Custom Start G-code
G28 ; Home all axes
G92 E0 ; Reset Extruder
G1 Z2.0 F3000 ; Move Z Axis up little to prevent scratching of Heat Bed
G1 X0.1 Y20 Z0.3 F5000.0 ; Move to start position
G1 X0.1 Y200.0 Z0.3 F1500.0 E15 ; Draw the first line
G1 X0.4 Y200.0 Z0.3 F5000.0 ; Move to side a little
G1 X0.4 Y20 Z0.3 F1500.0 E30 ; Draw the second line
G92 E0 ; Reset Extruder
G1 Z2.0 F3000 ; Move Z Axis up little to prevent scratching of Heat Bed
; End of custom start GCode
G92 E0
;LAYER_COUNT:118
;LAYER:0
M107
M204 S5000
M205 X30 Y30
G0 F3600 X95.958 Y94.548 Z0.2
M204 S500
M205 X20 Y20
;TYPE:SKIRT
G1 F750 X96.432 Y94.117 E0.0245
G1 X98.643 Y92.299 E0.13399
G1 X99.157 Y91.917 E0.15849
G1 X100.934 Y90.732 E0.24018
G1 X101.481 Y90.406 E0.26454
G1 X104.019 Y89.057 E0.37447
G1 X104.541 Y88.809 E0.39658
G1 X106.091 Y88.157 E0.4609
G1 X106.554 Y87.983 E0.47982
G1 X108.569 Y87.313 E0.56104
G1 X109.175 Y87.144 E0.5851
G1 X111.94 Y86.518 E0.69354
G1 X112.571 Y86.408 E0.71804
G1 X114.749 Y86.14 E0.80197
G1 X115.388 Y86.094 E0.82647
G1 X118.213 Y86.031 E0.93456
G1 X118.852 Y86.048 E0.95901
G1 X121.05 Y86.219 E1.04333
G1 X121.691 Y86.302 E1.06805
G1 X124.499 Y86.809 E1.17719
G1 X125.065 Y86.938 E1.1994
G1 X126.702 Y87.39 E1.26435
G1 X127.167 Y87.537 E1.28301
G1 X129.139 Y88.247 E1.36318
G1 X129.743 Y88.5 E1.38822
G1 X132.509 Y89.829 E1.5056
G1 X133.085 Y90.144 E1.53071
G1 X134.88 Y91.246 E1.61127
G1 X135.406 Y91.605 E1.63563
G1 X137.672 Y93.328 E1.74451
G1 X138.115 Y93.698 E1.76659
G1 X139.365 Y94.84 E1.83135
G1 X139.676 Y95.145 E1.84801
G1 X140.843 Y96.367 E1.91264
G1 X141.162 Y96.726 E1.93101
G1 X142.492 Y98.346 E2.01118
G1 X142.785 Y98.732 E2.02972
G1 X143.762 Y100.125 E2.0948
G1 X144.075 Y100.617 E2.1171
G1 X145.512 Y103.124 E2.22763
G1 X145.802 Y103.696 E2.25216
G1 X146.678 Y105.656 E2.33427
G1 X146.862 Y106.113 E2.35312
G1 X147.42 Y107.674 E2.41652
G1 X147.59 Y108.227 E2.43865
G1 X148.315 Y111.033 E2.5495
G1 X148.443 Y111.656 E2.57383
G1 X148.764 Y113.732 E2.65418
G1 X148.83 Y114.371 E2.67875
G1 X148.985 Y117.292 E2.79063
G1 X148.987 Y117.929 E2.815
G1 X148.89 Y120.007 E2.89457
G1 X148.829 Y120.64 E2.91889
G1 X148.409 Y123.496 E3.02931
G1 X148.298 Y124.069 E3.05163
G1 X147.904 Y125.699 E3.11577
G1 X147.79 Y126.11 E3.13209
G1 X147.289 Y127.708 E3.19614
G1 X147.126 Y128.165 E3.2147
G1 X146.334 Y130.15 E3.29644
G1 X146.067 Y130.733 E3.32097
G1 X144.72 Y133.321 E3.43257
G1 X144.427 Y133.826 E3.4549
G1 X143.537 Y135.211 E3.51787
G1 X143.299 Y135.557 E3.53393
G1 X142.319 Y136.882 E3.59697
G1 X142.051 Y137.219 E3.61343
G1 X140.958 Y138.506 E3.67802
G1 X140.669 Y138.824 E3.69445
G1 X139.487 Y140.04 E3.75932
G1 X139.179 Y140.337 E3.77568
G1 X137.952 Y141.441 E3.83882
G1 X137.588 Y141.744 E3.85693
G1 X135.903 Y143.048 E3.93843
G1 X135.369 Y143.42 E3.96332
G1 X132.91 Y144.951 E4.07411
G1 X132.405 Y145.235 E4.09627
G1 X130.925 Y145.98 E4.15965
G1 X130.521 Y146.166 E4.17666
G1 X128.827 Y146.876 E4.24692
G1 X128.412 Y147.033 E4.26389
G1 X126.814 Y147.576 E4.32844
G1 X126.351 Y147.714 E4.34692
G1 X124.335 Y148.233 E4.42655
G1 X123.866 Y148.335 E4.44491
G1 X122.222 Y148.629 E4.50878
G1 X121.642 Y148.706 E4.53116
G1 X118.75 Y148.954 E4.64219
G1 X118.114 Y148.976 E4.66653
G1 X116.023 Y148.947 E4.74651
G1 X115.383 Y148.906 E4.77104
G1 X112.453 Y148.57 E4.88385
G1 X111.877 Y148.478 E4.90616
G1 X110.273 Y148.144 E4.96883
G1 X109.853 Y148.041 E4.98537
G1 X108.242 Y147.59 E5.04936
G1 X107.839 Y147.463 E5.06552
G1 X106.239 Y146.899 E5.13041
G1 X105.84 Y146.743 E5.14679
G1 X104.339 Y146.098 E5.20928
G1 X103.96 Y145.92 E5.2253
G1 X102.453 Y145.152 E5.28999
G1 X102.028 Y144.915 E5.3086
G1 X100.233 Y143.821 E5.38901
G1 X99.707 Y143.463 E5.41335
G1 X97.407 Y141.726 E5.52359
G1 X96.955 Y141.351 E5.54605
G1 X95.692 Y140.201 E5.61139
G1 X95.386 Y139.903 E5.62772
G1 X94.231 Y138.701 E5.69148
G1 X93.945 Y138.383 E5.70784
G1 X92.865 Y137.097 E5.77208
G1 X92.569 Y136.715 E5.79056
G1 X91.331 Y134.992 E5.87171
G1 X91.059 Y134.582 E5.89053
G1 X90.19 Y133.152 E5.95453
G1 X89.984 Y132.787 E5.97057
G1 X89.208 Y131.299 E6.03475
G1 X88.961 Y130.767 E6.05719
G1 X87.863 Y128.088 E6.16793
G1 X87.611 Y127.345 E6.19794
G1 X86.75 Y124.189 E6.32307
G1 X86.612 Y123.561 E6.34766
G1 X86.324 Y121.84 E6.4144
G1 X86.265 Y121.393 E6.43165
G1 X86.1 Y119.668 E6.49793
G1 X86.074 Y119.239 E6.51437
G1 X86.024 Y117.466 E6.58221
G1 X86.029 Y116.969 E6.60122
G1 X86.131 Y114.912 E6.68
G1 X86.193 Y114.285 E6.7041
G1 X86.617 Y111.443 E6.814
G1 X86.729 Y110.872 E6.83626
G1 X87.131 Y109.222 E6.90122
G1 X87.248 Y108.802 E6.91789
G1 X87.763 Y107.178 E6.98306
G1 X87.929 Y106.718 E7.00176
G1 X88.723 Y104.75 E7.08293
G1 X88.986 Y104.18 E7.10694
G1 X90.304 Y101.659 E7.21575
G1 X90.628 Y101.108 E7.2402
G1 X91.808 Y99.313 E7.32237
G1 X92.188 Y98.794 E7.34697
G1 X93.999 Y96.564 E7.45685
G1 X94.428 Y96.087 E7.48139
G1 X95.958 Y94.548 E7.56439
M204 S5000
M205 X30 Y30
G0 F3600 X96.242 Y94.83
M204 S500
M205 X20 Y20
G1 F750 X96.686 Y94.426 E7.58735
G1 X98.897 Y92.608 E7.69684
G1 X99.379 Y92.25 E7.7198
G1 X101.156 Y91.065 E7.8015
G1 X101.669 Y90.759 E7.82435
G1 X104.207 Y89.41 E7.93428
G1 X104.697 Y89.177 E7.95504
G1 X106.247 Y88.525 E8.01936
G1 X106.68 Y88.362 E8.03705
G1 X108.695 Y87.692 E8.11827
G1 X109.263 Y87.534 E8.14082
G1 X112.028 Y86.908 E8.24926
G1 X112.62 Y86.805 E8.27224
G1 X114.798 Y86.537 E8.35618
G1 X115.397 Y86.493 E8.37915
G1 X118.222 Y86.43 E8.48723
G1 X118.821 Y86.447 E8.51015
G1 X121.019 Y86.618 E8.59448
G1 X121.62 Y86.695 E8.61765
G1 X124.428 Y87.202 E8.72679
G1 X124.959 Y87.323 E8.74762
G1 X126.596 Y87.775 E8.81258
G1 X127.032 Y87.914 E8.83008
G1 X129.004 Y88.624 E8.91025
G1 X129.569 Y88.861 E8.93369
G1 X132.335 Y90.19 E9.05106
G1 X132.876 Y90.485 E9.07463
G1 X134.671 Y91.587 E9.1552
G1 X135.164 Y91.924 E9.17804
G1 X137.43 Y93.647 E9.28692
G1 X137.845 Y93.993 E9.30759
G1 X139.095 Y95.135 E9.37235
G1 X139.387 Y95.421 E9.38798
G1 X140.554 Y96.643 E9.45261
G1 X140.852 Y96.98 E9.46982
G1 X142.182 Y98.6 E9.54999
G1 X142.457 Y98.962 E9.56738
G1 X143.434 Y100.355 E9.63246
G1 X143.727 Y100.816 E9.65335
G1 X145.164 Y103.323 E9.76388
G1 X145.437 Y103.859 E9.78688
G1 X146.313 Y105.819 E9.869
G1 X146.485 Y106.247 E9.88664
G1 X147.043 Y107.808 E9.95005
G1 X147.202 Y108.327 E9.97081
G1 X147.927 Y111.133 E10.08166
G1 X148.048 Y111.717 E10.10447
G1 X148.369 Y113.793 E10.18482
G1 X148.431 Y114.392 E10.20786
G1 X148.586 Y117.313 E10.31974
G1 X148.587 Y117.911 E10.34261
G1 X148.49 Y119.989 E10.42218
G1 X148.433 Y120.582 E10.44497
G1 X148.013 Y123.438 E10.55538
G1 X147.909 Y123.975 E10.5763
G1 X147.515 Y125.605 E10.64044
G1 X147.408 Y125.99 E10.65573
G1 X146.907 Y127.588 E10.71978
G1 X146.755 Y128.017 E10.73719
G1 X145.963 Y130.002 E10.81894
G1 X145.712 Y130.548 E10.84192
G1 X144.365 Y133.136 E10.95352
G1 X144.091 Y133.61 E10.97446
G1 X143.201 Y134.995 E11.03743
G1 X142.977 Y135.319 E11.05249
G1 X141.997 Y136.644 E11.11553
G1 X141.746 Y136.96 E11.13097
G1 X140.653 Y138.247 E11.19555
G1 X140.382 Y138.545 E11.21096
G1 X139.2 Y139.761 E11.27582
G1 X138.911 Y140.039 E11.29116
G1 X137.684 Y141.143 E11.35429
G1 X137.343 Y141.428 E11.37129
G1 X135.658 Y142.732 E11.45278
G1 X135.157 Y143.08 E11.47612
G1 X132.698 Y144.611 E11.58691
G1 X132.225 Y144.877 E11.60767
G1 X130.745 Y145.622 E11.67104
G1 X130.366 Y145.797 E11.68701
G1 X128.672 Y146.507 E11.75727
G1 X128.283 Y146.654 E11.77317
G1 X126.685 Y147.197 E11.83773
G1 X126.251 Y147.327 E11.85506
G1 X124.235 Y147.846 E11.93468
G1 X123.795 Y147.941 E11.9519
G1 X122.151 Y148.235 E12.01578
G1 X121.608 Y148.307 E12.03673
G1 X118.716 Y148.555 E12.14775
G1 X118.12 Y148.576 E12.17056
G1 X116.029 Y148.547 E12.25055
G1 X115.428 Y148.509 E12.27358
G1 X112.498 Y148.173 E12.38639
G1 X111.959 Y148.086 E12.40727
G1 X110.355 Y147.752 E12.46994
G1 X109.96 Y147.656 E12.48548
G1 X108.349 Y147.205 E12.54947
G1 X107.972 Y147.086 E12.56459
G1 X106.372 Y146.522 E12.62948
G1 X105.998 Y146.376 E12.64484
G1 X104.497 Y145.731 E12.70733
G1 X104.142 Y145.564 E12.72233
G1 X102.635 Y144.796 E12.78703
G1 X102.236 Y144.573 E12.80451
G1 X100.441 Y143.479 E12.88492
G1 X99.948 Y143.144 E12.90771
G1 X97.648 Y141.407 E13.01796
G1 X97.224 Y141.055 E13.03904
G1 X95.961 Y139.905 E13.10437
G1 X95.675 Y139.626 E13.11965
G1 X94.52 Y138.424 E13.18341
G1 X94.251 Y138.126 E13.19877
G1 X93.171 Y136.84 E13.263
G1 X92.893 Y136.482 E13.28034
G1 X91.655 Y134.759 E13.36149
G1 X91.401 Y134.374 E13.37913
G1 X90.532 Y132.944 E13.44313
G1 X90.339 Y132.602 E13.45816
G1 X89.563 Y131.114 E13.52234
G1 X89.331 Y130.615 E13.54339
G1 X88.233 Y127.936 E13.65413
G1 X87.997 Y127.24 E13.68224
G1 X87.136 Y124.084 E13.80737
G1 X87.006 Y123.495 E13.83044
G1 X86.718 Y121.774 E13.89718
G1 X86.663 Y121.355 E13.91335
G1 X86.498 Y119.63 E13.97963
G1 X86.473 Y119.228 E13.99503
G1 X86.423 Y117.455 E14.06288
G1 X86.428 Y116.989 E14.0807
G1 X86.53 Y114.932 E14.15948
G1 X86.589 Y114.344 E14.18208
G1 X87.013 Y111.502 E14.29199
G1 X87.118 Y110.967 E14.31284
G1 X87.52 Y109.317 E14.3778
G1 X87.63 Y108.923 E14.39345
G1 X88.145 Y107.299 E14.45861
G1 X88.3 Y106.868 E14.47613
G1 X89.094 Y104.9 E14.5573
G1 X89.341 Y104.365 E14.57984
G1 X90.659 Y101.844 E14.68865
G1 X90.962 Y101.328 E14.71154
G1 X92.142 Y99.533 E14.7937
G1 X92.498 Y99.047 E14.81674
G1 X94.309 Y96.817 E14.92662
G1 X94.712 Y96.369 E14.94967
G1 X96.242 Y94.83 E15.03268
M204 S5000
M205 X30 Y30
G0 F3600 X96.526 Y95.112
M204 S500
M205 X20 Y20
G1 F750 X96.94 Y94.734 E15.05412
G1 X99.151 Y92.916 E15.1636
G1 X99.601 Y92.583 E15.18502
G1 X101.378 Y91.398 E15.26671
G1 X101.857 Y91.112 E15.28805
G1 X104.395 Y89.763 E15.39799
G1 X104.852 Y89.546 E15.41734
G1 X106.402 Y88.894 E15.48166
G1 X106.806 Y88.742 E15.49817
G1 X108.821 Y88.072 E15.57939
G1 X109.351 Y87.924 E15.60044
G1 X112.116 Y87.298 E15.70887
G1 X112.669 Y87.202 E15.73034
G1 X114.847 Y86.934 E15.81427
G1 X115.406 Y86.893 E15.83571
G1 X118.231 Y86.83 E15.94379
G1 X118.79 Y86.846 E15.96518
G1 X120.988 Y87.017 E16.04951
G1 X121.549 Y87.089 E16.07114
G1 X124.357 Y87.596 E16.18028
G1 X124.852 Y87.709 E16.1997
G1 X126.489 Y88.161 E16.26466
G1 X126.896 Y88.29 E16.28099
G1 X128.868 Y89 E16.36116
G1 X129.396 Y89.221 E16.38305
G1 X132.162 Y90.55 E16.50043
G1 X132.667 Y90.826 E16.52244
G1 X134.462 Y91.928 E16.603
G1 X134.922 Y92.242 E16.62431
G1 X137.188 Y93.965 E16.73319
G1 X137.575 Y94.289 E16.75249
G1 X138.825 Y95.431 E16.81725
G1 X139.098 Y95.697 E16.83183
G1 X140.265 Y96.919 E16.89646
G1 X140.543 Y97.234 E16.91253
G1 X141.873 Y98.854 E16.9927
G1 X142.13 Y99.191 E17.00892
G1 X143.107 Y100.584 E17.07399
G1 X143.38 Y101.015 E17.09351
G1 X144.817 Y103.522 E17.20404
G1 X145.072 Y104.022 E17.2255
G1 X145.948 Y105.982 E17.30762
G1 X146.108 Y106.382 E17.3241
G1 X146.666 Y107.943 E17.3875
G1 X146.815 Y108.427 E17.40687
G1 X147.54 Y111.233 E17.51773
G1 X147.652 Y111.778 E17.53901
G1 X147.973 Y113.854 E17.61936
G1 X148.031 Y114.413 E17.64085
G1 X148.186 Y117.334 E17.75273
G1 X148.188 Y117.892 E17.77408
G1 X148.091 Y119.97 E17.85365
G1 X148.037 Y120.524 E17.87494
G1 X147.617 Y123.38 E17.98535
G1 X147.52 Y123.881 E18.00487
G1 X147.126 Y125.511 E18.06901
G1 X147.027 Y125.87 E18.08326
G1 X146.526 Y127.468 E18.14731
G1 X146.383 Y127.868 E18.16356
G1 X145.591 Y129.853 E18.2453
G1 X145.357 Y130.363 E18.26677
G1 X144.01 Y132.951 E18.37836
G1 X143.754 Y133.393 E18.3979
G1 X142.864 Y134.778 E18.46087
G1 X142.655 Y135.081 E18.47495
G1 X141.675 Y136.406 E18.53798
G1 X141.441 Y136.701 E18.55238
G1 X140.348 Y137.988 E18.61697
G1 X140.096 Y138.266 E18.63132
G1 X138.914 Y139.482 E18.69618
G1 X138.644 Y139.742 E18.71052
G1 X137.417 Y140.846 E18.77365
G1 X137.098 Y141.112 E18.78954
G1 X135.413 Y142.416 E18.87104
G1 X134.946 Y142.741 E18.8928
G1 X132.487 Y144.272 E19.00359
G1 X132.045 Y144.52 E19.02298
G1 X130.565 Y145.265 E19.08635
G1 X130.212 Y145.428 E19.10123
G1 X128.518 Y146.138 E19.17148
G1 X128.155 Y146.275 E19.18632
G1 X126.557 Y146.818 E19.25088
G1 X126.151 Y146.939 E19.26708
G1 X124.135 Y147.458 E19.3467
G1 X123.725 Y147.548 E19.36276
G1 X122.081 Y147.842 E19.42664
G1 X121.573 Y147.909 E19.44624
G1 X118.681 Y148.157 E19.55726
G1 X118.125 Y148.176 E19.57854
G1 X116.034 Y148.147 E19.65853
G1 X115.474 Y148.112 E19.67999
G1 X112.544 Y147.776 E19.79279
G1 X112.04 Y147.694 E19.81232
G1 X110.436 Y147.36 E19.87499
G1 X110.068 Y147.271 E19.88947
G1 X108.457 Y146.82 E19.95346
G1 X108.105 Y146.708 E19.96759
G1 X106.505 Y146.144 E20.03248
G1 X106.156 Y146.008 E20.04681
G1 X104.655 Y145.363 E20.10929
G1 X104.323 Y145.207 E20.12332
G1 X102.816 Y144.439 E20.18802
G1 X102.445 Y144.232 E20.20427
G1 X100.65 Y143.138 E20.28467
G1 X100.189 Y142.825 E20.30599
G1 X97.889 Y141.088 E20.41623
G1 X97.494 Y140.76 E20.43587
G1 X96.231 Y139.61 E20.5012
G1 X95.963 Y139.349 E20.51551
G1 X94.808 Y138.147 E20.57927
G1 X94.558 Y137.868 E20.5936
G1 X93.478 Y136.582 E20.65783
G1 X93.218 Y136.249 E20.67399
G1 X91.98 Y134.526 E20.75514
G1 X91.742 Y134.166 E20.77165
G1 X90.873 Y132.736 E20.83565
G1 X90.694 Y132.417 E20.84965
G1 X89.918 Y130.929 E20.91383
G1 X89.701 Y130.464 E20.93346
G1 X88.603 Y127.785 E21.0442
G1 X88.382 Y127.135 E21.07046
G1 X87.521 Y123.979 E21.19559
G1 X87.401 Y123.429 E21.21712
G1 X87.113 Y121.708 E21.28386
G1 X87.061 Y121.317 E21.29895
G1 X86.896 Y119.592 E21.36523
G1 X86.873 Y119.217 E21.3796
G1 X86.823 Y117.444 E21.44744
G1 X86.828 Y117.009 E21.46408
G1 X86.93 Y114.952 E21.54286
G1 X86.984 Y114.403 E21.56396
G1 X87.408 Y111.561 E21.67387
G1 X87.506 Y111.061 E21.69335
G1 X87.908 Y109.411 E21.75831
G1 X88.011 Y109.044 E21.77289
G1 X88.526 Y107.42 E21.83806
G1 X88.671 Y107.018 E21.8544
G1 X89.465 Y105.05 E21.93557
G1 X89.695 Y104.55 E21.95662
G1 X91.013 Y102.029 E22.06543
G1 X91.297 Y101.548 E22.0868
G1 X92.477 Y99.753 E22.16896
G1 X92.809 Y99.299 E22.19047
G1 X94.62 Y97.069 E22.30035
G1 X94.996 Y96.651 E22.32186
G1 X96.526 Y95.112 E22.40486
M204 S5000
M205 X30 Y30
G0 F3600 X96.809 Y95.394
M204 S500
M205 X20 Y20
G1 F750 X97.194 Y95.043 E22.42479
G1 X99.405 Y93.225 E22.53428
G1 X99.823 Y92.916 E22.55416
G1 X101.6 Y91.731 E22.63586
G1 X102.044 Y91.465 E22.65565
G1 X104.582 Y90.116 E22.76559
G1 X105.007 Y89.915 E22.78357
G1 X106.557 Y89.263 E22.84789
G1 X106.932 Y89.122 E22.86321
G1 X108.947 Y88.452 E22.94444
G1 X109.44 Y88.314 E22.96402
G1 X112.205 Y87.688 E23.07245
G1 X112.718 Y87.599 E23.09237
G1 X114.896 Y87.331 E23.1763
G1 X115.415 Y87.293 E23.19621
G1 X118.24 Y87.23 E23.30429
G1 X118.759 Y87.245 E23.32415
G1 X120.957 Y87.416 E23.40847
G1 X121.478 Y87.483 E23.42856
G1 X124.286 Y87.99 E23.5377
G1 X124.746 Y88.095 E23.55575
G1 X126.383 Y88.547 E23.62071
G1 X126.761 Y88.666 E23.63587
G1 X128.733 Y89.376 E23.71603
G1 X129.223 Y89.582 E23.73636
G1 X131.989 Y90.911 E23.85374
G1 X132.458 Y91.166 E23.87416
G1 X134.253 Y92.268 E23.95472
G1 X134.679 Y92.561 E23.9745
G1 X136.945 Y94.284 E24.08338
G1 X137.305 Y94.584 E24.10131
G1 X138.555 Y95.726 E24.16607
G1 X138.809 Y95.974 E24.17964
G1 X139.976 Y97.196 E24.24428
G1 X140.234 Y97.487 E24.25915
G1 X141.564 Y99.107 E24.33932
G1 X141.802 Y99.421 E24.35439
G1 X142.779 Y100.814 E24.41947
G1 X143.033 Y101.214 E24.43759
G1 X144.47 Y103.721 E24.54812
G1 X144.706 Y104.185 E24.56803
G1 X145.582 Y106.145 E24.65015
G1 X145.732 Y106.517 E24.66549
G1 X146.29 Y108.078 E24.7289
G1 X146.428 Y108.527 E24.74686
G1 X147.153 Y111.333 E24.85771
G1 X147.257 Y111.839 E24.87747
G1 X147.578 Y113.915 E24.95782
G1 X147.632 Y114.434 E24.97778
G1 X147.787 Y117.355 E25.08966
G1 X147.788 Y117.873 E25.10948
G1 X147.691 Y119.951 E25.18905
G1 X147.642 Y120.466 E25.20883
G1 X147.222 Y123.322 E25.31925
G1 X147.131 Y123.787 E25.33737
G1 X146.737 Y125.417 E25.40151
G1 X146.645 Y125.751 E25.41476
G1 X146.144 Y127.349 E25.47882
G1 X146.012 Y127.72 E25.49388
G1 X145.22 Y129.705 E25.57563
G1 X145.003 Y130.179 E25.59557
G1 X143.656 Y132.767 E25.70716
G1 X143.418 Y133.177 E25.72529
G1 X142.528 Y134.562 E25.78826
G1 X142.334 Y134.843 E25.80132
G1 X141.354 Y136.168 E25.86436
