;FLAVOR:Marlin
;TIME:6166
;Filament used: 4.10645m
;Layer height: 0.3
;Generated with Cura_SteamEngine 3.6.0
M140 S50
M105
M190 S50
M104 S215
M105
M109 S215
M82 ;absolute extrusion mode
; Ender 3 Custom Start G-code
G28 ; Home all axes
G92 E0 ; Reset Extruder
G1 Z2.0 F3000 ; Move Z Axis up little to prevent scratching of Heat Bed
G1 X0.1 Y20 Z0.3 F5000.0 ; Move to start position
G1 X0.1 Y200.0 Z0.3 F1500.0 E15 ; Draw the first line
G1 X0.4 Y200.0 Z0.3 F5000.0 ; Move to side a little
G1 X0.4 Y20 Z0.3 F1500.0 E30 ; Draw the second line
G92 E0 ; Reset Extruder
G1 Z2.0 F3000 ; Move Z Axis up little to prevent scratching of Heat Bed
; End of custom start GCode
G92 E0
;LAYER_COUNT:118
;LAYER:0
M107
M204 S5000
M205 X30 Y30
G0 F3600 X98.085 Y97.082 Z0.2
M204 S500
M205 X20 Y20
;TYPE:SKIRT
G1 F750 X98.801 Y96.423 E0.03237
G1 X101.182 Y94.545 E0.13323
G1 X101.91 Y94.048 E0.16254
G1 X104.517 Y92.521 E0.26303
G1 X105.283 Y92.139 E0.2915
G1 X106.916 Y91.456 E0.35038
G1 X107.653 Y91.199 E0.37634
G1 X111.375 Y90.153 E0.50493
G1 X111.704 Y90.07 E0.51621
G1 X113.391 Y89.691 E0.57372
G1 X114.097 Y89.573 E0.59753
G1 X114.811 Y89.535 E0.62131
G1 X115.615 Y89.588 E0.64811
G1 X115.986 Y89.636 E0.66055
G1 X116.689 Y89.767 E0.68433
G1 X117.059 Y89.87 E0.69711
G1 X123.799 Y91.959 E0.9318
G1 X129.037 Y93.224 E1.11103
G1 X131.863 Y93.832 E1.20717
G1 X132.552 Y94.022 E1.23094
G1 X133.217 Y94.287 E1.25475
G1 X133.847 Y94.624 E1.27852
G1 X134.436 Y95.03 E1.30231
G1 X134.795 Y95.33 E1.31787
G1 X137.996 Y98.208 E1.46104
G1 X138.5 Y98.715 E1.48482
G1 X138.766 Y99.034 E1.49863
G1 X139.626 Y100.138 E1.54518
G1 X139.919 Y100.546 E1.56188
G1 X142.192 Y103.99 E1.69913
G1 X142.552 Y104.608 E1.72292
G1 X142.726 Y104.979 E1.73655
G1 X143.774 Y107.407 E1.82451
G1 X144.009 Y108.04 E1.84696
G1 X144.804 Y110.593 E1.9359
G1 X145.016 Y111.505 E1.96704
G1 X145.529 Y114.779 E2.07726
G1 X145.604 Y115.601 E2.10472
G1 X145.671 Y118.135 E2.18903
G1 X145.626 Y119.081 E2.22053
G1 X145.352 Y121.322 E2.29562
G1 X145.197 Y122.141 E2.32334
G1 X143.901 Y127.175 E2.49623
G1 X143.684 Y127.856 E2.52
G1 X143.347 Y128.597 E2.54708
G1 X143.078 Y129.1 E2.56605
G1 X142.706 Y129.711 E2.58984
G1 X142.268 Y130.277 E2.61365
G1 X141.771 Y130.788 E2.63736
G1 X137.264 Y134.942 E2.84122
G1 X133.516 Y138.792 E3.01993
G1 X130.835 Y141.758 E3.15291
G1 X130.326 Y142.261 E3.17671
G1 X129.765 Y142.705 E3.2005
G1 X129.158 Y143.082 E3.22427
G1 X128.837 Y143.246 E3.23626
G1 X128.465 Y143.423 E3.24996
G1 X127.624 Y143.753 E3.28001
G1 X123.874 Y144.925 E3.41068
G1 X123.181 Y145.099 E3.43445
G1 X122.788 Y145.163 E3.44769
G1 X120.729 Y145.43 E3.51675
G1 X120.186 Y145.477 E3.53487
G1 X116.644 Y145.632 E3.65279
G1 X115.603 Y145.593 E3.68744
G1 X113.006 Y145.282 E3.77444
G1 X112.343 Y145.167 E3.79682
G1 X109.56 Y144.532 E3.89176
G1 X108.621 Y144.24 E3.92447
G1 X105.792 Y143.116 E4.02571
G1 X105.102 Y142.793 E4.05105
G1 X102.854 Y141.573 E4.13612
G1 X102.052 Y141.057 E4.16784
G1 X100.255 Y139.701 E4.24272
G1 X99.648 Y139.18 E4.26932
G1 X96.036 Y135.667 E4.43691
G1 X95.552 Y135.14 E4.46071
G1 X95.285 Y134.792 E4.4753
G1 X94.963 Y134.34 E4.49375
G1 X94.582 Y133.736 E4.51751
G1 X94.206 Y132.933 E4.547
G1 X94.048 Y132.524 E4.56158
G1 X93.766 Y131.588 E4.59409
G1 X92.564 Y126.103 E4.78085
G1 X91.122 Y120.95 E4.95883
G1 X89.862 Y117.134 E5.09249
G1 X89.676 Y116.444 E5.11626
G1 X89.56 Y115.649 E5.14298
G1 X89.535 Y115.343 E5.15319
G1 X89.517 Y114.628 E5.17698
G1 X89.579 Y113.916 E5.20075
G1 X89.66 Y113.465 E5.21599
G1 X90.459 Y109.783 E5.3413
G1 X90.586 Y109.289 E5.35827
G1 X90.837 Y108.458 E5.38714
G1 X91.174 Y107.582 E5.41836
G1 X93.192 Y103.297 E5.57589
G1 X93.532 Y102.668 E5.59967
G1 X93.901 Y102.133 E5.62129
G1 X96.135 Y99.216 E5.74349
G1 X96.537 Y98.741 E5.76419
G1 X98.085 Y97.082 E5.83966
M204 S5000
M205 X30 Y30
G0 F3600 X98.377 Y97.355
M204 S500
M205 X20 Y20
G1 F750 X99.048 Y96.737 E5.87
G1 X101.429 Y94.859 E5.97086
G1 X102.113 Y94.393 E5.99839
G1 X104.72 Y92.866 E6.09888
G1 X105.437 Y92.508 E6.12553
G1 X107.07 Y91.825 E6.18441
G1 X107.762 Y91.584 E6.20878
G1 X111.484 Y90.538 E6.33737
G1 X111.792 Y90.46 E6.34794
G1 X113.479 Y90.081 E6.40544
G1 X114.162 Y89.968 E6.42847
G1 X114.854 Y89.935 E6.45151
G1 X115.564 Y89.985 E6.47518
G1 X115.935 Y90.033 E6.48763
G1 X116.941 Y90.252 E6.52187
G1 X123.698 Y92.346 E6.75715
G1 X128.945 Y93.613 E6.93669
G1 X131.778 Y94.223 E7.03307
G1 X132.446 Y94.408 E7.05612
G1 X133.088 Y94.668 E7.07916
G1 X133.695 Y95.001 E7.10219
G1 X134.26 Y95.401 E7.12521
G1 X134.528 Y95.627 E7.13687
G1 X137.729 Y98.505 E7.28005
G1 X138.216 Y98.997 E7.30307
G1 X138.45 Y99.28 E7.31528
G1 X139.31 Y100.384 E7.36183
G1 X139.585 Y100.766 E7.37748
G1 X141.858 Y104.21 E7.51473
G1 X142.205 Y104.809 E7.53776
G1 X142.359 Y105.137 E7.54981
G1 X143.407 Y107.565 E7.63776
G1 X143.627 Y108.159 E7.65883
G1 X144.422 Y110.712 E7.74777
G1 X144.621 Y111.567 E7.77696
G1 X145.134 Y114.841 E7.88719
G1 X145.204 Y115.611 E7.9129
G1 X145.271 Y118.145 E7.99721
G1 X145.229 Y119.032 E8.02675
G1 X144.955 Y121.273 E8.10184
G1 X144.81 Y122.041 E8.12783
G1 X143.514 Y127.075 E8.30073
G1 X143.302 Y127.734 E8.32375
G1 X142.994 Y128.409 E8.34843
G1 X142.725 Y128.912 E8.3674
G1 X142.364 Y129.502 E8.3904
G1 X141.937 Y130.048 E8.41346
G1 X141.5 Y130.494 E8.43423
G1 X136.989 Y134.651 E8.63825
G1 X133.215 Y138.528 E8.81821
G1 X130.538 Y141.49 E8.951
G1 X130.045 Y141.976 E8.97403
G1 X129.499 Y142.402 E8.99706
G1 X128.665 Y142.885 E9.02911
G1 X128.293 Y143.062 E9.04282
G1 X127.505 Y143.371 E9.07097
G1 X123.755 Y144.543 E9.20164
G1 X123.083 Y144.711 E9.22468
G1 X122.737 Y144.766 E9.23633
G1 X120.678 Y145.033 E9.30539
G1 X120.168 Y145.077 E9.32242
G1 X116.626 Y145.232 E9.44034
G1 X115.651 Y145.195 E9.47279
G1 X113.054 Y144.884 E9.55978
G1 X112.432 Y144.777 E9.58077
G1 X109.649 Y144.142 E9.67572
G1 X108.769 Y143.868 E9.70637
G1 X105.94 Y142.744 E9.80762
G1 X105.293 Y142.441 E9.83138
G1 X103.045 Y141.221 E9.91645
G1 X102.293 Y140.737 E9.94619
G1 X100.496 Y139.381 E10.02107
G1 X99.927 Y138.893 E10.046
G1 X96.315 Y135.38 E10.21359
G1 X95.847 Y134.869 E10.23663
G1 X95.611 Y134.56 E10.24957
G1 X95.289 Y134.108 E10.26802
G1 X94.921 Y133.522 E10.29104
G1 X94.579 Y132.789 E10.31794
G1 X94.421 Y132.38 E10.33253
G1 X94.157 Y131.502 E10.36302
G1 X92.956 Y126.019 E10.54971
G1 X91.507 Y120.844 E10.72845
G1 X90.241 Y117.009 E10.86277
G1 X90.063 Y116.34 E10.8858
G1 X89.959 Y115.617 E10.91009
G1 X89.934 Y115.311 E10.9203
G1 X89.917 Y114.618 E10.94336
G1 X89.981 Y113.929 E10.96637
G1 X90.05 Y113.55 E10.97919
G1 X90.849 Y109.868 E11.1045
G1 X90.969 Y109.405 E11.12041
G1 X91.22 Y108.574 E11.14928
G1 X91.536 Y107.753 E11.17854
G1 X93.554 Y103.468 E11.33608
G1 X93.885 Y102.859 E11.35913
G1 X94.218 Y102.376 E11.37864
G1 X96.452 Y99.459 E11.50085
G1 X96.829 Y99.014 E11.52024
G1 X98.377 Y97.355 E11.59571
M204 S5000
M205 X30 Y30
G0 F3600 X98.67 Y97.628
M204 S500
M205 X20 Y20
G1 F750 X99.296 Y97.051 E11.62403
G1 X101.677 Y95.173 E11.72489
G1 X102.315 Y94.738 E11.75057
G1 X104.922 Y93.211 E11.85106
G1 X105.591 Y92.877 E11.87593
G1 X107.224 Y92.194 E11.9348
G1 X107.87 Y91.969 E11.95756
G1 X111.592 Y90.923 E12.08615
G1 X111.88 Y90.85 E12.09603
G1 X113.567 Y90.471 E12.15354
G1 X114.227 Y90.364 E12.17577
G1 X114.895 Y90.336 E12.19801
G1 X115.513 Y90.381 E12.21862
G1 X115.884 Y90.429 E12.23106
G1 X116.823 Y90.634 E12.26303
G1 X123.598 Y92.733 E12.49893
G1 X128.845 Y94.001 E12.67847
G1 X131.694 Y94.614 E12.7754
G1 X132.339 Y94.794 E12.79767
G1 X132.957 Y95.049 E12.81991
G1 X133.541 Y95.376 E12.84217
G1 X134.26 Y95.925 E12.87226
G1 X137.461 Y98.803 E13.01543
G1 X138.135 Y99.526 E13.04831
G1 X138.995 Y100.63 E13.09485
G1 X139.251 Y100.986 E13.10943
G1 X141.524 Y104.43 E13.24668
G1 X141.991 Y105.296 E13.27941
G1 X143.039 Y107.724 E13.36736
G1 X143.245 Y108.278 E13.38702
G1 X144.04 Y110.831 E13.47596
G1 X144.225 Y111.629 E13.5032
G1 X144.738 Y114.903 E13.61342
G1 X144.804 Y115.622 E13.63744
G1 X144.871 Y118.156 E13.72175
G1 X144.832 Y118.984 E13.74932
G1 X144.558 Y121.225 E13.82441
G1 X144.422 Y121.941 E13.84865
G1 X143.126 Y126.975 E14.02154
G1 X142.921 Y127.612 E14.0438
G1 X142.641 Y128.22 E14.06606
G1 X142.372 Y128.723 E14.08503
G1 X142.022 Y129.293 E14.10728
G1 X141.606 Y129.817 E14.12953
G1 X141.229 Y130.2 E14.14741
G1 X136.704 Y134.37 E14.35207
G1 X132.927 Y138.25 E14.53217
G1 X130.241 Y141.222 E14.66541
G1 X129.764 Y141.691 E14.68766
G1 X129.234 Y142.099 E14.7099
G1 X128.493 Y142.524 E14.73831
G1 X128.121 Y142.701 E14.75202
G1 X127.386 Y142.989 E14.77827
G1 X123.636 Y144.161 E14.90895
G1 X122.685 Y144.37 E14.94133
G1 X120.626 Y144.637 E15.01039
G1 X120.151 Y144.678 E15.02624
G1 X116.609 Y144.833 E15.14417
G1 X115.698 Y144.798 E15.17449
G1 X113.101 Y144.487 E15.26148
G1 X112.521 Y144.387 E15.28106
G1 X109.738 Y143.752 E15.376
G1 X108.916 Y143.496 E15.40463
G1 X106.087 Y142.372 E15.50588
G1 X105.484 Y142.09 E15.52802
G1 X103.236 Y140.87 E15.61309
G1 X102.534 Y140.418 E15.64086
G1 X100.737 Y139.062 E15.71574
G1 X100.206 Y138.606 E15.73902
G1 X96.594 Y135.093 E15.9066
G1 X96.143 Y134.599 E15.92885
G1 X95.937 Y134.328 E15.94017
G1 X95.615 Y133.876 E15.95863
G1 X95.26 Y133.309 E15.98088
G1 X94.952 Y132.645 E16.00523
G1 X94.794 Y132.236 E16.01981
G1 X94.548 Y131.416 E16.04828
G1 X93.346 Y125.93 E16.23508
G1 X91.889 Y120.724 E16.41488
G1 X90.621 Y116.884 E16.54938
G1 X90.45 Y116.237 E16.57164
G1 X90.358 Y115.584 E16.59358
G1 X90.333 Y115.278 E16.60379
G1 X90.318 Y114.609 E16.62604
G1 X90.441 Y113.634 E16.65873
G1 X91.24 Y109.952 E16.78404
G1 X91.352 Y109.521 E16.79885
G1 X91.603 Y108.69 E16.82773
G1 X91.898 Y107.923 E16.85506
G1 X93.916 Y103.638 E17.01259
G1 X94.236 Y103.051 E17.03483
G1 X94.536 Y102.619 E17.05232
G1 X96.77 Y99.702 E17.17453
G1 X97.122 Y99.287 E17.19263
G1 X98.67 Y97.628 E17.26809
M204 S5000
M205 X30 Y30
G0 F3600 X98.962 Y97.9
M204 S500
M205 X20 Y20
G1 F750 X99.544 Y97.365 E17.29439
G1 X101.925 Y95.487 E17.39525
G1 X102.517 Y95.083 E17.41909
G1 X105.124 Y93.556 E17.51958
G1 X105.746 Y93.246 E17.54269
G1 X107.379 Y92.563 E17.60156
G1 X107.978 Y92.354 E17.62266
G1 X111.7 Y91.308 E17.75125
G1 X111.967 Y91.24 E17.76042
G1 X113.654 Y90.861 E17.81793
G1 X114.291 Y90.759 E17.83938
G1 X114.935 Y90.737 E17.86081
G1 X115.461 Y90.778 E17.87836
G1 X115.832 Y90.826 E17.8908
G1 X116.704 Y91.016 E17.92049
G1 X123.478 Y93.115 E18.15636
G1 X128.784 Y94.397 E18.33792
G1 X131.61 Y95.005 E18.43406
G1 X132.231 Y95.18 E18.45552
G1 X132.825 Y95.43 E18.47695
G1 X133.384 Y95.751 E18.49839
G1 X133.993 Y96.222 E18.524
G1 X137.194 Y99.1 E18.66717
G1 X137.819 Y99.771 E18.69767
G1 X138.679 Y100.875 E18.74422
G1 X138.917 Y101.207 E18.7578
G1 X141.19 Y104.651 E18.89505
G1 X141.624 Y105.454 E18.92541
G1 X142.672 Y107.882 E19.01337
G1 X142.863 Y108.397 E19.03163
G1 X143.658 Y110.95 E19.12057
G1 X143.83 Y111.691 E19.14587
G1 X144.343 Y114.965 E19.25609
G1 X144.404 Y115.633 E19.2784
G1 X144.471 Y118.167 E19.36271
G1 X144.435 Y118.935 E19.38829
G1 X144.161 Y121.176 E19.46338
G1 X144.035 Y121.841 E19.48589
G1 X142.739 Y126.875 E19.65878
G1 X142.54 Y127.489 E19.68025
G1 X142.288 Y128.031 E19.70013
G1 X142.019 Y128.534 E19.7191
G1 X141.681 Y129.083 E19.74054
G1 X141.277 Y129.585 E19.76197
G1 X140.958 Y129.906 E19.77703
G1 X136.419 Y134.088 E19.9823
G1 X132.653 Y137.957 E20.16188
G1 X129.945 Y140.954 E20.29623
G1 X129.484 Y141.404 E20.31765
G1 X128.97 Y141.794 E20.33911
G1 X128.321 Y142.163 E20.36394
G1 X127.949 Y142.34 E20.37765
G1 X127.266 Y142.607 E20.40204
G1 X123.516 Y143.779 E20.53271
G1 X122.634 Y143.973 E20.56275
G1 X120.575 Y144.24 E20.6318
G1 X120.133 Y144.278 E20.64656
G1 X116.591 Y144.433 E20.76448
G1 X115.746 Y144.401 E20.79261
G1 X113.149 Y144.09 E20.8796
G1 X112.61 Y143.997 E20.89779
G1 X109.827 Y143.362 E20.99273
G1 X109.064 Y143.125 E21.01931
G1 X106.235 Y142.001 E21.12055
G1 X105.675 Y141.738 E21.14113
G1 X103.427 Y140.518 E21.2262
G1 X102.775 Y140.099 E21.25198
G1 X100.978 Y138.743 E21.32685
G1 X100.484 Y138.32 E21.34849
G1 X96.872 Y134.807 E21.51607
G1 X96.263 Y134.096 E21.54721
G1 X95.941 Y133.644 E21.56567
G1 X95.6 Y133.097 E21.5871
G1 X95.325 Y132.501 E21.60894
G1 X95.167 Y132.092 E21.62352
G1 X94.938 Y131.331 E21.64995
G1 X93.727 Y125.805 E21.83811
G1 X92.275 Y120.617 E22.01729
G1 X91.001 Y116.758 E22.15246
G1 X90.837 Y116.135 E22.17388
G1 X90.756 Y115.551 E22.19349
G1 X90.731 Y115.245 E22.20371
G1 X90.719 Y114.601 E22.22513
G1 X90.832 Y113.719 E22.2547
G1 X91.631 Y110.037 E22.38002
G1 X91.735 Y109.636 E22.3938
G1 X91.986 Y108.805 E22.42267
G1 X92.26 Y108.093 E22.44804
G1 X94.278 Y103.808 E22.60558
G1 X94.588 Y103.243 E22.62701
G1 X94.854 Y102.862 E22.64247
G1 X97.088 Y99.945 E22.76467
G1 X97.414 Y99.559 E22.78148
G1 X98.962 Y97.9 E22.85694
M204 S5000
M205 X30 Y30
;MESH:F1_Tire_OpenRC_V6_mirr.stl
G0 F3600 X100.454 Y102.98
G0 X100.96 Y103.701
G0 X99.685 Y105.899
G0 X101.125 Y107.017
G0 X101.223 Y107.003
M204 S500
M205 X20 Y20
;TYPE:WALL-OUTER
G1 F750 X102.821 Y108.184 E22.92303
G1 X104.27 Y106.23 E23.00394
G1 X104.309 Y106.177 E23.00613
G1 X104.338 Y106.156 E23.00732
G1 X104.361 Y106.139 E23.00827
G1 X104.393 Y106.134 E23.00935
G1 X104.459 Y106.158 E23.01169
G1 X104.548 Y106.225 E23.01539
G1 X104.589 Y106.281 E23.0177
G1 X104.592 Y106.31 E23.01867
G1 X104.575 Y106.365 E23.02019
G1 X104.536 Y106.427 E23.02221
G1 X103.089 Y108.383 E23.08938
G1 X102.902 Y108.636 E23.09985
G1 X102.635 Y108.439 E23.11088
G1 X101.035 Y107.256 E23.16301
G1 X100.767 Y107.058 E23.17409
G1 X99.536 Y106.148 E23.22501
G1 X99.268 Y105.949 E23.23611
G1 X99.455 Y105.696 E23.24657
G1 X100.908 Y103.738 E23.32767
G1 X100.946 Y103.687 E23.32978
G1 X100.969 Y103.669 E23.33076
G1 X100.993 Y103.651 E23.33175
G1 X101.027 Y103.646 E23.3329
G1 X101.053 Y103.652 E23.33378
G1 X101.144 Y103.704 E23.33727
G1 X101.208 Y103.765 E23.34021
G1 X101.226 Y103.806 E23.3417
G1 X101.222 Y103.845 E23.343
G1 X101.173 Y103.934 E23.34586
G1 X99.724 Y105.894 E23.41304
G1 X100.954 Y106.804 E23.45318
G1 X102.32 Y104.963 E23.52943
G1 X102.359 Y104.911 E23.53159
G1 X102.383 Y104.893 E23.53259
G1 X102.409 Y104.873 E23.53368
G1 X102.445 Y104.868 E23.53489
G1 X102.502 Y104.889 E23.53691
G1 X102.598 Y104.958 E23.54084
G1 X102.639 Y105.014 E23.54315
G1 X102.642 Y105.043 E23.54412
G1 X102.625 Y105.098 E23.54564
G1 X102.586 Y105.16 E23.54766
G1 X101.223 Y107.003 E23.61104
M204 S5000
M205 X30 Y30
G0 F3600 X101.383 Y107.121
G0 X101.322 Y107.2
G0 X101.735 Y107.749
G0 X99.9 Y109.525
G0 X99.177 Y111.208
G0 X99.269 Y111.17
M204 S500
M205 X20 Y20
G1 F750 X101.25 Y111.986 E23.6823
G1 X101.288 Y112.007 E23.68374
G1 X101.352 Y112.042 E23.68617
G1 X101.382 Y112.078 E23.68773
G1 X101.388 Y112.116 E23.68901
G1 X101.366 Y112.202 E23.69196
G1 X101.322 Y112.278 E23.69488
G1 X101.289 Y112.304 E23.69628
G1 X101.241 Y112.309 E23.69756
G1 X101.167 Y112.289 E23.69947
G1 X101.139 Y112.281 E23.70006
G1 X99.149 Y111.462 E23.75648
G1 X98.841 Y111.335 E23.76756
G1 X97.362 Y110.726 E23.82076
G1 X97.06 Y110.601 E23.83163
G1 X97.181 Y110.31 E23.84211
G1 X97.75 Y108.939 E23.89148
G1 X97.776 Y108.877 E23.89372
G1 X97.831 Y108.777 E23.89752
G1 X97.862 Y108.732 E23.89933
G1 X97.896 Y108.684 E23.90129
G1 X97.961 Y108.608 E23.90462
G1 X98.02 Y108.556 E23.90723
G1 X98.032 Y108.545 E23.90777
G1 X98.063 Y108.526 E23.90898
G1 X98.092 Y108.507 E23.91014
G1 X98.103 Y108.503 E23.91052
G1 X98.163 Y108.475 E23.91273
G1 X98.261 Y108.451 E23.91608
G1 X98.397 Y108.393 E23.921
G1 X98.433 Y108.382 E23.92225
G1 X98.5 Y108.362 E23.92458
G1 X98.622 Y108.34 E23.9287
G1 X98.648 Y108.338 E23.92957
G1 X98.723 Y108.332 E23.93207
G1 X98.84 Y108.337 E23.93597
G1 X98.877 Y108.342 E23.93721
G1 X98.959 Y108.355 E23.93997
G1 X99.076 Y108.384 E23.94398
G1 X99.108 Y108.396 E23.94511
G1 X99.278 Y108.463 E23.95119
G1 X99.3 Y108.474 E23.95201
G1 X99.407 Y108.53 E23.95603
G1 X99.52 Y108.604 E23.96052
G1 X99.533 Y108.613 E23.96105
G1 X99.544 Y108.622 E23.96152
G1 X99.633 Y108.694 E23.96533
G1 X99.685 Y108.749 E23.96784
G1 X99.72 Y108.785 E23.96951
G1 X99.8 Y108.89 E23.9739
G1 X99.821 Y108.927 E23.97532
G1 X99.859 Y108.995 E23.97791
G1 X99.902 Y109.103 E23.98178
G1 X99.912 Y109.148 E23.98331
