;FLAVOR:Marlin
;TIME:6105
;Filament used: 4.03034m
;Layer height: 0.3
;Generated with Cura_SteamEngine 3.6.0
M140 S50
M105
M190 S50
M104 S215
M105
M109 S215
M82 ;absolute extrusion mode
; Ender 3 Custom Start G-code
G28 ; Home all axes
G92 E0 ; Reset Extruder
G1 Z2.0 F3000 ; Move Z Axis up little to prevent scratching of Heat Bed
G1 X0.1 Y20 Z0.3 F5000.0 ; Move to start position
G1 X0.1 Y200.0 Z0.3 F1500.0 E15 ; Draw the first line
G1 X0.4 Y200.0 Z0.3 F5000.0 ; Move to side a little
G1 X0.4 Y20 Z0.3 F1500.0 E30 ; Draw the second line
G92 E0 ; Reset Extruder
G1 Z2.0 F3000 ; Move Z Axis up little to prevent scratching of Heat Bed
; End of custom start GCode
G92 E0
;LAYER_COUNT:118
;LAYER:0
M107
M204 S5000
M205 X30 Y30
G0 F3600 X95.283 Y95.199 Z0.2
M204 S500
M205 X20 Y20
;TYPE:SKIRT
G1 F750 X95.677 Y94.812 E0.01837
G1 X97.23 Y93.414 E0.08787
G1 X97.582 Y93.12 E0.10312
G1 X98.984 Y92.029 E0.16221
G1 X99.48 Y91.679 E0.1824
G1 X101.72 Y90.255 E0.27068
G1 X102.238 Y89.959 E0.29052
G1 X104.088 Y89.012 E0.35965
G1 X104.565 Y88.792 E0.37712
G1 X106.29 Y88.081 E0.43918
G1 X106.678 Y87.935 E0.45296
G1 X108.366 Y87.364 E0.51223
G1 X108.942 Y87.199 E0.53216
G1 X111.497 Y86.594 E0.61949
G1 X112.077 Y86.485 E0.63912
G1 X113.953 Y86.22 E0.70213
G1 X114.445 Y86.17 E0.71858
G1 X116.693 Y86.028 E0.7935
G1 X117.155 Y86.015 E0.80887
G1 X118.456 Y86.027 E0.85215
G1 X118.921 Y86.048 E0.86763
G1 X121.138 Y86.23 E0.94161
G1 X121.71 Y86.304 E0.9608
G1 X124.154 Y86.729 E1.0433
G1 X124.769 Y86.867 E1.06427
G1 X126.957 Y87.474 E1.13979
G1 X127.522 Y87.659 E1.15956
G1 X129.974 Y88.592 E1.24682
G1 X130.461 Y88.801 E1.26445
G1 X131.679 Y89.384 E1.30936
G1 X132.1 Y89.605 E1.32518
G1 X134.105 Y90.755 E1.40205
G1 X134.577 Y91.054 E1.42064
G1 X136.472 Y92.373 E1.49743
G1 X136.941 Y92.733 E1.51709
G1 X138.61 Y94.14 E1.5897
G1 X139.004 Y94.501 E1.60747
G1 X140.315 Y95.808 E1.66904
G1 X140.6 Y96.111 E1.68288
G1 X141.792 Y97.465 E1.74288
G1 X142.159 Y97.923 E1.7624
G1 X143.568 Y99.855 E1.84193
G1 X143.87 Y100.309 E1.86007
G1 X144.947 Y102.086 E1.92918
G1 X145.207 Y102.558 E1.9471
G1 X146.154 Y104.466 E2.01795
G1 X146.347 Y104.893 E2.03353
G1 X147.024 Y106.552 E2.09313
G1 X147.202 Y107.047 E2.11062
G1 X147.83 Y109.041 E2.18016
G1 X147.996 Y109.681 E2.20215
G1 X148.623 Y112.745 E2.30617
G1 X148.73 Y113.485 E2.33104
G1 X148.954 Y116.117 E2.41889
G1 X148.977 Y116.707 E2.43853
G1 X148.963 Y118.607 E2.50173
G1 X148.94 Y119.101 E2.51818
G1 X148.763 Y121.187 E2.58781
G1 X148.691 Y121.742 E2.60642
G1 X148.274 Y124.14 E2.68737
G1 X148.114 Y124.832 E2.711
G1 X147.238 Y127.842 E2.81526
G1 X147.027 Y128.45 E2.83667
G1 X146.431 Y129.926 E2.88961
G1 X146.195 Y130.445 E2.90858
G1 X144.779 Y133.213 E3.01199
G1 X144.45 Y133.782 E3.03385
G1 X143.454 Y135.317 E3.09471
G1 X143.171 Y135.717 E3.111
G1 X141.749 Y137.579 E3.18893
G1 X141.382 Y138.018 E3.20796
G1 X140.138 Y139.376 E3.26921
G1 X139.742 Y139.772 E3.28784
G1 X137.633 Y141.704 E3.38297
G1 X137.079 Y142.157 E3.40677
G1 X135.129 Y143.578 E3.48702
G1 X134.733 Y143.845 E3.50291
G1 X133.222 Y144.782 E3.56204
G1 X132.71 Y145.068 E3.58155
G1 X130.571 Y146.137 E3.66108
G1 X130.062 Y146.364 E3.67962
G1 X127.911 Y147.214 E3.75655
G1 X127.228 Y147.441 E3.78048
G1 X124.177 Y148.265 E3.8856
G1 X123.392 Y148.425 E3.91224
G1 X120.294 Y148.857 E4.01628
G1 X119.639 Y148.914 E4.03815
G1 X117.766 Y148.981 E4.10048
G1 X117.261 Y148.979 E4.11728
G1 X114.945 Y148.879 E4.19438
G1 X114.48 Y148.842 E4.2099
G1 X113.091 Y148.68 E4.25641
G1 X112.615 Y148.606 E4.27243
G1 X110.601 Y148.216 E4.34066
G1 X110.094 Y148.096 E4.35799
G1 X107.91 Y147.485 E4.43342
G1 X107.464 Y147.343 E4.44899
G1 X106.027 Y146.825 E4.49979
G1 X105.608 Y146.657 E4.51481
G1 X103.994 Y145.943 E4.57351
G1 X103.567 Y145.735 E4.5893
G1 X101.905 Y144.847 E4.65198
G1 X101.545 Y144.639 E4.66581
G1 X100.047 Y143.709 E4.72445
G1 X99.552 Y143.369 E4.74442
G1 X97.432 Y141.759 E4.83296
G1 X96.972 Y141.374 E4.85291
G1 X95.428 Y139.955 E4.92266
G1 X95.051 Y139.578 E4.9404
G1 X93.657 Y138.064 E5.00884
G1 X93.316 Y137.662 E5.02638
G1 X92.047 Y136.033 E5.09506
G1 X91.743 Y135.608 E5.11244
G1 X90.697 Y134.012 E5.17591
G1 X90.445 Y133.593 E5.19217
G1 X89.425 Y131.742 E5.26246
G1 X89.214 Y131.323 E5.27806
G1 X88.473 Y129.709 E5.33713
G1 X88.248 Y129.151 E5.35714
G1 X87.384 Y126.68 E5.44421
G1 X87.187 Y125.998 E5.46782
G1 X86.533 Y123.144 E5.56521
G1 X86.407 Y122.389 E5.59066
G1 X86.074 Y119.25 E5.69565
G1 X86.038 Y118.578 E5.71804
G1 X86.037 Y116.48 E5.78782
G1 X86.059 Y115.942 E5.80572
G1 X86.251 Y113.653 E5.88212
G1 X86.354 Y112.931 E5.90638
G1 X86.994 Y109.736 E6.01476
G1 X87.202 Y108.957 E6.04158
G1 X88.184 Y106.031 E6.14423
G1 X88.425 Y105.419 E6.16611
G1 X89.219 Y103.672 E6.22993
G1 X89.405 Y103.295 E6.24391
G1 X90.238 Y101.742 E6.30253
G1 X90.541 Y101.235 E6.32217
G1 X91.887 Y99.201 E6.4033
G1 X92.165 Y98.813 E6.41917
G1 X93.243 Y97.422 E6.4777
G1 X93.626 Y96.972 E6.49736
G1 X95.283 Y95.199 E6.57807
M204 S5000
M205 X30 Y30
G0 F3600 X95.575 Y95.472
M204 S500
M205 X20 Y20
G1 F750 X95.945 Y95.11 E6.59529
G1 X97.498 Y93.712 E6.66479
G1 X97.827 Y93.436 E6.67907
G1 X99.229 Y92.345 E6.73816
G1 X99.695 Y92.017 E6.75711
G1 X101.935 Y90.593 E6.84539
G1 X102.42 Y90.315 E6.86399
G1 X104.27 Y89.368 E6.93311
G1 X104.718 Y89.162 E6.94951
G1 X106.443 Y88.451 E7.01157
G1 X106.806 Y88.314 E7.02447
G1 X108.494 Y87.743 E7.08374
G1 X109.034 Y87.588 E7.10242
G1 X111.589 Y86.983 E7.18975
G1 X112.133 Y86.881 E7.20816
G1 X114.009 Y86.616 E7.27118
G1 X114.47 Y86.569 E7.28659
G1 X116.718 Y86.427 E7.36151
G1 X117.151 Y86.415 E7.37592
G1 X118.452 Y86.427 E7.41919
G1 X118.888 Y86.447 E7.43371
G1 X121.105 Y86.629 E7.50769
G1 X121.642 Y86.698 E7.5257
G1 X124.086 Y87.123 E7.60821
G1 X124.662 Y87.252 E7.62784
G1 X126.85 Y87.859 E7.70336
G1 X127.38 Y88.033 E7.72191
G1 X129.832 Y88.966 E7.80917
G1 X130.288 Y89.162 E7.82568
G1 X131.506 Y89.745 E7.87059
G1 X131.901 Y89.952 E7.88543
G1 X133.906 Y91.102 E7.9623
G1 X134.349 Y91.382 E7.97973
G1 X136.244 Y92.701 E8.05653
G1 X136.683 Y93.039 E8.07495
G1 X138.352 Y94.446 E8.14756
G1 X138.721 Y94.784 E8.1642
G1 X140.032 Y96.091 E8.22577
G1 X140.299 Y96.375 E8.23874
G1 X141.491 Y97.729 E8.29874
G1 X141.836 Y98.159 E8.31707
G1 X143.245 Y100.091 E8.39661
G1 X143.528 Y100.516 E8.41359
G1 X144.605 Y102.293 E8.4827
G1 X144.848 Y102.736 E8.49951
G1 X145.795 Y104.644 E8.57035
G1 X145.976 Y105.044 E8.58495
G1 X146.653 Y106.703 E8.64455
G1 X146.821 Y107.168 E8.661
G1 X147.449 Y109.162 E8.73053
G1 X147.604 Y109.761 E8.75111
G1 X148.231 Y112.825 E8.85513
G1 X148.331 Y113.519 E8.87845
G1 X148.555 Y116.151 E8.96631
G1 X148.577 Y116.704 E8.98471
G1 X148.563 Y118.604 E9.04791
G1 X148.542 Y119.067 E9.06332
G1 X148.365 Y121.153 E9.13295
G1 X148.297 Y121.674 E9.15043
G1 X147.88 Y124.072 E9.23138
G1 X147.73 Y124.721 E9.25354
G1 X146.854 Y127.731 E9.35781
G1 X146.657 Y128.301 E9.37786
G1 X146.061 Y129.777 E9.43081
G1 X145.839 Y130.263 E9.44858
G1 X144.423 Y133.031 E9.55199
G1 X144.114 Y133.564 E9.57248
G1 X143.118 Y135.099 E9.63334
G1 X142.853 Y135.475 E9.64864
G1 X141.431 Y137.337 E9.72657
G1 X141.087 Y137.748 E9.74439
G1 X139.843 Y139.106 E9.80565
G1 X139.472 Y139.477 E9.8231
G1 X137.363 Y141.409 E9.91823
G1 X136.844 Y141.834 E9.94054
G1 X134.894 Y143.255 E10.02079
G1 X134.522 Y143.505 E10.03569
G1 X133.011 Y144.442 E10.09483
G1 X132.531 Y144.71 E10.11311
G1 X130.392 Y145.779 E10.19265
G1 X129.915 Y145.992 E10.21002
G1 X127.764 Y146.842 E10.28695
G1 X127.123 Y147.054 E10.3094
G1 X124.072 Y147.878 E10.41452
G1 X123.337 Y148.029 E10.43947
G1 X120.239 Y148.461 E10.54351
G1 X119.624 Y148.514 E10.56404
G1 X117.751 Y148.581 E10.62638
G1 X117.278 Y148.579 E10.64211
G1 X114.962 Y148.479 E10.71921
G1 X114.526 Y148.445 E10.73376
G1 X113.137 Y148.283 E10.78027
G1 X112.691 Y148.214 E10.79528
G1 X110.677 Y147.824 E10.86351
G1 X110.201 Y147.711 E10.87978
G1 X108.017 Y147.1 E10.95521
G1 X107.599 Y146.966 E10.96981
G1 X106.162 Y146.448 E11.02061
G1 X105.77 Y146.291 E11.03466
G1 X104.156 Y145.577 E11.09336
G1 X103.756 Y145.382 E11.10816
G1 X102.094 Y144.494 E11.17083
G1 X101.756 Y144.3 E11.1838
G1 X100.258 Y143.37 E11.24244
G1 X99.794 Y143.05 E11.26119
G1 X97.674 Y141.44 E11.34973
G1 X97.243 Y141.08 E11.36841
G1 X95.699 Y139.661 E11.43815
G1 X95.345 Y139.307 E11.4548
G1 X93.951 Y137.793 E11.52325
G1 X93.632 Y137.416 E11.53968
G1 X92.363 Y135.787 E11.60836
G1 X92.078 Y135.389 E11.62464
G1 X91.032 Y133.793 E11.68811
G1 X90.795 Y133.4 E11.70337
G1 X89.775 Y131.549 E11.77367
G1 X89.577 Y131.156 E11.7883
G1 X88.836 Y129.542 E11.84737
G1 X88.625 Y129.019 E11.86613
G1 X87.761 Y126.548 E11.95319
G1 X87.577 Y125.908 E11.97534
G1 X86.923 Y123.054 E12.07273
G1 X86.804 Y122.347 E12.09657
G1 X86.471 Y119.208 E12.20156
G1 X86.438 Y118.578 E12.22255
G1 X86.437 Y116.48 E12.29233
G1 X86.458 Y115.975 E12.30914
G1 X86.65 Y113.686 E12.38554
G1 X86.746 Y113.01 E12.40825
G1 X87.386 Y109.815 E12.51662
G1 X87.581 Y109.084 E12.54179
G1 X88.563 Y106.158 E12.64444
G1 X88.789 Y105.584 E12.66496
G1 X89.583 Y103.837 E12.72878
G1 X89.758 Y103.484 E12.74189
G1 X90.591 Y101.931 E12.8005
G1 X90.874 Y101.456 E12.81889
G1 X92.22 Y99.422 E12.90001
G1 X92.481 Y99.058 E12.91491
G1 X93.559 Y97.667 E12.97344
G1 X93.918 Y97.245 E12.99187
G1 X95.575 Y95.472 E13.07259
M204 S5000
M205 X30 Y30
G0 F3600 X95.868 Y95.745
M204 S500
M205 X20 Y20
G1 F750 X96.212 Y95.407 E13.08863
G1 X97.765 Y94.009 E13.15812
G1 X98.073 Y93.751 E13.17149
G1 X99.475 Y92.66 E13.23057
G1 X99.91 Y92.354 E13.24826
G1 X102.15 Y90.93 E13.33655
G1 X102.602 Y90.671 E13.35387
G1 X104.452 Y89.724 E13.423
G1 X104.87 Y89.532 E13.4383
G1 X106.595 Y88.821 E13.50035
G1 X106.935 Y88.693 E13.51244
G1 X108.623 Y88.122 E13.5717
G1 X109.127 Y87.978 E13.58914
G1 X111.682 Y87.373 E13.67647
G1 X112.189 Y87.277 E13.69363
G1 X114.065 Y87.012 E13.75665
G1 X114.495 Y86.968 E13.77102
G1 X116.743 Y86.826 E13.84594
G1 X117.148 Y86.815 E13.85941
G1 X118.449 Y86.827 E13.90269
G1 X118.855 Y86.846 E13.91621
G1 X121.072 Y87.028 E13.99019
G1 X121.573 Y87.092 E14.00699
G1 X124.017 Y87.517 E14.0895
G1 X124.555 Y87.638 E14.10784
G1 X126.743 Y88.245 E14.18336
G1 X127.238 Y88.407 E14.20068
G1 X129.69 Y89.34 E14.28794
G1 X130.116 Y89.523 E14.30336
G1 X131.334 Y90.106 E14.34828
G1 X131.702 Y90.299 E14.3621
G1 X133.707 Y91.449 E14.43897
G1 X134.12 Y91.711 E14.45524
G1 X136.015 Y93.03 E14.53203
G1 X136.425 Y93.344 E14.54921
G1 X138.094 Y94.751 E14.62181
G1 X138.439 Y95.067 E14.63738
G1 X139.75 Y96.374 E14.69895
G1 X139.999 Y96.64 E14.71107
G1 X141.191 Y97.994 E14.77106
G1 X141.513 Y98.394 E14.78814
G1 X142.922 Y100.326 E14.86768
G1 X143.186 Y100.723 E14.88353
G1 X144.263 Y102.5 E14.95264
G1 X144.49 Y102.913 E14.96832
G1 X145.437 Y104.821 E15.03917
G1 X145.606 Y105.195 E15.05282
G1 X146.283 Y106.854 E15.11241
G1 X146.439 Y107.288 E15.12775
G1 X147.067 Y109.282 E15.19728
G1 X147.212 Y109.841 E15.21649
G1 X147.839 Y112.905 E15.32051
G1 X147.933 Y113.553 E15.34229
G1 X148.157 Y116.185 E15.43015
G1 X148.177 Y116.701 E15.44732
G1 X148.163 Y118.601 E15.51052
G1 X148.143 Y119.033 E15.5249
G1 X147.966 Y121.119 E15.59453
G1 X147.903 Y121.605 E15.61083
G1 X147.486 Y124.003 E15.69179
G1 X147.346 Y124.609 E15.71247
G1 X146.47 Y127.619 E15.81674
G1 X146.286 Y128.151 E15.83546
G1 X145.69 Y129.627 E15.88841
G1 X145.483 Y130.08 E15.90497
G1 X144.067 Y132.848 E16.00838
G1 X143.779 Y133.346 E16.02752
G1 X142.783 Y134.881 E16.08838
G1 X142.536 Y135.232 E16.10265
G1 X141.114 Y137.094 E16.18058
G1 X140.792 Y137.478 E16.19724
G1 X139.548 Y138.836 E16.2585
G1 X139.202 Y139.182 E16.27477
G1 X137.093 Y141.114 E16.3699
G1 X136.608 Y141.511 E16.39075
G1 X134.658 Y142.932 E16.471
G1 X134.311 Y143.165 E16.4849
G1 X132.8 Y144.102 E16.54404
G1 X132.352 Y144.352 E16.5611
G1 X130.213 Y145.421 E16.64063
G1 X129.768 Y145.62 E16.65685
G1 X127.617 Y146.47 E16.73377
G1 X127.019 Y146.668 E16.75472
G1 X123.968 Y147.492 E16.85984
G1 X123.281 Y147.632 E16.88315
G1 X120.183 Y148.064 E16.98719
G1 X119.61 Y148.114 E17.00632
G1 X117.737 Y148.181 E17.06866
G1 X117.295 Y148.18 E17.08336
G1 X114.979 Y148.08 E17.16046
G1 X114.572 Y148.047 E17.17404
G1 X113.183 Y147.885 E17.22055
G1 X112.767 Y147.821 E17.23455
G1 X110.753 Y147.431 E17.30278
G1 X110.309 Y147.326 E17.31796
G1 X108.125 Y146.715 E17.39339
G1 X107.735 Y146.59 E17.40701
G1 X106.298 Y146.072 E17.45781
G1 X105.931 Y145.925 E17.47096
G1 X104.317 Y145.211 E17.52966
G1 X103.944 Y145.029 E17.54347
G1 X102.282 Y144.141 E17.60614
G1 X101.967 Y143.96 E17.61823
G1 X100.469 Y143.03 E17.67687
G1 X100.036 Y142.732 E17.69435
G1 X97.916 Y141.122 E17.78289
G1 X97.514 Y140.785 E17.80034
G1 X95.97 Y139.366 E17.87009
G1 X95.639 Y139.036 E17.88563
G1 X94.245 Y137.522 E17.95408
G1 X93.947 Y137.17 E17.96942
G1 X92.678 Y135.541 E18.0381
G1 X92.412 Y135.17 E18.05329
G1 X91.366 Y133.574 E18.11675
G1 X91.145 Y133.207 E18.131
G1 X90.125 Y131.356 E18.2013
G1 X89.941 Y130.99 E18.21492
G1 X89.2 Y129.376 E18.27399
G1 X89.003 Y128.887 E18.29152
G1 X88.139 Y126.416 E18.37859
G1 X87.966 Y125.819 E18.39926
G1 X87.312 Y122.965 E18.49665
G1 X87.202 Y122.305 E18.5189
G1 X86.869 Y119.166 E18.62389
G1 X86.838 Y118.578 E18.64348
G1 X86.837 Y116.48 E18.71325
G1 X86.857 Y116.009 E18.72893
G1 X87.049 Y113.72 E18.80533
G1 X87.138 Y113.088 E18.82656
G1 X87.778 Y109.893 E18.93494
G1 X87.96 Y109.211 E18.95842
G1 X88.942 Y106.285 E19.06107
G1 X89.153 Y105.75 E19.0802
G1 X89.947 Y104.003 E19.14402
G1 X90.11 Y103.673 E19.15627
G1 X90.943 Y102.12 E19.21488
G1 X91.208 Y101.677 E19.23205
G1 X92.554 Y99.643 E19.31317
G1 X92.798 Y99.303 E19.32709
G1 X93.876 Y97.912 E19.38562
G1 X94.211 Y97.518 E19.40282
G1 X95.868 Y95.745 E19.48354
M204 S5000
M205 X30 Y30
G0 F3600 X96.16 Y96.018
M204 S500
M205 X20 Y20
G1 F750 X96.48 Y95.704 E19.49845
G1 X98.033 Y94.306 E19.56795
G1 X98.318 Y94.067 E19.58032
G1 X99.72 Y92.976 E19.6394
G1 X100.124 Y92.692 E19.65583
G1 X102.364 Y91.268 E19.74411
G1 X102.785 Y91.027 E19.76025
G1 X104.635 Y90.08 E19.82937
G1 X105.022 Y89.901 E19.84355
G1 X106.747 Y89.19 E19.90561
G1 X107.063 Y89.072 E19.91683
G1 X108.751 Y88.501 E19.9761
G1 X109.219 Y88.367 E19.99229
G1 X111.774 Y87.762 E20.07962
G1 X112.245 Y87.673 E20.09556
G1 X114.121 Y87.408 E20.15858
G1 X114.52 Y87.367 E20.17192
G1 X116.768 Y87.225 E20.24683
G1 X117.144 Y87.215 E20.25934
G1 X118.445 Y87.227 E20.30262
G1 X118.822 Y87.244 E20.31517
G1 X121.039 Y87.426 E20.38916
G1 X121.505 Y87.486 E20.40478
G1 X123.949 Y87.911 E20.48729
G1 X124.448 Y88.023 E20.5043
G1 X126.636 Y88.63 E20.57982
G1 X127.095 Y88.781 E20.59589
G1 X129.547 Y89.714 E20.68315
G1 X129.943 Y89.884 E20.69748
G1 X131.161 Y90.467 E20.7424
G1 X131.503 Y90.646 E20.75524
G1 X133.508 Y91.796 E20.83211
G1 X133.892 Y92.039 E20.84723
G1 X135.787 Y93.358 E20.92402
G1 X136.168 Y93.65 E20.93999
G1 X137.837 Y95.057 E21.01259
G1 X138.156 Y95.35 E21.027
G1 X139.467 Y96.657 E21.08857
G1 X139.699 Y96.904 E21.09984
G1 X140.891 Y98.258 E21.15984
G1 X141.189 Y98.63 E21.17569
G1 X142.598 Y100.562 E21.25522
G1 X142.844 Y100.931 E21.26997
G1 X143.921 Y102.708 E21.33908
G1 X144.132 Y103.091 E21.35363
G1 X145.079 Y104.999 E21.42448
G1 X145.236 Y105.346 E21.43714
G1 X145.913 Y107.005 E21.49674
G1 X146.058 Y107.408 E21.51098
G1 X146.686 Y109.402 E21.58052
G1 X146.82 Y109.922 E21.59838
G1 X147.447 Y112.986 E21.7024
G1 X147.534 Y113.587 E21.7226
G1 X147.758 Y116.219 E21.81045
G1 X147.777 Y116.698 E21.8264
G1 X147.763 Y118.598 E21.88959
G1 X147.744 Y119 E21.90298
G1 X147.567 Y121.086 E21.97261
G1 X147.509 Y121.537 E21.98773
G1 X147.092 Y123.935 E22.06869
G1 X146.962 Y124.497 E22.08787
G1 X146.086 Y127.507 E22.19214
G1 X145.915 Y128.001 E22.20953
G1 X145.319 Y129.477 E22.26247
G1 X145.126 Y129.898 E22.27787
G1 X143.71 Y132.666 E22.38128
G1 X143.443 Y133.128 E22.39903
G1 X142.447 Y134.663 E22.45989
G1 X142.218 Y134.989 E22.47314
G1 X140.796 Y136.851 E22.55107
G1 X140.497 Y137.207 E22.56653
G1 X139.253 Y138.565 E22.62778
G1 X138.932 Y138.887 E22.64291
G1 X136.823 Y140.819 E22.73804
G1 X136.372 Y141.188 E22.75742
G1 X134.422 Y142.609 E22.83767
G1 X134.1 Y142.825 E22.85056
G1 X132.589 Y143.762 E22.9097
G1 X132.174 Y143.994 E22.92551
